; HEADER_BLOCK_START
; generated by OrcaSlicer 1.8.1 on 2023-12-16 at 21:24:48
; total layer number: 7
; HEADER_BLOCK_END

; THUMBNAIL_BLOCK_START

;
; THUMBNAIL_BLOCK_END

; external perimeters extrusion width = 0.40mm
; perimeters extrusion width = 0.45mm
; infill extrusion width = 0.45mm
; solid infill extrusion width = 0.48mm
; top infill extrusion width = 0.48mm
; first layer extrusion width = 0.50mm

; external perimeters extrusion width = 0.40mm
; perimeters extrusion width = 0.45mm
; infill extrusion width = 0.45mm
; solid infill extrusion width = 0.48mm
; top infill extrusion width = 0.48mm
; first layer extrusion width = 0.50mm

; external perimeters extrusion width = 0.40mm
; perimeters extrusion width = 0.45mm
; infill extrusion width = 0.45mm
; solid infill extrusion width = 0.48mm
; top infill extrusion width = 0.48mm
; first layer extrusion width = 0.50mm

; external perimeters extrusion width = 0.40mm
; perimeters extrusion width = 0.45mm
; infill extrusion width = 0.45mm
; solid infill extrusion width = 0.48mm
; top infill extrusion width = 0.48mm
; first layer extrusion width = 0.50mm

; external perimeters extrusion width = 0.40mm
; perimeters extrusion width = 0.45mm
; infill extrusion width = 0.45mm
; solid infill extrusion width = 0.48mm
; top infill extrusion width = 0.48mm
; first layer extrusion width = 0.50mm

; external perimeters extrusion width = 0.40mm
; perimeters extrusion width = 0.45mm
; infill extrusion width = 0.45mm
; solid infill extrusion width = 0.48mm
; top infill extrusion width = 0.48mm
; first layer extrusion width = 0.50mm

; external perimeters extrusion width = 0.40mm
; perimeters extrusion width = 0.45mm
; infill extrusion width = 0.45mm
; solid infill extrusion width = 0.48mm
; top infill extrusion width = 0.48mm
; first layer extrusion width = 0.50mm

; external perimeters extrusion width = 0.40mm
; perimeters extrusion width = 0.45mm
; infill extrusion width = 0.45mm
; solid infill extrusion width = 0.48mm
; top infill extrusion width = 0.48mm
; first layer extrusion width = 0.50mm

; external perimeters extrusion width = 0.40mm
; perimeters extrusion width = 0.45mm
; infill extrusion width = 0.45mm
; solid infill extrusion width = 0.48mm
; top infill extrusion width = 0.48mm
; first layer extrusion width = 0.50mm

; EXECUTABLE_BLOCK_START
EXCLUDE_OBJECT_DEFINE NAME=flowrate_0_id_0_copy_0 CENTER=150,150 POLYGON=[[130,135],[170,135],[170,155],[160,165],[140,165],[130,155],[130,135]]
EXCLUDE_OBJECT_DEFINE NAME=flowrate_10_id_1_copy_0 CENTER=192,182 POLYGON=[[172,167],[212,167],[212,187],[202,197],[182,197],[172,187],[172,167]]
EXCLUDE_OBJECT_DEFINE NAME=flowrate_15_id_2_copy_0 CENTER=150,182 POLYGON=[[130,167],[170,167],[170,187],[160,197],[140,197],[130,187],[130,167]]
EXCLUDE_OBJECT_DEFINE NAME=flowrate_20_id_3_copy_0 CENTER=108,182 POLYGON=[[88,167],[128,167],[128,187],[118,197],[98,197],[88,187],[88,167]]
EXCLUDE_OBJECT_DEFINE NAME=flowrate_5_id_4_copy_0 CENTER=108,150 POLYGON=[[88,135],[128,135],[128,155],[118,165],[98,165],[88,155],[88,135]]
EXCLUDE_OBJECT_DEFINE NAME=flowrate_m10_id_5_copy_0 CENTER=192,118 POLYGON=[[172,103],[212,103],[212,123],[202,133],[182,133],[172,123],[172,103]]
EXCLUDE_OBJECT_DEFINE NAME=flowrate_m15_id_6_copy_0 CENTER=150,118 POLYGON=[[130,103],[170,103],[170,123],[160,133],[140,133],[130,123],[130,103]]
EXCLUDE_OBJECT_DEFINE NAME=flowrate_m20_id_7_copy_0 CENTER=108,118 POLYGON=[[88,103],[128,103],[128,123],[118,133],[98,133],[88,123],[88,103]]
EXCLUDE_OBJECT_DEFINE NAME=flowrate_m5_id_8_copy_0 CENTER=192,150 POLYGON=[[172,135],[212,135],[212,155],[202,165],[182,165],[172,155],[172,135]]
M73 P0 R64
;TYPE:Custom
; Initial setups

START_PRINT EXTRUDER_TEMP=205 BED_TEMP=70

;G90 ; use absolute coordinates
;M83 ; extruder relative mode
;M220 S100 ; reset speed factor to 100%
;M221 S100 ; reset extrusion rate to 100%

; Set the heating
;M190 S70 ; wait for bed to heat up
;M104 S205 ; start nozzle heating but don't wait

; Home
;G1 Z3 F3000 ; move z up little to prevent scratching of surface
;G28 ; home all axes
;G1 X3 Y3 F5000 ; move to corner of the bed to avoid ooze over centre

; Wait for final heating
;M109 S205 ; wait for the nozzle to heat up
;M190 S70 ; wait for the bed to heat up

; Return to prime position, Prime line routine
G92 E0 ; Reset Extruder
G1 Z3 F3000 ; move z up little to prevent scratching of surface
G1 X10 Y3 Z0.25 F5000.0 ; Move to start position
G1 X100 Y3 Z0.25 F1500.0 E15 ; Draw the first line
G1 X100 Y3.2 Z0.25 F5000.0 ; Move to side a little
G1 X10 Y3.2 Z0.25 F1500.0 E30 ; Draw the second line
G92 E0 ; Reset Extruder
;M221 S95
G90
G21
M83 ; use relative distances for extrusion
; filament start gcode
M106 S0
;LAYER_CHANGE
;Z:0.25
;HEIGHT:0.25
;BEFORE_LAYER_CHANGE
G92 E0
;0.25


G1 E-.8 F2100
;AFTER_LAYER_CHANGE
;0.25
;_SET_FAN_SPEED_CHANGING_LAYER
G1 Z.4 F9000
G1 X86.144 Y100.224
G1 Z.4
G1 Z.25
G1 E.8 F2100
SET_VELOCITY_LIMIT ACCEL=500 ACCEL_TO_DECEL=250
;TYPE:Skirt
;WIDTH:0.5
G1 F3000
G1 X88 Y99.661 E.08818
G1 X212 Y99.661 E5.63763
G1 X213.574 Y100.055 E.07375
G1 X214.776 Y101.144 E.07375
G1 X215.339 Y103 E.08818
G1 X215.339 Y187 E3.81904
G1 X214.945 Y188.574 E.07375
G1 X214.361 Y189.361 E.04457
G1 X204.361 Y199.361 E.64297
G1 X202.97 Y200.195 E.07375
G1 X202 Y200.339 E.04457
G1 X98 Y200.339 E4.72834
G1 X96.426 Y199.945 E.07375
G1 X95.639 Y199.361 E.04457
G1 X85.639 Y189.361 E.64297
G1 X84.805 Y187.97 E.07375
G1 X84.661 Y187 E.04457
G1 X84.661 Y103 E3.81904
G1 X85.055 Y101.426 E.07375
G1 X86.117 Y100.254 E.07193
G1 X86.457 Y100.598 F9000
G1 F3000
G1 X86.573 Y100.484 E.00738
G1 X88 Y100.107 E.06711
G1 X212 Y100.107 E5.63763
G1 X213.456 Y100.5 E.06856
G1 X214.516 Y101.573 E.06856
G1 X214.893 Y103 E.06711
G1 X214.893 Y187 E3.81904
G1 X214.045 Y189.045 E.10066
G1 X204.045 Y199.045 E.64297
G1 X202 Y199.893 E.10066
G1 X98 Y199.893 E4.72834
G1 X95.955 Y199.045 E.10066
G1 X85.955 Y189.045 E.64297
G1 X85.107 Y187 E.10066
G1 X85.107 Y103 E3.81904
M73 P0 R63
G1 X85.5 Y101.544 E.06856
G1 X86.429 Y100.626 E.05936
G1 X86.74 Y100.989 F9000
G1 F3000
G1 X86.995 Y100.769 E.01529
G1 X88 Y100.554 E.04671
G1 X212 Y100.554 E5.63763
G1 X213.328 Y100.945 E.06295
G1 X214.231 Y101.995 E.06295
G1 X214.446 Y103 E.04671
G1 X214.446 Y187 E3.81904
G1 X213.73 Y188.73 E.08513
G1 X203.73 Y198.73 E.64297
G1 X202 Y199.446 E.08513
G1 X98 Y199.446 E4.72834
G1 X96.27 Y198.73 E.08513
G1 X86.27 Y188.73 E.64297
G1 X85.554 Y187 E.08513
G1 X85.554 Y103 E3.81904
G1 X85.945 Y101.672 E.06295
G1 X86.71 Y101.015 E.04584
; printing object flowrate_m20 id:7 copy 0
G1 E-.8 F2100
EXCLUDE_OBJECT_START NAME=flowrate_m20_id_7_copy_0
G1 Z.65 F9000
G1 X99.12 Y122.835 Z.65
G1 Z.25
G1 E.8 F2100
;TYPE:Inner wall
;WIDTH:0.499999
G1 F2700
G1 X99.096 Y122.653 E.00668
G1 X98.952 Y122.349 E.01222
G1 X98.696 Y122.08 E.01347
G1 X98.389 Y121.918 E.01266
G1 X98.027 Y121.857 E.01334
G1 X89.143 Y121.857 E.32313
G1 X89.143 Y104.143 E.64431
G1 X126.857 Y104.143 E1.37175
M73 P1 R63
G1 X126.857 Y113 E.32216
G1 X126.857 Y121.857 E.32216
G1 X118 Y121.857 E.32216
G1 X117.788 Y121.873 E.00771
G1 X117.448 Y121.989 E.01308
G1 X117.128 Y122.245 E.01491
G1 X116.928 Y122.581 E.01423
G1 X116.857 Y122.973 E.01448
G1 X116.857 Y131.857 E.32313
G1 X99.143 Y131.857 E.64431
G1 X99.143 Y123 E.32216
G1 X99.126 Y122.874 E.00462
G1 X98.684 Y122.906 F9000
G1 F2700
G1 X98.668 Y122.781 E.00459
G1 X98.534 Y122.536 E.01015
G1 X98.294 Y122.359 E.01084
G1 X98.027 Y122.304 E.00993
G1 X88.696 Y122.304 E.33937
G1 X88.696 Y103.696 E.67678
G1 X127.304 Y103.696 E1.40422
G1 X127.304 Y113 E.33839
G1 X127.304 Y122.304 E.33839
G1 X118 Y122.304 E.33839
G1 X117.808 Y122.324 E.00701
G1 X117.533 Y122.469 E.01131
G1 X117.363 Y122.698 E.0104
G1 X117.304 Y122.973 E.01022
G1 X117.304 Y132.304 E.33937
G1 X98.696 Y132.304 E.67678
G1 X98.696 Y123 E.33839
G1 X98.689 Y122.946 E.002
G1 X98.25 Y122.973 F9000
SET_VELOCITY_LIMIT ACCEL=700 ACCEL_TO_DECEL=350
;TYPE:Outer wall
G1 F2700
G1 X98.185 Y122.816 E.00618
G1 X98.027 Y122.75 E.00624
G1 X88.25 Y122.75 E.3556
G1 X88.25 Y103.25 E.70925
G1 X127.75 Y103.25 E1.43669
G1 X127.75 Y113 E.35462
G1 X127.75 Y122.75 E.35462
G1 X117.973 Y122.75 E.3556
G1 X117.815 Y122.816 E.00624
G1 X117.75 Y122.973 E.00618
G1 X117.75 Y132.75 E.3556
G1 X98.25 Y132.75 E.70925
G1 X98.25 Y123.013 E.35415
G1 E-.8 F2100
G1 Z.65 F9000
G1 X98.67 Y123.013 Z.65
G1 X127.33 Y103.67
G1 X127.33 Y105.233
G1 X126.679 Y105.233
G1 Z.25
G1 E.8 F2100
SET_VELOCITY_LIMIT ACCEL=500 ACCEL_TO_DECEL=250
;TYPE:Bottom surface
;WIDTH:0.50426
G1 X125.968 Y104.522 E.03689
G1 X125.331 Y104.522 E.0234
G1 X126.478 Y105.669 E.05956
G1 X126.478 Y106.306 E.0234
G1 X124.694 Y104.522 E.09265
G1 X124.057 Y104.522 E.0234
G1 X126.478 Y106.943 E.12574
G1 X126.478 Y107.581 E.0234
G1 X123.419 Y104.522 E.15883
G1 X122.782 Y104.522 E.0234
G1 X126.478 Y108.218 E.19192
G1 X126.478 Y108.855 E.0234
G1 X122.145 Y104.522 E.22501
G1 X121.507 Y104.522 E.0234
G1 X126.478 Y109.493 E.25811
G1 X126.478 Y110.13 E.0234
G1 X120.87 Y104.522 E.2912
G1 X120.233 Y104.522 E.0234
G1 X126.478 Y110.767 E.32429
G1 X126.478 Y111.404 E.0234
G1 X119.596 Y104.522 E.35738
G1 X118.958 Y104.522 E.0234
G1 X126.478 Y112.042 E.39047
G1 X126.478 Y112.679 E.0234
G1 X118.321 Y104.522 E.42357
G1 X117.684 Y104.522 E.0234
G1 X126.478 Y113.316 E.45666
G1 X126.478 Y113.953 E.0234
G1 X117.047 Y104.522 E.48975
G1 X116.409 Y104.522 E.0234
G1 X126.478 Y114.591 E.52284
G1 X126.478 Y115.228 E.0234
G1 X115.772 Y104.522 E.55593
G1 X115.135 Y104.522 E.0234
G1 X126.478 Y115.865 E.58903
G1 X126.478 Y116.502 E.0234
G1 X114.498 Y104.522 E.62212
G1 X113.86 Y104.522 E.0234
G1 X126.478 Y117.14 E.65521
G1 X126.478 Y117.777 E.0234
G1 X113.223 Y104.522 E.6883
G1 X112.586 Y104.522 E.0234
G1 X126.478 Y118.414 E.72139
G1 X126.478 Y119.051 E.0234
G1 X111.949 Y104.522 E.75449
G1 X111.311 Y104.522 E.0234
G1 X126.478 Y119.689 E.78758
G1 X126.478 Y120.326 E.0234
G1 X110.674 Y104.522 E.82067
G1 X110.037 Y104.522 E.0234
G1 X126.478 Y120.963 E.85376
G1 X126.478 Y121.478 E.0189
G1 X126.355 Y121.478 E.0045
G1 X109.4 Y104.522 E.88049
G1 X108.762 Y104.522 E.0234
G1 X125.718 Y121.478 E.88049
G1 X125.081 Y121.478 E.0234
G1 X108.125 Y104.522 E.88049
G1 X107.488 Y104.522 E.0234
G1 X124.444 Y121.478 E.88049
G1 X123.806 Y121.478 E.0234
G1 X106.851 Y104.522 E.88049
G1 X106.213 Y104.522 E.0234
G1 X123.169 Y121.478 E.88049
G1 X122.532 Y121.478 E.0234
G1 X105.576 Y104.522 E.88049
G1 X104.939 Y104.522 E.0234
G1 X121.895 Y121.478 E.88049
G1 X121.257 Y121.478 E.0234
G1 X104.301 Y104.522 E.88049
G1 X103.664 Y104.522 E.0234
G1 X120.62 Y121.478 E.88049
G1 X119.983 Y121.478 E.0234
G1 X103.027 Y104.522 E.88049
G1 X102.39 Y104.522 E.0234
G1 X119.346 Y121.478 E.88049
G1 X118.708 Y121.478 E.0234
G1 X101.752 Y104.522 E.88049
G1 X101.115 Y104.522 E.0234
G1 X118.071 Y121.478 E.88049
G1 X117.712 Y121.5 E.0132
G1 X117.515 Y121.559 E.00756
G1 X100.478 Y104.522 E.88472
G1 X99.841 Y104.522 E.0234
G1 X117.092 Y121.773 E.89584
G1 X116.912 Y121.919 E.0085
G1 X116.771 Y122.09 E.00813
G1 X99.203 Y104.522 E.91227
G1 X98.566 Y104.522 E.0234
G1 X116.557 Y122.513 E.93426
G1 X116.514 Y122.643 E.00501
G1 X116.482 Y122.861 E.00812
G1 X116.482 Y123.075 E.00783
G1 X97.929 Y104.522 E.96341
G1 X97.292 Y104.522 E.0234
G1 X116.481 Y123.712 E.99649
G1 X116.481 Y124.349 E.02339
G1 X96.654 Y104.522 E1.02957
G1 X96.017 Y104.522 E.0234
G1 X116.481 Y124.986 E1.06265
G1 X116.48 Y125.623 E.02339
G1 X95.38 Y104.522 E1.09572
M73 P2 R63
G1 X94.743 Y104.522 E.0234
G1 X116.48 Y126.26 E1.1288
G1 X116.48 Y126.897 E.02339
G1 X94.105 Y104.522 E1.16188
G1 X93.468 Y104.522 E.0234
G1 X116.48 Y127.534 E1.19496
G1 X116.479 Y128.171 E.02339
G1 X92.831 Y104.522 E1.22803
G1 X92.194 Y104.522 E.0234
G1 X116.479 Y128.808 E1.26111
G1 X116.479 Y129.445 E.02339
G1 X91.556 Y104.522 E1.29419
G1 X90.919 Y104.522 E.0234
G1 X116.479 Y130.082 E1.32727
G1 X116.478 Y130.719 E.02339
G1 X90.282 Y104.522 E1.36035
G1 X89.645 Y104.522 E.0234
G1 X116.478 Y131.356 E1.39342
M73 P2 R62
G1 X116.478 Y131.478 E.00449
G1 X115.963 Y131.478 E.01891
G1 X89.522 Y105.037 E1.37304
G1 X89.522 Y105.674 E.0234
G1 X115.326 Y131.478 E1.33995
G1 X114.689 Y131.478 E.0234
G1 X89.522 Y106.311 E1.30686
G1 X89.522 Y106.949 E.0234
G1 X114.051 Y131.478 E1.27377
G1 X113.414 Y131.478 E.0234
G1 X89.522 Y107.586 E1.24067
G1 X89.522 Y108.223 E.0234
G1 X112.777 Y131.478 E1.20758
G1 X112.14 Y131.478 E.0234
G1 X89.522 Y108.86 E1.17449
G1 X89.522 Y109.498 E.0234
G1 X111.502 Y131.478 E1.1414
G1 X110.865 Y131.478 E.0234
G1 X89.522 Y110.135 E1.10831
G1 X89.522 Y110.772 E.0234
G1 X110.228 Y131.478 E1.07522
G1 X109.591 Y131.478 E.0234
G1 X89.522 Y111.409 E1.04212
G1 X89.522 Y112.047 E.0234
G1 X108.953 Y131.478 E1.00903
G1 X108.316 Y131.478 E.0234
G1 X99.487 Y122.648 E.4585
G1 X99.392 Y122.36 E.01114
G1 X99.266 Y122.136 E.00944
G1 X99.088 Y121.919 E.01031
G1 X98.833 Y121.713 E.01203
G1 X98.621 Y121.6 E.00881
G1 X98.36 Y121.522 E.01003
G1 X89.522 Y112.684 E.45893
G1 X89.522 Y113.321 E.0234
G1 X97.679 Y121.478 E.42356
G1 X97.041 Y121.478 E.0234
G1 X89.522 Y113.959 E.39047
G1 X89.522 Y114.596 E.0234
G1 X96.404 Y121.478 E.35738
G1 X95.767 Y121.478 E.0234
G1 X89.522 Y115.233 E.32429
G1 X89.522 Y115.87 E.0234
G1 X95.13 Y121.478 E.29119
G1 X94.492 Y121.478 E.0234
G1 X89.522 Y116.508 E.2581
G1 X89.522 Y117.145 E.0234
G1 X93.855 Y121.478 E.22501
G1 X93.218 Y121.478 E.0234
G1 X89.522 Y117.782 E.19192
G1 X89.522 Y118.419 E.0234
G1 X92.581 Y121.478 E.15883
G1 X91.943 Y121.478 E.0234
G1 X89.522 Y119.057 E.12574
G1 X89.522 Y119.694 E.0234
G1 X91.306 Y121.478 E.09264
G1 X90.669 Y121.478 E.0234
G1 X89.522 Y120.331 E.05955
G1 X89.522 Y120.968 E.0234
G1 X90.232 Y121.679 E.03689
G1 E-.8
G1 Z.65 F9000
G1 X90.232 Y122.33 Z.65
G1 X98.67 Y122.33
G1 X98.67 Y123.117
G1 X99.318 Y123.117
G1 Z.25
G1 E.8 F2100
G1 X107.679 Y131.478 E.43418
G1 X107.041 Y131.478 E.0234
G1 X99.519 Y123.955 E.39064
G1 X99.519 Y124.593 E.02341
G1 X106.404 Y131.478 E.35754
G1 X105.767 Y131.478 E.0234
G1 X99.519 Y125.23 E.32443
G1 X99.52 Y125.868 E.02341
G1 X105.13 Y131.478 E.29132
G1 X104.492 Y131.478 E.0234
G1 X99.52 Y126.505 E.25822
G1 X99.52 Y127.143 E.02341
G1 X103.855 Y131.478 E.22511
G1 X103.218 Y131.478 E.0234
G1 X99.52 Y127.78 E.192
G1 X99.521 Y128.418 E.02341
G1 X102.581 Y131.478 E.1589
G1 X101.943 Y131.478 E.0234
G1 X99.521 Y129.055 E.12579
G1 X99.521 Y129.693 E.02341
G1 X101.306 Y131.478 E.09269
G1 X100.669 Y131.478 E.0234
G1 X99.522 Y130.331 E.05958
G1 X99.522 Y130.968 E.02341
G1 X100.232 Y131.679 E.0369
; stop printing object flowrate_m20 id:7 copy 0
; printing object flowrate_5 id:4 copy 0
G1 E-.8
EXCLUDE_OBJECT_END NAME=flowrate_m20_id_7_copy_0
EXCLUDE_OBJECT_START NAME=flowrate_5_id_4_copy_0
G1 Z.65 F9000
G1 X99.12 Y154.835 Z.65
G1 Z.25
G1 E.8 F2100
;TYPE:Inner wall
;WIDTH:0.499999
G1 F2700
G1 X99.096 Y154.653 E.00877
G1 X98.952 Y154.349 E.01604
G1 X98.696 Y154.08 E.01769
G1 X98.389 Y153.918 E.01662
G1 X98.027 Y153.857 E.01751
G1 X89.143 Y153.857 E.42411
G1 X89.143 Y136.143 E.84566
G1 X126.857 Y136.143 E1.80042
G1 X126.857 Y145 E.42283
G1 X126.857 Y153.857 E.42283
G1 X118 Y153.857 E.42283
G1 X117.788 Y153.873 E.01012
G1 X117.448 Y153.989 E.01717
G1 X117.128 Y154.245 E.01957
G1 X116.928 Y154.581 E.01868
G1 X116.857 Y154.973 E.01901
G1 X116.857 Y163.857 E.42411
G1 X99.143 Y163.857 E.84566
G1 X99.143 Y155 E.42283
G1 X99.126 Y154.874 E.00606
G1 X98.684 Y154.906 F9000
G1 F2700
G1 X98.668 Y154.781 E.00602
G1 X98.534 Y154.536 E.01332
G1 X98.294 Y154.359 E.01422
G1 X98.027 Y154.304 E.01304
G1 X88.696 Y154.304 E.44542
G1 X88.696 Y135.696 E.88827
G1 X127.304 Y135.696 E1.84303
G1 X127.304 Y145 E.44414
G1 X127.304 Y154.304 E.44414
G1 X118 Y154.304 E.44414
G1 X117.808 Y154.324 E.0092
G1 X117.533 Y154.469 E.01485
G1 X117.363 Y154.698 E.01365
G1 X117.304 Y154.973 E.01341
G1 X117.304 Y164.304 E.44542
G1 X98.696 Y164.304 E.88827
G1 X98.696 Y155 E.44414
G1 X98.689 Y154.946 E.00262
G1 X98.25 Y154.973 F9000
SET_VELOCITY_LIMIT ACCEL=700 ACCEL_TO_DECEL=350
;TYPE:Outer wall
G1 F2700
G1 X98.185 Y154.816 E.00811
G1 X98.027 Y154.75 E.0082
G1 X88.25 Y154.75 E.46673
G1 X88.25 Y135.25 E.93089
M73 P3 R62
