; HEADER_BLOCK_START
; generated by OrcaSlicer 1.8.1 on 2023-12-17 at 10:42:39
; total layer number: 7
; HEADER_BLOCK_END

; THUMBNAIL_BLOCK_START

;
; THUMBNAIL_BLOCK_END

; external perimeters extrusion width = 0.40mm
; perimeters extrusion width = 0.45mm
; infill extrusion width = 0.45mm
; solid infill extrusion width = 0.48mm
; top infill extrusion width = 0.48mm
; first layer extrusion width = 0.50mm

; external perimeters extrusion width = 0.40mm
; perimeters extrusion width = 0.45mm
; infill extrusion width = 0.45mm
; solid infill extrusion width = 0.48mm
; top infill extrusion width = 0.48mm
; first layer extrusion width = 0.50mm

; external perimeters extrusion width = 0.40mm
; perimeters extrusion width = 0.45mm
; infill extrusion width = 0.45mm
; solid infill extrusion width = 0.48mm
; top infill extrusion width = 0.48mm
; first layer extrusion width = 0.50mm

; external perimeters extrusion width = 0.40mm
; perimeters extrusion width = 0.45mm
; infill extrusion width = 0.45mm
; solid infill extrusion width = 0.48mm
; top infill extrusion width = 0.48mm
; first layer extrusion width = 0.50mm

; external perimeters extrusion width = 0.40mm
; perimeters extrusion width = 0.45mm
; infill extrusion width = 0.45mm
; solid infill extrusion width = 0.48mm
; top infill extrusion width = 0.48mm
; first layer extrusion width = 0.50mm

; external perimeters extrusion width = 0.40mm
; perimeters extrusion width = 0.45mm
; infill extrusion width = 0.45mm
; solid infill extrusion width = 0.48mm
; top infill extrusion width = 0.48mm
; first layer extrusion width = 0.50mm

; external perimeters extrusion width = 0.40mm
; perimeters extrusion width = 0.45mm
; infill extrusion width = 0.45mm
; solid infill extrusion width = 0.48mm
; top infill extrusion width = 0.48mm
; first layer extrusion width = 0.50mm

; external perimeters extrusion width = 0.40mm
; perimeters extrusion width = 0.45mm
; infill extrusion width = 0.45mm
; solid infill extrusion width = 0.48mm
; top infill extrusion width = 0.48mm
; first layer extrusion width = 0.50mm

; external perimeters extrusion width = 0.40mm
; perimeters extrusion width = 0.45mm
; infill extrusion width = 0.45mm
; solid infill extrusion width = 0.48mm
; top infill extrusion width = 0.48mm
; first layer extrusion width = 0.50mm

; external perimeters extrusion width = 0.40mm
; perimeters extrusion width = 0.45mm
; infill extrusion width = 0.45mm
; solid infill extrusion width = 0.48mm
; top infill extrusion width = 0.48mm
; first layer extrusion width = 0.50mm

; EXECUTABLE_BLOCK_START
EXCLUDE_OBJECT_DEFINE NAME=flowrate_0_id_0_copy_0 CENTER=150,198 POLYGON=[[130,183],[170,183],[170,203],[160,213],[140,213],[130,203],[130,183]]
EXCLUDE_OBJECT_DEFINE NAME=flowrate_m1_id_1_copy_0 CENTER=108,166 POLYGON=[[88,151],[128,151],[128,171],[118,181],[98,181],[88,171],[88,151]]
EXCLUDE_OBJECT_DEFINE NAME=flowrate_m2_id_2_copy_0 CENTER=150,166 POLYGON=[[130,151],[170,151],[170,171],[160,181],[140,181],[130,171],[130,151]]
EXCLUDE_OBJECT_DEFINE NAME=flowrate_m3_id_3_copy_0 CENTER=192,166 POLYGON=[[172,151],[212,151],[212,171],[202,181],[182,181],[172,171],[172,151]]
EXCLUDE_OBJECT_DEFINE NAME=flowrate_m4_id_4_copy_0 CENTER=108,134 POLYGON=[[88,119],[128,119],[128,139],[118,149],[98,149],[88,139],[88,119]]
EXCLUDE_OBJECT_DEFINE NAME=flowrate_m5_id_5_copy_0 CENTER=150,134 POLYGON=[[130,119],[170,119],[170,139],[160,149],[140,149],[130,139],[130,119]]
EXCLUDE_OBJECT_DEFINE NAME=flowrate_m6_id_6_copy_0 CENTER=192,134 POLYGON=[[172,119],[212,119],[212,139],[202,149],[182,149],[172,139],[172,119]]
EXCLUDE_OBJECT_DEFINE NAME=flowrate_m7_id_7_copy_0 CENTER=192,102 POLYGON=[[172,87],[212,87],[212,107],[202,117],[182,117],[172,107],[172,87]]
EXCLUDE_OBJECT_DEFINE NAME=flowrate_m8_id_8_copy_0 CENTER=150,102 POLYGON=[[130,87],[170,87],[170,107],[160,117],[140,117],[130,107],[130,87]]
EXCLUDE_OBJECT_DEFINE NAME=flowrate_m9_id_9_copy_0 CENTER=108,102 POLYGON=[[88,87],[128,87],[128,107],[118,117],[98,117],[88,107],[88,87]]
M73 P0 R71
;TYPE:Custom
; Initial setups

START_PRINT EXTRUDER_TEMP=205 BED_TEMP=70

;G90 ; use absolute coordinates
;M83 ; extruder relative mode
;M220 S100 ; reset speed factor to 100%
;M221 S100 ; reset extrusion rate to 100%

; Set the heating
;M190 S70 ; wait for bed to heat up
;M104 S205 ; start nozzle heating but don't wait

; Home
;G1 Z3 F3000 ; move z up little to prevent scratching of surface
;G28 ; home all axes
;G1 X3 Y3 F5000 ; move to corner of the bed to avoid ooze over centre

; Wait for final heating
;M109 S205 ; wait for the nozzle to heat up
;M190 S70 ; wait for the bed to heat up

; Return to prime position, Prime line routine
G92 E0 ; Reset Extruder
G1 Z3 F3000 ; move z up little to prevent scratching of surface
G1 X10 Y3 Z0.25 F5000.0 ; Move to start position
G1 X100 Y3 Z0.25 F1500.0 E15 ; Draw the first line
G1 X100 Y3.2 Z0.25 F5000.0 ; Move to side a little
G1 X10 Y3.2 Z0.25 F1500.0 E30 ; Draw the second line
G92 E0 ; Reset Extruder
;M221 S95
G90
G21
M83 ; use relative distances for extrusion
; filament start gcode
M106 S0
;LAYER_CHANGE
;Z:0.25
;HEIGHT:0.25
;BEFORE_LAYER_CHANGE
G92 E0
;0.25


G1 E-.8 F2100
;AFTER_LAYER_CHANGE
;0.25
;_SET_FAN_SPEED_CHANGING_LAYER
G1 Z.4 F9000
G1 X86.144 Y84.224
G1 Z.4
G1 Z.25
G1 E.8 F2100
SET_VELOCITY_LIMIT ACCEL=500 ACCEL_TO_DECEL=250
;TYPE:Skirt
;WIDTH:0.5
G1 F3000
G1 X88 Y83.661 E.08998
G1 X212 Y83.661 E5.75269
G1 X213.574 Y84.055 E.07525
G1 X214.776 Y85.144 E.07525
G1 X215.339 Y87 E.08998
G1 X215.339 Y171 E3.89698
G1 X214.945 Y172.574 E.07525
G1 X214.361 Y173.361 E.04548
G1 X204.024 Y183.656 E.67684
G1 X162.024 Y215.656 E2.4496
M73 P0 R70
G1 X160 Y216.339 E.09908
G1 X140 Y216.339 E.92785
G1 X137.976 Y215.656 E.09908
G1 X95.976 Y183.656 E2.4496
G1 X85.639 Y173.361 E.67684
G1 X84.805 Y171.97 E.07525
G1 X84.661 Y171 E.04548
G1 X84.661 Y87 E3.89698
G1 X85.055 Y85.426 E.07525
G1 X86.117 Y84.254 E.0734
G1 X86.457 Y84.598 F9000
G1 F3000
G1 X86.573 Y84.484 E.00753
G1 X88 Y84.107 E.06848
G1 X212 Y84.107 E5.75269
G1 X213.456 Y84.5 E.06996
G1 X214.516 Y85.573 E.06996
G1 X214.893 Y87 E.06848
G1 X214.893 Y171 E3.89698
G1 X214.045 Y173.045 E.10271
G1 X203.753 Y183.301 E.67406
G1 X161.753 Y215.301 E2.4496
G1 X160 Y215.893 E.08584
G1 X140 Y215.893 E.92785
G1 X138.247 Y215.301 E.08584
G1 X96.247 Y183.301 E2.4496
G1 X85.955 Y173.045 E.67406
G1 X85.107 Y171 E.10271
G1 X85.107 Y87 E3.89698
G1 X85.5 Y85.544 E.06996
G1 X86.429 Y84.626 E.06057
G1 X86.74 Y84.989 F9000
G1 F3000
G1 X86.995 Y84.769 E.0156
G1 X88 Y84.554 E.04767
G1 X212 Y84.554 E5.75269
G1 X213.328 Y84.945 E.06423
G1 X214.231 Y85.995 E.06423
G1 X214.446 Y87 E.04767
G1 X214.446 Y171 E3.89698
G1 X213.73 Y172.73 E.08686
G1 X203.483 Y182.946 E.67129
G1 X161.483 Y214.946 E2.4496
G1 X160 Y215.446 E.07259
G1 X140 Y215.446 E.92785
G1 X138.517 Y214.946 E.07259
G1 X96.517 Y182.946 E2.4496
G1 X86.27 Y172.73 E.67129
G1 X85.554 Y171 E.08686
G1 X85.554 Y87 E3.89698
G1 X85.945 Y85.672 E.06423
G1 X86.71 Y85.015 E.04678
; printing object flowrate_m3 id:3 copy 0
G1 E-.8 F2100
EXCLUDE_OBJECT_START NAME=flowrate_m3_id_3_copy_0
G1 Z.65 F9000
G1 X183.12 Y170.835 Z.65
G1 Z.25
G1 E.8 F2100
;TYPE:Inner wall
;WIDTH:0.499999
G1 F2700
G1 X183.096 Y170.653 E.00827
G1 X182.952 Y170.349 E.01512
G1 X182.696 Y170.08 E.01667
G1 X182.389 Y169.918 E.01566
G1 X182.027 Y169.857 E.01651
G1 X173.143 Y169.857 E.39979
G1 X173.143 Y152.143 E.79717
G1 X210.857 Y152.143 E1.69719
G1 X210.857 Y161 E.39859
G1 X210.857 Y169.857 E.39859
G1 X202 Y169.857 E.39859
G1 X201.788 Y169.873 E.00954
G1 X201.448 Y169.989 E.01618
G1 X201.128 Y170.245 E.01845
G1 X200.928 Y170.581 E.01761
G1 X200.857 Y170.973 E.01792
G1 X200.857 Y179.857 E.39979
G1 X183.143 Y179.857 E.79717
G1 X183.143 Y171 E.39859
M73 P1 R70
G1 X183.126 Y170.874 E.00571
G1 X182.684 Y170.906 F9000
G1 F2700
G1 X182.668 Y170.781 E.00567
G1 X182.534 Y170.536 E.01256
G1 X182.294 Y170.359 E.01341
G1 X182.027 Y170.304 E.01229
G1 X172.696 Y170.304 E.41988
G1 X172.696 Y151.696 E.83734
G1 X211.304 Y151.696 E1.73736
G1 X211.304 Y161 E.41867
G1 X211.304 Y170.304 E.41867
G1 X202 Y170.304 E.41867
G1 X201.808 Y170.324 E.00867
G1 X201.533 Y170.469 E.014
G1 X201.363 Y170.698 E.01287
G1 X201.304 Y170.973 E.01265
G1 X201.304 Y180.304 E.41988
G1 X182.696 Y180.304 E.83734
G1 X182.696 Y171 E.41867
G1 X182.689 Y170.946 E.00247
G1 X182.25 Y170.973 F9000
SET_VELOCITY_LIMIT ACCEL=700 ACCEL_TO_DECEL=350
;TYPE:Outer wall
G1 F2700
G1 X182.185 Y170.816 E.00765
G1 X182.027 Y170.75 E.00773
G1 X172.25 Y170.75 E.43997
G1 X172.25 Y151.25 E.87752
G1 X211.75 Y151.25 E1.77753
G1 X211.75 Y161 E.43876
G1 X211.75 Y170.75 E.43876
G1 X201.973 Y170.75 E.43997
G1 X201.815 Y170.816 E.00773
G1 X201.75 Y170.973 E.00765
G1 X201.75 Y180.75 E.43997
G1 X182.25 Y180.75 E.87752
G1 X182.25 Y171.013 E.43817
G1 E-.8 F2100
G1 Z.65 F9000
G1 X182.67 Y171.013 Z.65
G1 X211.33 Y151.67
G1 X211.33 Y153.233
G1 X210.679 Y153.233
G1 Z.25
G1 E.8 F2100
SET_VELOCITY_LIMIT ACCEL=500 ACCEL_TO_DECEL=250
;TYPE:Bottom surface
;WIDTH:0.50426
G1 X209.968 Y152.522 E.04565
G1 X209.331 Y152.522 E.02895
G1 X210.478 Y153.669 E.07368
G1 X210.478 Y154.306 E.02895
G1 X208.694 Y152.522 E.11463
G1 X208.057 Y152.522 E.02895
G1 X210.478 Y154.943 E.15557
G1 X210.478 Y155.581 E.02895
G1 X207.419 Y152.522 E.19651
G1 X206.782 Y152.522 E.02895
G1 X210.478 Y156.218 E.23746
G1 X210.478 Y156.855 E.02895
G1 X206.145 Y152.522 E.2784
G1 X205.507 Y152.522 E.02895
G1 X210.478 Y157.493 E.31934
G1 X210.478 Y158.13 E.02895
G1 X204.87 Y152.522 E.36028
G1 X204.233 Y152.522 E.02895
G1 X210.478 Y158.767 E.40123
G1 X210.478 Y159.404 E.02895
G1 X203.596 Y152.522 E.44217
G1 X202.958 Y152.522 E.02895
G1 X210.478 Y160.042 E.48311
G1 X210.478 Y160.679 E.02895
G1 X202.321 Y152.522 E.52406
G1 X201.684 Y152.522 E.02895
G1 X210.478 Y161.316 E.565
G1 X210.478 Y161.953 E.02895
G1 X201.047 Y152.522 E.60594
G1 X200.409 Y152.522 E.02895
G1 X210.478 Y162.591 E.64688
G1 X210.478 Y163.228 E.02895
G1 X199.772 Y152.522 E.68783
G1 X199.135 Y152.522 E.02895
G1 X210.478 Y163.865 E.72877
G1 X210.478 Y164.502 E.02895
G1 X198.498 Y152.522 E.76971
G1 X197.86 Y152.522 E.02895
G1 X210.478 Y165.14 E.81065
G1 X210.478 Y165.777 E.02895
G1 X197.223 Y152.522 E.8516
G1 X196.586 Y152.522 E.02895
G1 X210.478 Y166.414 E.89254
G1 X210.478 Y167.051 E.02895
G1 X195.949 Y152.522 E.93348
G1 X195.311 Y152.522 E.02895
G1 X210.478 Y167.689 E.97443
G1 X210.478 Y168.326 E.02895
G1 X194.674 Y152.522 E1.01537
G1 X194.037 Y152.522 E.02895
G1 X210.478 Y168.963 E1.05631
G1 X210.478 Y169.478 E.02338
G1 X210.355 Y169.478 E.00557
G1 X193.4 Y152.522 E1.08938
G1 X192.762 Y152.522 E.02895
G1 X209.718 Y169.478 E1.08938
G1 X209.081 Y169.478 E.02895
G1 X192.125 Y152.522 E1.08938
G1 X191.488 Y152.522 E.02895
G1 X208.444 Y169.478 E1.08938
G1 X207.806 Y169.478 E.02895
G1 X190.851 Y152.522 E1.08938
G1 X190.213 Y152.522 E.02895
G1 X207.169 Y169.478 E1.08938
G1 X206.532 Y169.478 E.02895
G1 X189.576 Y152.522 E1.08938
G1 X188.939 Y152.522 E.02895
G1 X205.895 Y169.478 E1.08938
G1 X205.257 Y169.478 E.02895
G1 X188.301 Y152.522 E1.08938
G1 X187.664 Y152.522 E.02895
G1 X204.62 Y169.478 E1.08938
G1 X203.983 Y169.478 E.02895
G1 X187.027 Y152.522 E1.08938
G1 X186.39 Y152.522 E.02895
G1 X203.346 Y169.478 E1.08938
G1 X202.708 Y169.478 E.02895
G1 X185.752 Y152.522 E1.08938
G1 X185.115 Y152.522 E.02895
G1 X202.071 Y169.478 E1.08938
G1 X201.712 Y169.5 E.01633
G1 X201.515 Y169.559 E.00935
G1 X184.478 Y152.522 E1.09461
G1 X183.841 Y152.522 E.02895
G1 X201.092 Y169.773 E1.10837
G1 X200.912 Y169.919 E.01052
G1 X200.771 Y170.09 E.01006
G1 X183.203 Y152.522 E1.1287
M73 P1 R69
G1 X182.566 Y152.522 E.02895
G1 X200.557 Y170.513 E1.15591
G1 X200.514 Y170.643 E.00619
G1 X200.482 Y170.861 E.01005
G1 X200.482 Y171.075 E.00969
G1 X181.929 Y152.522 E1.19198
G1 X181.292 Y152.522 E.02895
G1 X200.481 Y171.712 E1.2329
G1 X200.481 Y172.349 E.02894
G1 X180.654 Y152.522 E1.27383
G1 X180.017 Y152.522 E.02895
G1 X200.481 Y172.986 E1.31475
G1 X200.48 Y173.623 E.02894
G1 X179.38 Y152.522 E1.35568
G1 X178.743 Y152.522 E.02895
G1 X200.48 Y174.26 E1.3966
G1 X200.48 Y174.897 E.02894
G1 X178.105 Y152.522 E1.43753
G1 X177.468 Y152.522 E.02895
G1 X200.48 Y175.534 E1.47845
G1 X200.479 Y176.171 E.02894
G1 X176.831 Y152.522 E1.51938
G1 X176.194 Y152.522 E.02895
G1 X200.479 Y176.808 E1.5603
G1 X200.479 Y177.445 E.02894
G1 X175.556 Y152.522 E1.60123
M73 P2 R69
G1 X174.919 Y152.522 E.02895
G1 X200.479 Y178.082 E1.64215
G1 X200.478 Y178.719 E.02894
G1 X174.282 Y152.522 E1.68308
G1 X173.645 Y152.522 E.02895
G1 X200.478 Y179.356 E1.72401
G1 X200.478 Y179.478 E.00556
G1 X199.963 Y179.478 E.02339
G1 X173.522 Y153.037 E1.69879
G1 X173.522 Y153.674 E.02895
G1 X199.326 Y179.478 E1.65785
G1 X198.689 Y179.478 E.02895
G1 X173.522 Y154.311 E1.6169
G1 X173.522 Y154.949 E.02895
G1 X198.051 Y179.478 E1.57596
G1 X197.414 Y179.478 E.02895
G1 X173.522 Y155.586 E1.53502
G1 X173.522 Y156.223 E.02895
G1 X196.777 Y179.478 E1.49408
G1 X196.14 Y179.478 E.02895
G1 X173.522 Y156.86 E1.45313
G1 X173.522 Y157.498 E.02895
G1 X195.502 Y179.478 E1.41219
G1 X194.865 Y179.478 E.02895
G1 X173.522 Y158.135 E1.37125
G1 X173.522 Y158.772 E.02895
G1 X194.228 Y179.478 E1.3303
G1 X193.591 Y179.478 E.02895
G1 X173.522 Y159.409 E1.28936
G1 X173.522 Y160.047 E.02895
G1 X192.953 Y179.478 E1.24842
G1 X192.316 Y179.478 E.02895
G1 X183.487 Y170.648 E.56728
G1 X183.392 Y170.36 E.01378
G1 X183.266 Y170.136 E.01168
G1 X183.088 Y169.919 E.01275
G1 X182.833 Y169.713 E.01488
G1 X182.621 Y169.6 E.0109
G1 X182.36 Y169.522 E.01241
G1 X173.522 Y160.684 E.56781
G1 X173.522 Y161.321 E.02895
G1 X181.679 Y169.478 E.52405
G1 X181.041 Y169.478 E.02895
G1 X173.522 Y161.959 E.48311
G1 X173.522 Y162.596 E.02895
G1 X180.404 Y169.478 E.44217
G1 X179.767 Y169.478 E.02895
G1 X173.522 Y163.233 E.40122
G1 X173.522 Y163.87 E.02895
G1 X179.13 Y169.478 E.36028
G1 X178.492 Y169.478 E.02895
G1 X173.522 Y164.508 E.31934
G1 X173.522 Y165.145 E.02895
G1 X177.855 Y169.478 E.27839
G1 X177.218 Y169.478 E.02895
G1 X173.522 Y165.782 E.23745
G1 X173.522 Y166.419 E.02895
G1 X176.581 Y169.478 E.19651
G1 X175.943 Y169.478 E.02895
G1 X173.522 Y167.057 E.15557
G1 X173.522 Y167.694 E.02895
G1 X175.306 Y169.478 E.11462
G1 X174.669 Y169.478 E.02895
G1 X173.522 Y168.331 E.07368
G1 X173.522 Y168.968 E.02895
G1 X174.232 Y169.679 E.04564
G1 E-.8
G1 Z.65 F9000
G1 X174.232 Y170.33 Z.65
G1 X182.67 Y170.33
G1 X182.67 Y171.117
G1 X183.318 Y171.117
G1 Z.25
G1 E.8 F2100
G1 X191.679 Y179.478 E.53719
G1 X191.041 Y179.478 E.02895
G1 X183.519 Y171.955 E.48332
G1 X183.519 Y172.593 E.02896
G1 X190.404 Y179.478 E.44236
G1 X189.767 Y179.478 E.02895
G1 X183.519 Y173.23 E.4014
G1 X183.52 Y173.868 E.02896
G1 X189.13 Y179.478 E.36044
G1 X188.492 Y179.478 E.02895
G1 X183.52 Y174.505 E.31948
G1 X183.52 Y175.143 E.02896
G1 X187.855 Y179.478 E.27852
G1 X187.218 Y179.478 E.02895
G1 X183.52 Y175.78 E.23756
G1 X183.521 Y176.418 E.02896
G1 X186.581 Y179.478 E.1966
G1 X185.943 Y179.478 E.02895
G1 X183.521 Y177.055 E.15564
G1 X183.521 Y177.693 E.02896
G1 X185.306 Y179.478 E.11468
G1 X184.669 Y179.478 E.02895
G1 X183.522 Y178.331 E.07372
G1 X183.522 Y178.968 E.02896
G1 X184.232 Y179.679 E.04566
; stop printing object flowrate_m3 id:3 copy 0
; printing object flowrate_m6 id:6 copy 0
G1 E-.8
EXCLUDE_OBJECT_END NAME=flowrate_m3_id_3_copy_0
EXCLUDE_OBJECT_START NAME=flowrate_m6_id_6_copy_0
G1 Z.65 F9000
G1 X183.12 Y138.835 Z.65
G1 Z.25
G1 E.8 F2100
;TYPE:Inner wall
;WIDTH:0.499999
G1 F2700
G1 X183.096 Y138.653 E.00801
G1 X182.952 Y138.349 E.01465
G1 X182.696 Y138.08 E.01616
G1 X182.389 Y137.918 E.01518
G1 X182.027 Y137.857 E.016
G1 X173.143 Y137.857 E.38743
G1 X173.143 Y120.143 E.77252
G1 X210.857 Y120.143 E1.6447
G1 X210.857 Y129 E.38626
G1 X210.857 Y137.857 E.38626
G1 X202 Y137.857 E.38626
G1 X201.788 Y137.873 E.00925
G1 X201.448 Y137.989 E.01568
G1 X201.128 Y138.245 E.01788
G1 X200.928 Y138.581 E.01706
G1 X200.857 Y138.973 E.01737
G1 X200.857 Y147.857 E.38743
G1 X183.143 Y147.857 E.77252
G1 X183.143 Y139 E.38626
G1 X183.126 Y138.874 E.00553
G1 X182.684 Y138.906 F9000
G1 F2700
G1 X182.668 Y138.781 E.0055
