; HEADER_BLOCK_START
; generated by OrcaSlicer 1.8.1 on 2023-12-14 at 21:48:18
; total layer number: 150
; HEADER_BLOCK_END

; THUMBNAIL_BLOCK_START

;
; THUMBNAIL_BLOCK_END

; external perimeters extrusion width = 0.40mm
; perimeters extrusion width = 0.45mm
; infill extrusion width = 0.45mm
; solid infill extrusion width = 0.50mm
; top infill extrusion width = 0.40mm
; first layer extrusion width = 0.50mm

; external perimeters extrusion width = 0.40mm
; perimeters extrusion width = 0.45mm
; infill extrusion width = 0.45mm
; solid infill extrusion width = 0.50mm
; top infill extrusion width = 0.40mm
; first layer extrusion width = 0.50mm

; EXECUTABLE_BLOCK_START
EXCLUDE_OBJECT_DEFINE NAME=OrcaCube_id_0_copy_0 CENTER=150,164.261 POLYGON=[[135,149.261],[160.981,149.261],[165,149.261],[165,175.242],[165,179.261],[139.019,179.261],[135,179.261],[135,153.281],[135,149.261]]
EXCLUDE_OBJECT_DEFINE NAME=OrcaPlug_id_1_copy_0 CENTER=150.344,131.737 POLYGON=[[139.344,131.737],[139.352,131.32],[139.376,130.905],[139.415,130.49],[139.47,130.078],[139.54,129.667],[139.626,129.26],[139.728,128.856],[139.844,128.456],[139.976,128.062],[140.123,127.672],[140.284,127.288],[140.459,126.91],[140.649,126.54],[140.853,126.177],[141.07,125.821],[141.3,125.475],[141.544,125.137],[141.8,124.809],[142.068,124.49],[142.348,124.182],[142.64,123.885],[142.942,123.599],[143.256,123.325],[143.579,123.063],[143.912,122.813],[144.254,122.576],[144.605,122.352],[144.965,122.142],[145.332,121.945],[145.706,121.762],[146.086,121.594],[146.473,121.44],[146.866,121.301],[147.263,121.177],[147.665,121.068],[148.071,120.974],[148.479,120.896],[148.891,120.833],[149.305,120.786],[149.72,120.754],[150.136,120.739],[150.552,120.739],[150.968,120.754],[151.383,120.786],[151.797,120.833],[152.209,120.896],[152.617,120.974],[153.023,121.068],[153.425,121.177],[153.822,121.301],[154.215,121.44],[154.602,121.594],[154.982,121.762],[155.356,121.945],[155.723,122.142],[156.083,122.352],[156.434,122.576],[156.776,122.813],[157.109,123.063],[157.432,123.325],[157.746,123.599],[158.048,123.885],[158.34,124.182],[158.62,124.49],[158.888,124.809],[159.144,125.137],[159.388,125.475],[159.618,125.822],[159.835,126.177],[160.039,126.54],[160.229,126.91],[160.404,127.288],[160.565,127.672],[160.712,128.062],[160.844,128.456],[160.96,128.856],[161.062,129.26],[161.148,129.667],[161.218,130.078],[161.273,130.49],[161.312,130.905],[161.336,131.32],[161.344,131.737],[161.336,132.153],[161.312,132.569],[161.273,132.983],[161.218,133.396],[161.148,133.806],[161.062,134.213],[160.96,134.617],[160.844,135.017],[160.712,135.412],[160.565,135.802],[160.404,136.185],[160.229,136.563],[160.039,136.934],[159.835,137.297],[159.618,137.652],[159.388,137.999],[159.144,138.336],[158.888,138.665],[158.62,138.983],[158.34,139.291],[158.048,139.588],[157.746,139.874],[157.432,140.148],[157.109,140.41],[156.776,140.66],[156.434,140.897],[156.083,141.121],[155.723,141.332],[155.356,141.528],[154.982,141.711],[154.602,141.879],[154.215,142.033],[153.822,142.172],[153.425,142.296],[153.023,142.405],[152.617,142.499],[152.209,142.577],[151.797,142.64],[151.383,142.687],[150.968,142.719],[150.552,142.735],[150.136,142.735],[149.72,142.719],[149.305,142.687],[148.891,142.64],[148.479,142.577],[148.071,142.499],[147.665,142.405],[147.263,142.296],[146.866,142.172],[146.473,142.033],[146.086,141.879],[145.706,141.711],[145.332,141.528],[144.965,141.332],[144.605,141.121],[144.254,140.897],[143.912,140.66],[143.579,140.41],[143.256,140.148],[142.942,139.874],[142.64,139.588],[142.348,139.291],[142.068,138.983],[141.8,138.665],[141.544,138.336],[141.3,137.999],[141.07,137.652],[140.853,137.297],[140.649,136.933],[140.459,136.563],[140.284,136.185],[140.123,135.802],[139.976,135.412],[139.844,135.017],[139.728,134.617],[139.626,134.213],[139.54,133.806],[139.47,133.396],[139.415,132.983],[139.375,132.569],[139.352,132.153],[139.344,131.737]]
M73 P0 R88
;TYPE:Custom
; Initial setups

START_PRINT EXTRUDER_TEMP=205 BED_TEMP=70

;G90 ; use absolute coordinates
;M83 ; extruder relative mode
;M220 S100 ; reset speed factor to 100%
;M221 S100 ; reset extrusion rate to 100%

; Set the heating
;M190 S70 ; wait for bed to heat up
;M104 S205 ; start nozzle heating but don't wait

; Home
;G1 Z3 F3000 ; move z up little to prevent scratching of surface
;G28 ; home all axes
;G1 X3 Y3 F5000 ; move to corner of the bed to avoid ooze over centre

; Wait for final heating
;M109 S205 ; wait for the nozzle to heat up
;M190 S70 ; wait for the bed to heat up

; Return to prime position, Prime line routine
G92 E0 ; Reset Extruder
G1 Z3 F3000 ; move z up little to prevent scratching of surface
G1 X10 Y.5 Z0.25 F5000.0 ; Move to start position
G1 X100 Y.5 Z0.25 F1500.0 E15 ; Draw the first line
M73 P0 R87
G1 X100 Y.2 Z0.25 F5000.0 ; Move to side a little
G1 X10 Y.2 Z0.25 F1500.0 E30 ; Draw the second line
G92 E0 ; Reset Extruder
;M221 S95
G90
G21
M83 ; use relative distances for extrusion
; filament start gcode
M106 S0
;LAYER_CHANGE
;Z:0.25
;HEIGHT:0.25
;BEFORE_LAYER_CHANGE
G92 E0
;0.25


G1 E-.8 F2100
;AFTER_LAYER_CHANGE
;0.25
;_SET_FAN_SPEED_CHANGING_LAYER
G1 Z.4 F9000
G1 X140.046 Y121.921
G1 Z.4
G1 Z.25
G1 E.8 F2100
SET_VELOCITY_LIMIT ACCEL=500 ACCEL_TO_DECEL=250
;TYPE:Skirt
;WIDTH:0.5
G1 F3000
G1 X141.55 Y120.553 E.09244
G1 X142.978 Y119.565 E.07897
G1 X144.781 Y118.643 E.09205
G1 X146.817 Y117.954 E.09775
G1 X148.524 Y117.627 E.07898
G1 X150.56 Y117.512 E.09275
G1 X152.823 Y117.727 E.10332
G1 X154.904 Y118.26 E.0977
G1 X156.883 Y119.101 E.09774
G1 X157.82 Y119.633 E.049
G1 X159.04 Y120.477 E.06742
G1 X160.644 Y121.922 E.09816
G1 X162.003 Y123.583 E.09758
G1 X163.156 Y125.551 E.1037
G1 X163.942 Y127.555 E.09785
G1 X164.407 Y129.578 E.0944
G1 X168.024 Y152.714 E1.06463
G1 X168.064 Y175.293 E1.02655
G1 X167.67 Y176.866 E.07375
G1 X167.086 Y177.654 E.04457
G1 X163.393 Y181.347 E.23748
G1 X162.001 Y182.181 E.07375
G1 X161.032 Y182.325 E.04457
G1 X138.968 Y182.325 E1.0031
G1 X137.395 Y181.931 E.07375
G1 X136.607 Y181.347 E.04457
G1 X132.914 Y177.654 E.23748
G1 X132.08 Y176.263 E.07375
G1 X131.936 Y175.293 E.04457
G1 X131.936 Y153.23 E1.0031
G1 X131.992 Y152.62 E.02786
G1 X136.383 Y129.001 E1.09223
G1 X136.955 Y126.927 E.09779
G1 X137.777 Y125.067 E.09248
G1 X138.684 Y123.585 E.07898
G1 X140.02 Y121.952 E.09593
G1 X140.364 Y122.234 F9000
G1 F3000
G1 X141.831 Y120.9 E.09013
G1 X143.204 Y119.95 E.0759
G1 X144.961 Y119.051 E.08975
G1 X146.934 Y118.384 E.09468
G1 X148.574 Y118.07 E.07591
G1 X150.56 Y117.958 E.09043
G1 X152.739 Y118.166 E.09949
G1 X154.755 Y118.681 E.09462
G1 X156.672 Y119.495 E.09466
G1 X157.58 Y120.009 E.04748
G1 X158.772 Y120.834 E.06589
G1 X160.325 Y122.235 E.09509
G1 X161.641 Y123.844 E.09452
G1 X162.751 Y125.739 E.09985
G1 X163.514 Y127.68 E.09478
G1 X163.966 Y129.647 E.0918
G1 X167.583 Y152.783 E1.06463
G1 X167.618 Y175.293 E1.02341
G1 X166.77 Y177.338 E.10066
G1 X163.077 Y181.032 E.23748
G1 X161.032 Y181.879 E.10066
G1 X138.968 Y181.879 E1.0031
G1 X136.923 Y181.032 E.10066
G1 X133.23 Y177.338 E.23748
G1 X132.382 Y175.293 E.10066
G1 X132.431 Y152.701 E1.02713
G1 X136.819 Y129.093 E1.09173
G1 X137.373 Y127.084 E.09473
G1 X138.175 Y125.27 E.09017
G1 X139.046 Y123.846 E.07592
G1 X140.339 Y122.265 E.09287
G1 X140.683 Y122.546 F9000
G1 F3000
G1 X142.112 Y121.247 E.08782
G1 X143.43 Y120.335 E.07284
G1 X145.142 Y119.459 E.08744
G1 X147.051 Y118.815 E.09162
G1 X148.625 Y118.514 E.07285
G1 X150.56 Y118.404 E.08811
G1 X152.655 Y118.604 E.09567
G1 X154.606 Y119.102 E.09155
G1 X156.46 Y119.888 E.09158
G1 X157.34 Y120.385 E.04596
G1 X158.504 Y121.191 E.06435
G1 X160.006 Y122.547 E.09202
G1 X161.279 Y124.106 E.09147
G1 X162.346 Y125.927 E.096
G1 X163.085 Y127.804 E.09171
G1 X163.525 Y129.716 E.08919
G1 X167.142 Y152.852 E1.06463
G1 X167.171 Y175.293 E1.02028
G1 X166.455 Y177.023 E.08513
G1 X162.761 Y180.716 E.23748
G1 X161.032 Y181.433 E.08513
G1 X138.968 Y181.433 E1.0031
G1 X137.239 Y180.716 E.08513
G1 X133.545 Y177.023 E.23748
G1 X132.829 Y175.293 E.08513
G1 X132.87 Y152.783 E1.02342
G1 X137.256 Y129.185 E1.09124
G1 X137.79 Y127.241 E.09167
G1 X138.572 Y125.474 E.08786
G1 X139.408 Y124.107 E.07285
G1 X140.657 Y122.577 E.0898
; printing object OrcaCube id:0 copy 0
G1 E-.8 F2100
EXCLUDE_OBJECT_START NAME=OrcaCube_id_0_copy_0
G1 Z.65 F9000
G1 X136.418 Y174.82 Z.65
G1 Z.25
G1 E.8 F2100
;TYPE:Inner wall
;WIDTH:0.499999
G1 F2700
G1 X136.418 Y153.703 E.96006
G1 X139.442 Y150.679 E.19444
G1 X160.558 Y150.679 E.96006
G1 X163.582 Y153.703 E.19444
G1 X163.582 Y154.725 E.04647
G1 X163.582 Y174.82 E.91358
G1 X160.558 Y177.844 E.19444
G1 X139.442 Y177.844 E.96006
G1 X136.446 Y174.848 E.19262
G1 X135.971 Y175.005 F9000
G1 F2700
G1 X135.971 Y153.518 E.97687
G1 X139.257 Y150.233 E.21125
G1 X160.743 Y150.233 E.97687
G1 X164.029 Y153.518 E.21125
G1 X164.029 Y154.725 E.05488
G1 X164.029 Y175.005 E.92199
G1 X160.743 Y178.29 E.21125
G1 X139.257 Y178.29 E.97687
G1 X136 Y175.033 E.20943
G1 X135.525 Y175.189 F9000
SET_VELOCITY_LIMIT ACCEL=700 ACCEL_TO_DECEL=350
;TYPE:Outer wall
G1 F2700
G1 X135.525 Y153.333 E.99368
G1 X139.072 Y149.786 E.22806
G1 X160.928 Y149.786 E.99368
G1 X164.475 Y153.333 E.22806
G1 X164.475 Y154.725 E.06328
G1 X164.475 Y175.189 E.9304
G1 X160.928 Y178.736 E.22806
G1 X139.072 Y178.736 E.99368
G1 X135.553 Y175.218 E.22624
G1 E-.8 F2100
G1 Z.65 F9000
G1 X146.289 Y152.672 Z.65
G1 Z.25
G1 E.8 F2100
SET_VELOCITY_LIMIT ACCEL=500 ACCEL_TO_DECEL=250
;TYPE:Inner wall
G1 F2700
G1 X147.103 Y152.427 E.0386
G1 X148.454 Y152.176 E.06251
G1 X149.386 Y152.093 E.04251
G1 X150.411 Y152.085 E.04661
G1 X151.775 Y152.208 E.06226
G1 X153.004 Y152.454 E.05701
G1 X153.995 Y152.752 E.04705
G1 X155.157 Y153.223 E.05702
G1 X155.988 Y153.65 E.04247
G1 X156.772 Y154.132 E.04185
G1 X157.512 Y154.668 E.04151
G1 X157.936 Y155.025 E.02521
G1 X158.861 Y155.898 E.05783
G1 X159.536 Y156.679 E.04693
G1 X160.26 Y157.691 E.05658
G1 X160.737 Y158.502 E.04279
G1 X161.139 Y159.323 E.04153
G1 X161.48 Y160.178 E.04188
G1 X161.752 Y161.043 E.04122
G1 X161.962 Y161.946 E.04216
G1 X162.101 Y162.843 E.04123
G1 X162.174 Y163.768 E.04219
G1 X162.177 Y164.674 E.04123
G1 X162.097 Y165.704 E.04693
G1 X161.886 Y166.935 E.05681
G1 X161.646 Y167.841 E.0426
G1 X161.348 Y168.698 E.04124
G1 X160.981 Y169.542 E.04188
G1 X160.503 Y170.435 E.04602
G1 X159.811 Y171.485 E.05721
G1 X159.232 Y172.212 E.04223
G1 X158.601 Y172.891 E.04215
G1 X157.935 Y173.508 E.04127
G1 X157.208 Y174.085 E.04218
G1 X156.457 Y174.594 E.04128
G1 X155.658 Y175.052 E.04186
G1 X154.839 Y175.444 E.04129
G1 X153.974 Y175.779 E.04217
G1 X153.105 Y176.043 E.0413
G1 X152.206 Y176.244 E.04186
G1 X151.301 Y176.376 E.04159
G1 X150.382 Y176.44 E.0419
G1 X149.474 Y176.434 E.04129
G1 X148.55 Y176.359 E.04215
G1 X147.219 Y176.123 E.06144
G1 X146.217 Y175.843 E.0473
G1 X145.048 Y175.393 E.05695
G1 X143.833 Y174.769 E.0621
G1 X142.954 Y174.201 E.04758
G1 X141.881 Y173.345 E.0624
G1 X140.988 Y172.46 E.05717
G1 X140.391 Y171.753 E.04204
G1 X139.792 Y170.913 E.04692
G1 X139.166 Y169.834 E.0567
G1 X138.772 Y168.992 E.04226
G1 X138.446 Y168.13 E.0419
G1 X138.19 Y167.258 E.04135
G1 X137.98 Y166.253 E.04666
G1 X137.832 Y164.883 E.06262
G1 X137.833 Y163.638 E.05664
G1 X137.931 Y162.597 E.04753
G1 X138.164 Y161.373 E.05665
G1 X138.421 Y160.468 E.04276
G1 X138.737 Y159.613 E.04145
G1 X139.12 Y158.776 E.04184
G1 X139.616 Y157.888 E.04622
G1 X140.326 Y156.855 E.05701
G1 X140.992 Y156.059 E.04717
G1 X141.882 Y155.176 E.05701
G1 X142.601 Y154.581 E.04241
G1 X143.352 Y154.05 E.04182
G1 X144.134 Y153.582 E.04145
G1 X144.961 Y153.168 E.04205
G1 X145.901 Y152.788 E.04611
G1 X146.251 Y152.683 E.0166
G1 X146.418 Y153.099 F9000
G1 F2700
G1 X147.231 Y152.855 E.0386
G1 X148.531 Y152.616 E.06012
G1 X149.423 Y152.537 E.04071
G1 X150.373 Y152.53 E.04317
G1 X151.687 Y152.646 E.05998
G1 X152.916 Y152.892 E.05701
G1 X153.827 Y153.165 E.04324
G1 X154.989 Y153.637 E.05702
G1 X155.782 Y154.046 E.04056
G1 X156.537 Y154.512 E.04032
G1 X157.249 Y155.029 E.03999
G1 X157.646 Y155.365 E.02368
G1 X158.547 Y156.215 E.05631
G1 X159.173 Y156.938 E.04349
G1 X159.897 Y157.951 E.05658
G1 X160.351 Y158.727 E.04088
G1 X160.737 Y159.517 E.04
G1 X161.065 Y160.342 E.04035
G1 X161.325 Y161.176 E.0397
G1 X161.527 Y162.046 E.04064
G1 X161.66 Y162.909 E.03971
G1 X161.729 Y163.801 E.04066
G1 X161.731 Y164.674 E.03971
G1 X161.658 Y165.628 E.04349
G1 X161.447 Y166.858 E.05673
G1 X161.216 Y167.725 E.04077
G1 X160.927 Y168.549 E.03972
G1 X160.572 Y169.363 E.04035
G1 X160.131 Y170.189 E.04259
G1 X159.438 Y171.24 E.05721
G1 X158.885 Y171.933 E.04032
G1 X158.275 Y172.586 E.04062
G1 X157.633 Y173.179 E.03975
G1 X156.932 Y173.734 E.04065
G1 X156.208 Y174.224 E.03975
G1 X155.437 Y174.664 E.04034
G1 X154.648 Y175.04 E.03976
G1 X153.814 Y175.363 E.04065
G1 X152.977 Y175.616 E.03977
G1 X152.11 Y175.808 E.04034
G1 X151.238 Y175.934 E.04006
G1 X150.353 Y175.994 E.04037
G1 X149.478 Y175.988 E.03977
G1 X148.587 Y175.914 E.04063
G1 X147.298 Y175.684 E.05953
G1 X146.377 Y175.426 E.04349
G1 X145.208 Y174.976 E.05695
G1 X144.039 Y174.373 E.05982
G1 X143.231 Y173.85 E.04376
G1 X142.195 Y173.028 E.06012
G1 X141.303 Y172.144 E.05708
G1 X140.734 Y171.467 E.04023
G1 X140.178 Y170.688 E.04348
G1 X139.552 Y169.61 E.0567
G1 X139.177 Y168.805 E.04037
G1 X138.864 Y167.974 E.04038
G1 X138.619 Y167.133 E.03982
G1 X138.424 Y166.203 E.04323
G1 X138.279 Y164.883 E.06034
G1 X138.279 Y163.638 E.05664
G1 X138.369 Y162.68 E.04372
G1 X138.602 Y161.456 E.05665
G1 X138.85 Y160.592 E.04086
G1 X139.155 Y159.769 E.03993
G1 X139.526 Y158.963 E.04032
G1 X139.984 Y158.141 E.04279
G1 X140.694 Y157.108 E.05701
G1 X141.306 Y156.376 E.04336
G1 X142.197 Y155.493 E.05701
G1 X142.884 Y154.926 E.0405
G1 X143.608 Y154.416 E.0403
G1 X144.362 Y153.966 E.03993
G1 X145.16 Y153.568 E.04052
G1 X146.03 Y153.216 E.04267
G1 X146.379 Y153.111 E.0166
G1 X146.546 Y153.527 F9000
SET_VELOCITY_LIMIT ACCEL=700 ACCEL_TO_DECEL=350
;TYPE:Outer wall
G1 F2700
G1 X147.359 Y153.282 E.0386
G1 X148.609 Y153.055 E.05773
G1 X149.461 Y152.982 E.03891
G1 X150.335 Y152.974 E.03973
G1 X151.574 Y153.08 E.05655
G1 X152.829 Y153.329 E.05815
G1 X153.66 Y153.579 E.03943
G1 X154.822 Y154.05 E.05702
G1 X155.576 Y154.442 E.03865
G1 X156.302 Y154.891 E.03879
G1 X156.985 Y155.389 E.03846
G1 X157.636 Y155.942 E.03882
G1 X158.232 Y156.533 E.03815
G1 X158.81 Y157.198 E.04006
G1 X159.534 Y158.21 E.05658
G1 X159.966 Y158.951 E.03898
G1 X160.335 Y159.712 E.03848
G1 X160.65 Y160.506 E.03882
G1 X160.899 Y161.308 E.03818
G1 X161.092 Y162.146 E.03911
G1 X161.219 Y162.976 E.03818
G1 X161.284 Y163.835 E.03913
G1 X161.284 Y164.674 E.03818
G1 X161.218 Y165.553 E.04006
G1 X161.007 Y166.781 E.05665
G1 X160.785 Y167.608 E.03894
G1 X160.506 Y168.401 E.0382
G1 X160.163 Y169.183 E.03883
G1 X159.758 Y169.943 E.03916
G1 X159.065 Y170.994 E.05721
G1 X158.537 Y171.653 E.03841
G1 X157.949 Y172.281 E.0391
G1 X157.331 Y172.85 E.03822
G1 X156.655 Y173.383 E.03912
G1 X155.958 Y173.854 E.03823
G1 X155.217 Y174.276 E.03881
G1 X154.457 Y174.637 E.03824
G1 X153.654 Y174.946 E.03912
G1 X152.848 Y175.188 E.03824
G1 X152.015 Y175.372 E.03882
G1 X151.176 Y175.492 E.03853
G1 X150.323 Y175.549 E.03884
G1 X149.482 Y175.542 E.03825
G1 X148.625 Y175.469 E.0391
G1 X147.378 Y175.245 E.05762
G1 X146.537 Y175.009 E.03968
G1 X145.368 Y174.56 E.05695
G1 X144.245 Y173.977 E.05754
G1 X143.507 Y173.5 E.03995
G1 X142.509 Y172.711 E.05783
G1 X141.619 Y171.829 E.05699
G1 X141.076 Y171.181 E.03842
G1 X140.564 Y170.464 E.04004
G1 X139.938 Y169.386 E.0567
G1 X139.582 Y168.618 E.03847
G1 X139.282 Y167.818 E.03885
G1 X139.047 Y167.009 E.03829
G1 X138.867 Y166.152 E.03979
G1 X138.725 Y164.884 E.05805
G1 X138.725 Y163.638 E.05664
G1 X138.808 Y162.764 E.0399
G1 X139.041 Y161.54 E.05665
G1 X139.279 Y160.717 E.03895
G1 X139.574 Y159.925 E.03841
G1 X139.931 Y159.15 E.03879
G1 X140.352 Y158.394 E.03936
G1 X141.062 Y157.36 E.05701
G1 X141.62 Y156.693 E.03955
G1 X142.511 Y155.81 E.05701
G1 X143.167 Y155.272 E.03859
G1 X143.864 Y154.781 E.03877
G1 X144.59 Y154.349 E.0384
G1 X145.358 Y153.967 E.03899
