; HEADER_BLOCK_START
; generated by OrcaSlicer 1.8.1 on 2023-12-17 at 16:00:20
; total layer number: 4
; HEADER_BLOCK_END

; THUMBNAIL_BLOCK_START

;
; THUMBNAIL_BLOCK_END

; external perimeters extrusion width = 0.40mm
; perimeters extrusion width = 0.45mm
; infill extrusion width = 0.45mm
; solid infill extrusion width = 0.45mm
; top infill extrusion width = 0.40mm
; first layer extrusion width = 0.56mm

; EXECUTABLE_BLOCK_START
EXCLUDE_OBJECT_DEFINE NAME=Orca-PA-Calibration-Test CENTER=0,0 POLYGON=[[5,5],[295,5],[295,295],[5,295],[5,5]]
M73 P0 R8
;TYPE:Custom
; Initial setups

START_PRINT EXTRUDER_TEMP=205 BED_TEMP=70

;G90 ; use absolute coordinates
;M83 ; extruder relative mode
;M220 S100 ; reset speed factor to 100%
;M221 S100 ; reset extrusion rate to 100%

; Set the heating
;M190 S70 ; wait for bed to heat up
;M104 S205 ; start nozzle heating but don't wait

; Home
;G1 Z3 F3000 ; move z up little to prevent scratching of surface
;G28 ; home all axes
;G1 X3 Y3 F5000 ; move to corner of the bed to avoid ooze over centre

; Wait for final heating
;M109 S205 ; wait for the nozzle to heat up
;M190 S70 ; wait for the bed to heat up

; Return to prime position, Prime line routine
G92 E0 ; Reset Extruder
G1 Z3 F3000 ; move z up little to prevent scratching of surface
G1 X10 Y3 Z0.25 F5000.0 ; Move to start position
G1 X100 Y3 Z0.25 F1500.0 E15 ; Draw the first line
G1 X100 Y3.2 Z0.25 F5000.0 ; Move to side a little
G1 X10 Y3.2 Z0.25 F1500.0 E30 ; Draw the second line
G92 E0 ; Reset Extruder
;M221 S95
G90
G21
M83 ; use relative distances for extrusion
; filament start gcode
M106 S0
;LAYER_CHANGE
;Z:0.25
;HEIGHT:0.25
;BEFORE_LAYER_CHANGE
G92 E0
;0.25


M73 P1 R8
G1 E-.8 F2100
;AFTER_LAYER_CHANGE
;0.25
;_SET_FAN_SPEED_CHANGING_LAYER
;CUSTOM_GCODE
; start pressure advance pattern for layer
G1 E-.8
G1 X105.461 Y124.507 F9000
G1 E.8 F2100
G1 Z.25 F9000
SET_PRESSURE_ADVANCE ADVANCE=0; Override pressure advance value
G1 E-.8 F2100
G1 X105.461 Y124.507 F9000
G1 E.8 F2100
G1 F1800
G1 X105.461 Y166.933 E2.14354

M73 P2 R8
G1 X189.539 Y166.933 E4.24797

G1 X189.539 Y124.507 E2.14354

G1 X105.461 Y124.507 E4.24797
M73 P3 R8
G1 E-.8 F2100
G1 X105.967 Y125.013 F9000
G1 E.8 F2100
G1 F1800
G1 X105.967 Y166.427 E2.09238

G1 X189.033 Y166.427 E4.19681

M73 P4 R8
G1 X189.033 Y125.013 E2.09238

G1 X105.967 Y125.013 E4.19681
M73 P5 R8
G1 E-.8 F2100
G1 X106.473 Y125.519 F9000
G1 E.8 F2100
G1 F1800
G1 X106.473 Y165.921 E2.04121

G1 X188.527 Y165.921 E4.14564

G1 X188.527 Y125.519 E2.04121

M73 P6 R8
G1 X106.473 Y125.519 E4.14564
G1 E-.8 F2100
G1 X105.461 Y167.44 F9000
G1 E.8 F2100
G1 F1800
G1 X105.461 Y180.946 E.68239

G1 X169.73 Y180.946 E3.24715

M73 P7 R8
G1 X169.73 Y167.44 E.68239

G1 X105.461 Y167.44 E3.24715
G1 E-.8 F2100
G1 X105.967 Y167.946 F9000
G1 E.8 F2100
G1 F1800
G1 X105.967 Y180.44 E.63123

G1 X169.224 Y180.44 E3.19599

M73 P8 R7
G1 X169.224 Y167.946 E.63123

G1 X105.967 Y167.946 E3.19599
G1 E-.8 F2100
G1 X106.473 Y168.452 F9000
G1 E.8 F2100
G1 F1800
G1 X106.473 Y179.933 E.58006

G1 X168.718 Y179.933 E3.14482

M73 P9 R7
G1 X168.718 Y168.452 E.58006

G1 X106.473 Y168.452 E3.14482
G1 E-.8 F2100
G1 X106.847 Y168.826 F9000
G1 E.8 F2100
G1 E-.8
G1 X107.563 Y168.826 F9000
G1 E.8 F2100
G1 F1800
G1 X106.847 Y169.542 E.05117
G1 E-.8 F2100
G1 X106.847 Y170.258 F9000
G1 E.8 F2100
G1 F1800
G1 X108.279 Y168.826 E.10233
G1 E-.8 F2100
G1 X108.995 Y168.826 F9000
G1 E.8 F2100
G1 F1800
G1 X106.847 Y170.974 E.1535
G1 E-.8 F2100
G1 X106.847 Y171.69 F9000
G1 E.8 F2100
G1 F1800
G1 X109.711 Y168.826 E.20466
G1 E-.8 F2100
G1 X110.427 Y168.826 F9000
G1 E.8 F2100
G1 F1800
G1 X106.847 Y172.406 E.25583
G1 E-.8 F2100
G1 X106.847 Y173.122 F9000
G1 E.8 F2100
G1 F1800
G1 X111.143 Y168.826 E.30699
M73 P10 R7
G1 E-.8 F2100
G1 X111.859 Y168.826 F9000
G1 E.8 F2100
G1 F1800
G1 X106.847 Y173.838 E.35816
G1 E-.8 F2100
G1 X106.847 Y174.554 F9000
G1 E.8 F2100
G1 F1800
G1 X112.575 Y168.826 E.40932
G1 E-.8 F2100
G1 X113.291 Y168.826 F9000
G1 E.8 F2100
G1 F1800
G1 X106.847 Y175.27 E.46049
G1 E-.8 F2100
G1 X106.847 Y175.986 F9000
G1 E.8 F2100
G1 F1800
G1 X114.008 Y168.826 E.51165
G1 E-.8 F2100
G1 X114.724 Y168.826 F9000
G1 E.8 F2100
G1 F1800
G1 X106.847 Y176.703 E.56282
G1 E-.8 F2100
G1 X106.847 Y177.419 F9000
G1 E.8 F2100
G1 F1800
G1 X115.44 Y168.826 E.61398
G1 E-.8 F2100
G1 X116.156 Y168.826 F9000
G1 E.8 F2100
G1 F1800
G1 X106.847 Y178.135 E.66515
G1 E-.8 F2100
G1 X106.847 Y178.851 F9000
G1 E.8 F2100
G1 F1800
G1 X116.872 Y168.826 E.71632
G1 E-.8 F2100
G1 X117.588 Y168.826 F9000
G1 E.8 F2100
G1 F1800
G1 X106.854 Y179.56 E.76698
G1 E-.8 F2100
G1 X107.57 Y179.56 F9000
G1 E.8 F2100
G1 F1800
G1 X118.304 Y168.826 E.76698
M73 P11 R7
G1 E-.8 F2100
G1 X119.02 Y168.826 F9000
G1 E.8 F2100
G1 F1800
G1 X108.286 Y179.56 E.76698
G1 E-.8 F2100
G1 X109.002 Y179.56 F9000
G1 E.8 F2100
G1 F1800
G1 X119.736 Y168.826 E.76698
G1 E-.8 F2100
G1 X120.452 Y168.826 F9000
G1 E.8 F2100
G1 F1800
G1 X109.718 Y179.56 E.76698
G1 E-.8 F2100
G1 X110.434 Y179.56 F9000
G1 E.8 F2100
G1 F1800
G1 X121.168 Y168.826 E.76698
G1 E-.8 F2100
G1 X121.885 Y168.826 F9000
G1 E.8 F2100
G1 F1800
G1 X111.15 Y179.56 E.76698
G1 E-.8 F2100
G1 X111.866 Y179.56 F9000
G1 E.8 F2100
G1 F1800
G1 X122.601 Y168.826 E.76698
G1 E-.8 F2100
G1 X123.317 Y168.826 F9000
G1 E.8 F2100
G1 F1800
G1 X112.582 Y179.56 E.76698
G1 E-.8 F2100
G1 X113.298 Y179.56 F9000
G1 E.8 F2100
G1 F1800
G1 X124.033 Y168.826 E.76698
M73 P12 R7
G1 E-.8 F2100
G1 X124.749 Y168.826 F9000
G1 E.8 F2100
G1 F1800
G1 X114.015 Y179.56 E.76698
G1 E-.8 F2100
G1 X114.731 Y179.56 F9000
G1 E.8 F2100
G1 F1800
G1 X125.465 Y168.826 E.76698
G1 E-.8 F2100
G1 X126.181 Y168.826 F9000
G1 E.8 F2100
G1 F1800
G1 X115.447 Y179.56 E.76698
G1 E-.8 F2100
G1 X116.163 Y179.56 F9000
G1 E.8 F2100
G1 F1800
G1 X126.897 Y168.826 E.76698
G1 E-.8 F2100
G1 X127.613 Y168.826 F9000
G1 E.8 F2100
G1 F1800
G1 X116.879 Y179.56 E.76698
G1 E-.8 F2100
G1 X117.595 Y179.56 F9000
G1 E.8 F2100
G1 F1800
G1 X128.329 Y168.826 E.76698
G1 E-.8 F2100
G1 X129.045 Y168.826 F9000
G1 E.8 F2100
G1 F1800
G1 X118.311 Y179.56 E.76698
G1 E-.8 F2100
G1 X119.027 Y179.56 F9000
G1 E.8 F2100
M73 P13 R7
G1 F1800
G1 X129.761 Y168.826 E.76698
G1 E-.8 F2100
G1 X130.478 Y168.826 F9000
G1 E.8 F2100
G1 F1800
G1 X119.743 Y179.56 E.76698
G1 E-.8 F2100
G1 X120.459 Y179.56 F9000
G1 E.8 F2100
G1 F1800
G1 X131.194 Y168.826 E.76698
G1 E-.8 F2100
G1 X131.91 Y168.826 F9000
G1 E.8 F2100
G1 F1800
G1 X121.175 Y179.56 E.76698
G1 E-.8 F2100
G1 X121.892 Y179.56 F9000
G1 E.8 F2100
G1 F1800
G1 X132.626 Y168.826 E.76698
G1 E-.8 F2100
G1 X133.342 Y168.826 F9000
G1 E.8 F2100
G1 F1800
G1 X122.608 Y179.56 E.76698
G1 E-.8 F2100
G1 X123.324 Y179.56 F9000
G1 E.8 F2100
G1 F1800
G1 X134.058 Y168.826 E.76698
G1 E-.8 F2100
G1 X134.774 Y168.826 F9000
G1 E.8 F2100
G1 F1800
G1 X124.04 Y179.56 E.76698
G1 E-.8 F2100
G1 X124.756 Y179.56 F9000
M73 P14 R7
G1 E.8 F2100
G1 F1800
G1 X135.49 Y168.826 E.76698
G1 E-.8 F2100
G1 X136.206 Y168.826 F9000
G1 E.8 F2100
G1 F1800
G1 X125.472 Y179.56 E.76698
G1 E-.8 F2100
G1 X126.188 Y179.56 F9000
G1 E.8 F2100
G1 F1800
G1 X136.922 Y168.826 E.76698
G1 E-.8 F2100
G1 X137.638 Y168.826 F9000
G1 E.8 F2100
G1 F1800
G1 X126.904 Y179.56 E.76698
G1 E-.8 F2100
G1 X127.62 Y179.56 F9000
G1 E.8 F2100
G1 F1800
G1 X138.354 Y168.826 E.76698
G1 E-.8 F2100
G1 X139.071 Y168.826 F9000
G1 E.8 F2100
G1 F1800
G1 X128.336 Y179.56 E.76698
G1 E-.8 F2100
G1 X129.052 Y179.56 F9000
G1 E.8 F2100
G1 F1800
G1 X139.787 Y168.826 E.76698
G1 E-.8 F2100
G1 X140.503 Y168.826 F9000
G1 E.8 F2100
G1 F1800
G1 X129.768 Y179.56 E.76698
M73 P15 R7
G1 E-.8 F2100
G1 X130.485 Y179.56 F9000
G1 E.8 F2100
G1 F1800
G1 X141.219 Y168.826 E.76698
G1 E-.8 F2100
G1 X141.935 Y168.826 F9000
G1 E.8 F2100
G1 F1800
G1 X131.201 Y179.56 E.76698
G1 E-.8 F2100
G1 X131.917 Y179.56 F9000
G1 E.8 F2100
G1 F1800
G1 X142.651 Y168.826 E.76698
G1 E-.8 F2100
G1 X143.367 Y168.826 F9000
G1 E.8 F2100
G1 F1800
G1 X132.633 Y179.56 E.76698
G1 E-.8 F2100
G1 X133.349 Y179.56 F9000
G1 E.8 F2100
G1 F1800
G1 X144.083 Y168.826 E.76698
G1 E-.8 F2100
G1 X144.799 Y168.826 F9000
G1 E.8 F2100
G1 F1800
G1 X134.065 Y179.56 E.76698
G1 E-.8 F2100
G1 X134.781 Y179.56 F9000
G1 E.8 F2100
G1 F1800
G1 X145.515 Y168.826 E.76698
G1 E-.8 F2100
G1 X146.231 Y168.826 F9000
G1 E.8 F2100
G1 F1800
G1 X135.497 Y179.56 E.76698
M73 P16 R7
G1 E-.8 F2100
G1 X136.213 Y179.56 F9000
G1 E.8 F2100
G1 F1800
G1 X146.948 Y168.826 E.76698
G1 E-.8 F2100
G1 X147.664 Y168.826 F9000
G1 E.8 F2100
G1 F1800
G1 X136.929 Y179.56 E.76698
G1 E-.8 F2100
G1 X137.645 Y179.56 F9000
G1 E.8 F2100
G1 F1800
G1 X148.38 Y168.826 E.76698
G1 E-.8 F2100
G1 X149.096 Y168.826 F9000
G1 E.8 F2100
G1 F1800
G1 X138.362 Y179.56 E.76698
G1 E-.8 F2100
G1 X139.078 Y179.56 F9000
G1 E.8 F2100
G1 F1800
G1 X149.812 Y168.826 E.76698
G1 E-.8 F2100
G1 X150.528 Y168.826 F9000
G1 E.8 F2100
G1 F1800
G1 X139.794 Y179.56 E.76698
G1 E-.8 F2100
G1 X140.51 Y179.56 F9000
G1 E.8 F2100
G1 F1800
G1 X151.244 Y168.826 E.76698
G1 E-.8 F2100
G1 X151.96 Y168.826 F9000
G1 E.8 F2100
G1 F1800
G1 X141.226 Y179.56 E.76698
M73 P17 R7
G1 E-.8 F2100
G1 X141.942 Y179.56 F9000
G1 E.8 F2100
G1 F1800
G1 X152.676 Y168.826 E.76698
G1 E-.8 F2100
G1 X153.392 Y168.826 F9000
G1 E.8 F2100
G1 F1800
G1 X142.658 Y179.56 E.76698
G1 E-.8 F2100
G1 X143.374 Y179.56 F9000
G1 E.8 F2100
G1 F1800
G1 X154.108 Y168.826 E.76698
G1 E-.8 F2100
G1 X154.824 Y168.826 F9000
G1 E.8 F2100
G1 F1800
G1 X144.09 Y179.56 E.76698
G1 E-.8 F2100
G1 X144.806 Y179.56 F9000
G1 E.8 F2100
G1 F1800
G1 X155.541 Y168.826 E.76698
G1 E-.8 F2100
G1 X156.257 Y168.826 F9000
G1 E.8 F2100
G1 F1800
G1 X145.522 Y179.56 E.76698
G1 E-.8 F2100
G1 X146.238 Y179.56 F9000
G1 E.8 F2100
G1 F1800
G1 X156.973 Y168.826 E.76698
G1 E-.8 F2100
G1 X157.689 Y168.826 F9000
G1 E.8 F2100
G1 F1800
G1 X146.955 Y179.56 E.76698
M73 P18 R7
G1 E-.8 F2100
G1 X147.671 Y179.56 F9000
G1 E.8 F2100
G1 F1800
G1 X158.405 Y168.826 E.76698
G1 E-.8 F2100
G1 X159.121 Y168.826 F9000
G1 E.8 F2100
G1 F1800
G1 X148.387 Y179.56 E.76698
G1 E-.8 F2100
G1 X149.103 Y179.56 F9000
G1 E.8 F2100
G1 F1800
G1 X159.837 Y168.826 E.76698
G1 E-.8 F2100
G1 X160.553 Y168.826 F9000
G1 E.8 F2100
G1 F1800
G1 X149.819 Y179.56 E.76698
G1 E-.8 F2100
G1 X150.535 Y179.56 F9000
G1 E.8 F2100
G1 F1800
G1 X161.269 Y168.826 E.76698
G1 E-.8 F2100
G1 X161.985 Y168.826 F9000
G1 E.8 F2100
G1 F1800
G1 X151.251 Y179.56 E.76698
G1 E-.8 F2100
G1 X151.967 Y179.56 F9000
G1 E.8 F2100
G1 F1800
G1 X162.701 Y168.826 E.76698
G1 E-.8 F2100
G1 X163.418 Y168.826 F9000
G1 E.8 F2100
G1 F1800
G1 X152.683 Y179.56 E.76698
M73 P19 R7
G1 E-.8 F2100
G1 X153.399 Y179.56 F9000
G1 E.8 F2100
G1 F1800
G1 X164.134 Y168.826 E.76698
G1 E-.8 F2100
G1 X164.85 Y168.826 F9000
G1 E.8 F2100
G1 F1800
G1 X154.115 Y179.56 E.76698
G1 E-.8 F2100
G1 X154.831 Y179.56 F9000
G1 E.8 F2100
G1 F1800
G1 X165.566 Y168.826 E.76698
G1 E-.8 F2100
G1 X166.282 Y168.826 F9000
G1 E.8 F2100
G1 F1800
G1 X155.548 Y179.56 E.76698
M73 P19 R6
G1 E-.8 F2100
G1 X156.264 Y179.56 F9000
G1 E.8 F2100
G1 F1800
G1 X166.998 Y168.826 E.76698
G1 E-.8 F2100
G1 X167.714 Y168.826 F9000
G1 E.8 F2100
G1 F1800
G1 X156.98 Y179.56 E.76698
G1 E-.8 F2100
G1 X157.696 Y179.56 F9000
G1 E.8 F2100
G1 F1800
G1 X168.344 Y168.911 E.76086
G1 E-.8 F2100
G1 X168.344 Y169.627 F9000
G1 E.8 F2100
G1 F1800
G1 X158.412 Y179.56 E.70969
M73 P20 R6
G1 E-.8 F2100
G1 X159.128 Y179.56 F9000
G1 E.8 F2100
G1 F1800
G1 X168.344 Y170.343 E.65853
G1 E-.8 F2100
G1 X168.344 Y171.06 F9000
G1 E.8 F2100
G1 F1800
G1 X159.844 Y179.56 E.60736
G1 E-.8 F2100
G1 X160.56 Y179.56 F9000
G1 E.8 F2100
G1 F1800
G1 X168.344 Y171.776 E.5562
G1 E-.8 F2100
G1 X168.344 Y172.492 F9000
G1 E.8 F2100
G1 F1800
G1 X161.276 Y179.56 E.50503
G1 E-.8 F2100
G1 X161.992 Y179.56 F9000
G1 E.8 F2100
G1 F1800
G1 X168.344 Y173.208 E.45387
G1 E-.8 F2100
G1 X168.344 Y173.924 F9000
G1 E.8 F2100
G1 F1800
G1 X162.708 Y179.56 E.4027
G1 E-.8 F2100
G1 X163.425 Y179.56 F9000
G1 E.8 F2100
G1 F1800
G1 X168.344 Y174.64 E.35153
G1 E-.8 F2100
G1 X168.344 Y175.356 F9000
G1 E.8 F2100
G1 F1800
G1 X164.141 Y179.56 E.30037
G1 E-.8 F2100
G1 X164.857 Y179.56 F9000
G1 E.8 F2100
G1 F1800
G1 X168.344 Y176.072 E.2492
G1 E-.8 F2100
G1 X168.344 Y176.788 F9000
G1 E.8 F2100
G1 F1800
G1 X165.573 Y179.56 E.19804
G1 E-.8 F2100
G1 X166.289 Y179.56 F9000
G1 E.8 F2100
G1 F1800
G1 X168.344 Y177.504 E.14687
G1 E-.8 F2100
G1 X168.344 Y178.22 F9000
G1 E.8 F2100
G1 F1800
G1 X167.005 Y179.56 E.09571
G1 E-.8 F2100
M73 P21 R6
G1 X167.721 Y179.56 F9000
G1 E.8 F2100
G1 F1800
G1 X168.344 Y178.936 E.04454
G1 E-.8 F2100
G1 X109.419 Y125.893 F9000
G1 E.8 F2100
SET_PRESSURE_ADVANCE ADVANCE=0; Override pressure advance value
G1 F1800
G1 X129.247 Y145.72 E1.10892

G1 X109.419 Y165.547 E1.10892
G1 E-.8 F2100
G1 X109.995 Y125.893 F9000
G1 E.8 F2100
G1 F1800
G1 X129.822 Y145.72 E1.10892

G1 X109.995 Y165.547 E1.10892
G1 E-.8 F2100
M73 P22 R6
G1 X110.571 Y125.893 F9000
G1 E.8 F2100
G1 F1800
G1 X130.398 Y145.72 E1.10892

G1 X110.571 Y165.547 E1.10892
G1 E-.8 F2100
G1 X113.021 Y125.893 F9000
G1 E.8 F2100
SET_PRESSURE_ADVANCE ADVANCE=0.005; Override pressure advance value
G1 F1800
G1 X132.848 Y145.72 E1.10892

G1 X113.021 Y165.547 E1.10892
G1 E-.8 F2100
G1 X113.596 Y125.893 F9000
G1 E.8 F2100
G1 F1800
G1 X133.424 Y145.72 E1.10892

M73 P23 R6
G1 X113.596 Y165.547 E1.10892
G1 E-.8 F2100
G1 X114.172 Y125.893 F9000
G1 E.8 F2100
G1 F1800
G1 X133.999 Y145.72 E1.10892

G1 X114.172 Y165.547 E1.10892
G1 E-.8 F2100
G1 X116.622 Y125.893 F9000
G1 E.8 F2100
SET_PRESSURE_ADVANCE ADVANCE=0.01; Override pressure advance value
G1 F1800
G1 X136.449 Y145.72 E1.10892

M73 P24 R6
G1 X116.622 Y165.547 E1.10892
G1 E-.8 F2100
G1 X117.198 Y125.893 F9000
G1 E.8 F2100
G1 F1800
G1 X137.025 Y145.72 E1.10892

G1 X117.198 Y165.547 E1.10892
G1 E-.8 F2100
G1 X117.774 Y125.893 F9000
G1 E.8 F2100
G1 F1800
G1 X137.601 Y145.72 E1.10892

M73 P25 R6
G1 X117.774 Y165.547 E1.10892
G1 E-.8 F2100
G1 X120.224 Y125.893 F9000
G1 E.8 F2100
SET_PRESSURE_ADVANCE ADVANCE=0.015; Override pressure advance value
G1 F1800
G1 X140.051 Y145.72 E1.10892

G1 X120.224 Y165.547 E1.10892
G1 E-.8 F2100
G1 X120.799 Y125.893 F9000
G1 E.8 F2100
G1 F1800
G1 X140.626 Y145.72 E1.10892

G1 X120.799 Y165.547 E1.10892
M73 P26 R6
G1 E-.8 F2100
G1 X121.375 Y125.893 F9000
G1 E.8 F2100
G1 F1800
G1 X141.202 Y145.72 E1.10892

G1 X121.375 Y165.547 E1.10892
G1 E-.8 F2100
G1 X123.825 Y125.893 F9000
G1 E.8 F2100
SET_PRESSURE_ADVANCE ADVANCE=0.02; Override pressure advance value
G1 F1800
G1 X143.652 Y145.72 E1.10892

G1 X123.825 Y165.547 E1.10892
M73 P27 R6
G1 E-.8 F2100
G1 X124.401 Y125.893 F9000
G1 E.8 F2100
G1 F1800
G1 X144.228 Y145.72 E1.10892

G1 X124.401 Y165.547 E1.10892
G1 E-.8 F2100
G1 X124.976 Y125.893 F9000
G1 E.8 F2100
G1 F1800
G1 X144.804 Y145.72 E1.10892

G1 X124.976 Y165.547 E1.10892
G1 E-.8 F2100
G1 X127.426 Y125.893 F9000
G1 E.8 F2100
SET_PRESSURE_ADVANCE ADVANCE=0.025; Override pressure advance value
M73 P28 R6
G1 F1800
G1 X147.254 Y145.72 E1.10892

G1 X127.426 Y165.547 E1.10892
G1 E-.8 F2100
G1 X128.002 Y125.893 F9000
G1 E.8 F2100
G1 F1800
G1 X147.829 Y145.72 E1.10892

G1 X128.002 Y165.547 E1.10892
G1 E-.8 F2100
G1 X128.578 Y125.893 F9000
G1 E.8 F2100
G1 F1800
G1 X148.405 Y145.72 E1.10892

M73 P29 R6
G1 X128.578 Y165.547 E1.10892
G1 E-.8 F2100
G1 X131.028 Y125.893 F9000
G1 E.8 F2100
SET_PRESSURE_ADVANCE ADVANCE=0.03; Override pressure advance value
G1 F1800
G1 X150.855 Y145.72 E1.10892

G1 X131.028 Y165.547 E1.10892
G1 E-.8 F2100
G1 X131.603 Y125.893 F9000
G1 E.8 F2100
G1 F1800
G1 X151.431 Y145.72 E1.10892

M73 P30 R6
G1 X131.603 Y165.547 E1.10892
G1 E-.8 F2100
G1 X132.179 Y125.893 F9000
G1 E.8 F2100
G1 F1800
G1 X152.006 Y145.72 E1.10892

G1 X132.179 Y165.547 E1.10892
G1 E-.8 F2100
G1 X134.629 Y125.893 F9000
G1 E.8 F2100
SET_PRESSURE_ADVANCE ADVANCE=0.035; Override pressure advance value
G1 F1800
G1 X154.456 Y145.72 E1.10892

G1 X134.629 Y165.547 E1.10892
M73 P31 R5
G1 E-.8 F2100
G1 X135.205 Y125.893 F9000
G1 E.8 F2100
G1 F1800
G1 X155.032 Y145.72 E1.10892

G1 X135.205 Y165.547 E1.10892
G1 E-.8 F2100
G1 X135.781 Y125.893 F9000
G1 E.8 F2100
G1 F1800
G1 X155.608 Y145.72 E1.10892

