; HEADER_BLOCK_START
; generated by OrcaSlicer 1.8.1 on 2023-12-17 at 16:20:05
; total layer number: 4
; HEADER_BLOCK_END

; THUMBNAIL_BLOCK_START

;
; THUMBNAIL_BLOCK_END

; external perimeters extrusion width = 0.40mm
; perimeters extrusion width = 0.45mm
; infill extrusion width = 0.45mm
; solid infill extrusion width = 0.45mm
; top infill extrusion width = 0.40mm
; first layer extrusion width = 0.56mm

; EXECUTABLE_BLOCK_START
EXCLUDE_OBJECT_DEFINE NAME=Orca-PA-Calibration-Test CENTER=0,0 POLYGON=[[5,5],[295,5],[295,295],[5,295],[5,5]]
M73 P0 R14
;TYPE:Custom
; Initial setups

START_PRINT EXTRUDER_TEMP=205 BED_TEMP=70

;G90 ; use absolute coordinates
;M83 ; extruder relative mode
;M220 S100 ; reset speed factor to 100%
;M221 S100 ; reset extrusion rate to 100%

; Set the heating
;M190 S70 ; wait for bed to heat up
;M104 S205 ; start nozzle heating but don't wait

; Home
;G1 Z3 F3000 ; move z up little to prevent scratching of surface
;G28 ; home all axes
;G1 X3 Y3 F5000 ; move to corner of the bed to avoid ooze over centre

; Wait for final heating
;M109 S205 ; wait for the nozzle to heat up
;M190 S70 ; wait for the bed to heat up

; Return to prime position, Prime line routine
G92 E0 ; Reset Extruder
G1 Z3 F3000 ; move z up little to prevent scratching of surface
G1 X10 Y3 Z0.25 F5000.0 ; Move to start position
G1 X100 Y3 Z0.25 F1500.0 E15 ; Draw the first line
G1 X100 Y3.2 Z0.25 F5000.0 ; Move to side a little
G1 X10 Y3.2 Z0.25 F1500.0 E30 ; Draw the second line
G92 E0 ; Reset Extruder
;M221 S95
G90
G21
M83 ; use relative distances for extrusion
; filament start gcode
M106 S0
;LAYER_CHANGE
;Z:0.25
;HEIGHT:0.25
;BEFORE_LAYER_CHANGE
G92 E0
;0.25


G1 E-.8 F2100
;AFTER_LAYER_CHANGE
;0.25
;_SET_FAN_SPEED_CHANGING_LAYER
;CUSTOM_GCODE
; start pressure advance pattern for layer
G1 E-.8
G1 X83.852 Y124.507 F9000
M73 P1 R14
G1 E.8 F2100
G1 Z.25 F9000
SET_PRESSURE_ADVANCE ADVANCE=0.04; Override pressure advance value
G1 E-.8 F2100
G1 X83.852 Y124.507 F9000
G1 E.8 F2100
G1 F1800
G1 X83.852 Y166.933 E2.14354

G1 X211.148 Y166.933 E6.43144

G1 X211.148 Y124.507 E2.14354

G1 X83.852 Y124.507 E6.43144
M73 P2 R13
G1 E-.8 F2100
G1 X84.359 Y125.013 F9000
G1 E.8 F2100
G1 F1800
G1 X84.359 Y166.427 E2.09238

G1 X210.641 Y166.427 E6.38028

M73 P3 R13
G1 X210.641 Y125.013 E2.09238

G1 X84.359 Y125.013 E6.38028
G1 E-.8 F2100
G1 X84.865 Y125.519 F9000
G1 E.8 F2100
G1 F1800
G1 X84.865 Y165.921 E2.04121

G1 X210.135 Y165.921 E6.32911

M73 P4 R13
G1 X210.135 Y125.519 E2.04121

G1 X84.865 Y125.519 E6.32911
M73 P5 R13
G1 E-.8 F2100
G1 X83.852 Y167.44 F9000
G1 E.8 F2100
G1 F1800
G1 X83.852 Y180.946 E.68239

G1 X191.339 Y180.946 E5.43063

G1 X191.339 Y167.44 E.68239

G1 X83.852 Y167.44 E5.43063
M73 P6 R13
G1 E-.8 F2100
G1 X84.359 Y167.946 F9000
G1 E.8 F2100
G1 F1800
G1 X84.359 Y180.44 E.63123

G1 X190.832 Y180.44 E5.37946

G1 X190.832 Y167.946 E.63123

G1 X84.359 Y167.946 E5.37946
G1 E-.8 F2100
G1 X84.865 Y168.452 F9000
G1 E.8 F2100
G1 F1800
G1 X84.865 Y179.933 E.58006

M73 P7 R13
G1 X190.326 Y179.933 E5.32829

G1 X190.326 Y168.452 E.58006

G1 X84.865 Y168.452 E5.32829
G1 E-.8 F2100
G1 X85.238 Y168.826 F9000
G1 E.8 F2100
G1 E-.8
G1 X85.954 Y168.826 F9000
G1 E.8 F2100
G1 F1800
G1 X85.238 Y169.542 E.05117
G1 E-.8 F2100
G1 X85.238 Y170.258 F9000
G1 E.8 F2100
G1 F1800
G1 X86.671 Y168.826 E.10233
G1 E-.8 F2100
G1 X87.387 Y168.826 F9000
G1 E.8 F2100
G1 F1800
G1 X85.238 Y170.974 E.1535
M73 P8 R13
G1 E-.8 F2100
G1 X85.238 Y171.69 F9000
G1 E.8 F2100
G1 F1800
G1 X88.103 Y168.826 E.20466
G1 E-.8 F2100
G1 X88.819 Y168.826 F9000
G1 E.8 F2100
G1 F1800
G1 X85.238 Y172.406 E.25583
G1 E-.8 F2100
G1 X85.238 Y173.122 F9000
G1 E.8 F2100
G1 F1800
G1 X89.535 Y168.826 E.30699
G1 E-.8 F2100
G1 X90.251 Y168.826 F9000
G1 E.8 F2100
G1 F1800
G1 X85.238 Y173.838 E.35816
G1 E-.8 F2100
G1 X85.238 Y174.554 F9000
G1 E.8 F2100
G1 F1800
G1 X90.967 Y168.826 E.40932
G1 E-.8 F2100
G1 X91.683 Y168.826 F9000
G1 E.8 F2100
G1 F1800
G1 X85.238 Y175.27 E.46049
G1 E-.8 F2100
G1 X85.238 Y175.986 F9000
G1 E.8 F2100
G1 F1800
G1 X92.399 Y168.826 E.51165
G1 E-.8 F2100
G1 X93.115 Y168.826 F9000
G1 E.8 F2100
G1 F1800
G1 X85.238 Y176.703 E.56282
G1 E-.8 F2100
G1 X85.238 Y177.419 F9000
G1 E.8 F2100
G1 F1800
G1 X93.831 Y168.826 E.61398
G1 E-.8 F2100
G1 X94.547 Y168.826 F9000
G1 E.8 F2100
G1 F1800
G1 X85.238 Y178.135 E.66515
G1 E-.8 F2100
G1 X85.238 Y178.851 F9000
G1 E.8 F2100
G1 F1800
G1 X95.264 Y168.826 E.71632
G1 E-.8 F2100
G1 X95.98 Y168.826 F9000
G1 E.8 F2100
G1 F1800
G1 X85.245 Y179.56 E.76698
G1 E-.8 F2100
G1 X85.961 Y179.56 F9000
G1 E.8 F2100
G1 F1800
G1 X96.696 Y168.826 E.76698
G1 E-.8 F2100
G1 X97.412 Y168.826 F9000
G1 E.8 F2100
G1 F1800
G1 X86.678 Y179.56 E.76698
G1 E-.8 F2100
G1 X87.394 Y179.56 F9000
G1 E.8 F2100
G1 F1800
G1 X98.128 Y168.826 E.76698
G1 E-.8 F2100
G1 X98.844 Y168.826 F9000
G1 E.8 F2100
G1 F1800
G1 X88.11 Y179.56 E.76698
M73 P8 R12
G1 E-.8 F2100
G1 X88.826 Y179.56 F9000
G1 E.8 F2100
G1 F1800
G1 X99.56 Y168.826 E.76698
M73 P9 R12
G1 E-.8 F2100
G1 X100.276 Y168.826 F9000
G1 E.8 F2100
G1 F1800
G1 X89.542 Y179.56 E.76698
G1 E-.8 F2100
G1 X90.258 Y179.56 F9000
G1 E.8 F2100
G1 F1800
G1 X100.992 Y168.826 E.76698
G1 E-.8 F2100
G1 X101.708 Y168.826 F9000
G1 E.8 F2100
G1 F1800
G1 X90.974 Y179.56 E.76698
G1 E-.8 F2100
G1 X91.69 Y179.56 F9000
G1 E.8 F2100
G1 F1800
G1 X102.424 Y168.826 E.76698
G1 E-.8 F2100
G1 X103.14 Y168.826 F9000
G1 E.8 F2100
G1 F1800
G1 X92.406 Y179.56 E.76698
G1 E-.8 F2100
G1 X93.122 Y179.56 F9000
G1 E.8 F2100
G1 F1800
G1 X103.857 Y168.826 E.76698
G1 E-.8 F2100
G1 X104.573 Y168.826 F9000
G1 E.8 F2100
G1 F1800
G1 X93.838 Y179.56 E.76698
G1 E-.8 F2100
G1 X94.554 Y179.56 F9000
G1 E.8 F2100
G1 F1800
G1 X105.289 Y168.826 E.76698
G1 E-.8 F2100
G1 X106.005 Y168.826 F9000
G1 E.8 F2100
G1 F1800
G1 X95.271 Y179.56 E.76698
G1 E-.8 F2100
G1 X95.987 Y179.56 F9000
G1 E.8 F2100
G1 F1800
G1 X106.721 Y168.826 E.76698
G1 E-.8 F2100
G1 X107.437 Y168.826 F9000
G1 E.8 F2100
G1 F1800
G1 X96.703 Y179.56 E.76698
G1 E-.8 F2100
G1 X97.419 Y179.56 F9000
G1 E.8 F2100
G1 F1800
G1 X108.153 Y168.826 E.76698
G1 E-.8 F2100
G1 X108.869 Y168.826 F9000
G1 E.8 F2100
G1 F1800
G1 X98.135 Y179.56 E.76698
M73 P10 R12
G1 E-.8 F2100
G1 X98.851 Y179.56 F9000
G1 E.8 F2100
G1 F1800
G1 X109.585 Y168.826 E.76698
G1 E-.8 F2100
G1 X110.301 Y168.826 F9000
G1 E.8 F2100
G1 F1800
G1 X99.567 Y179.56 E.76698
G1 E-.8 F2100
G1 X100.283 Y179.56 F9000
G1 E.8 F2100
G1 F1800
G1 X111.017 Y168.826 E.76698
G1 E-.8 F2100
G1 X111.734 Y168.826 F9000
G1 E.8 F2100
G1 F1800
G1 X100.999 Y179.56 E.76698
G1 E-.8 F2100
G1 X101.715 Y179.56 F9000
G1 E.8 F2100
G1 F1800
G1 X112.45 Y168.826 E.76698
G1 E-.8 F2100
G1 X113.166 Y168.826 F9000
G1 E.8 F2100
G1 F1800
G1 X102.431 Y179.56 E.76698
G1 E-.8 F2100
G1 X103.147 Y179.56 F9000
G1 E.8 F2100
G1 F1800
G1 X113.882 Y168.826 E.76698
G1 E-.8 F2100
G1 X114.598 Y168.826 F9000
G1 E.8 F2100
G1 F1800
G1 X103.864 Y179.56 E.76698
G1 E-.8 F2100
G1 X104.58 Y179.56 F9000
G1 E.8 F2100
G1 F1800
G1 X115.314 Y168.826 E.76698
G1 E-.8 F2100
G1 X116.03 Y168.826 F9000
G1 E.8 F2100
G1 F1800
G1 X105.296 Y179.56 E.76698
G1 E-.8 F2100
G1 X106.012 Y179.56 F9000
G1 E.8 F2100
G1 F1800
G1 X116.746 Y168.826 E.76698
G1 E-.8 F2100
G1 X117.462 Y168.826 F9000
G1 E.8 F2100
G1 F1800
G1 X106.728 Y179.56 E.76698
G1 E-.8 F2100
G1 X107.444 Y179.56 F9000
G1 E.8 F2100
M73 P11 R12
G1 F1800
G1 X118.178 Y168.826 E.76698
G1 E-.8 F2100
G1 X118.894 Y168.826 F9000
G1 E.8 F2100
G1 F1800
G1 X108.16 Y179.56 E.76698
G1 E-.8 F2100
G1 X108.876 Y179.56 F9000
G1 E.8 F2100
G1 F1800
G1 X119.61 Y168.826 E.76698
G1 E-.8 F2100
G1 X120.327 Y168.826 F9000
G1 E.8 F2100
G1 F1800
G1 X109.592 Y179.56 E.76698
G1 E-.8 F2100
G1 X110.308 Y179.56 F9000
G1 E.8 F2100
G1 F1800
G1 X121.043 Y168.826 E.76698
G1 E-.8 F2100
G1 X121.759 Y168.826 F9000
G1 E.8 F2100
G1 F1800
G1 X111.024 Y179.56 E.76698
G1 E-.8 F2100
G1 X111.741 Y179.56 F9000
G1 E.8 F2100
G1 F1800
G1 X122.475 Y168.826 E.76698
G1 E-.8 F2100
G1 X123.191 Y168.826 F9000
G1 E.8 F2100
G1 F1800
G1 X112.457 Y179.56 E.76698
G1 E-.8 F2100
G1 X113.173 Y179.56 F9000
G1 E.8 F2100
G1 F1800
G1 X123.907 Y168.826 E.76698
G1 E-.8 F2100
G1 X124.623 Y168.826 F9000
G1 E.8 F2100
G1 F1800
G1 X113.889 Y179.56 E.76698
G1 E-.8 F2100
G1 X114.605 Y179.56 F9000
G1 E.8 F2100
G1 F1800
G1 X125.339 Y168.826 E.76698
G1 E-.8 F2100
G1 X126.055 Y168.826 F9000
G1 E.8 F2100
G1 F1800
G1 X115.321 Y179.56 E.76698
G1 E-.8 F2100
G1 X116.037 Y179.56 F9000
G1 E.8 F2100
G1 F1800
G1 X126.771 Y168.826 E.76698
G1 E-.8 F2100
G1 X127.487 Y168.826 F9000
M73 P12 R12
G1 E.8 F2100
G1 F1800
G1 X116.753 Y179.56 E.76698
G1 E-.8 F2100
G1 X117.469 Y179.56 F9000
G1 E.8 F2100
G1 F1800
G1 X128.204 Y168.826 E.76698
G1 E-.8 F2100
G1 X128.92 Y168.826 F9000
G1 E.8 F2100
G1 F1800
G1 X118.185 Y179.56 E.76698
G1 E-.8 F2100
G1 X118.901 Y179.56 F9000
G1 E.8 F2100
G1 F1800
G1 X129.636 Y168.826 E.76698
G1 E-.8 F2100
G1 X130.352 Y168.826 F9000
G1 E.8 F2100
G1 F1800
G1 X119.617 Y179.56 E.76698
G1 E-.8 F2100
G1 X120.334 Y179.56 F9000
G1 E.8 F2100
G1 F1800
G1 X131.068 Y168.826 E.76698
G1 E-.8 F2100
G1 X131.784 Y168.826 F9000
G1 E.8 F2100
G1 F1800
G1 X121.05 Y179.56 E.76698
G1 E-.8 F2100
G1 X121.766 Y179.56 F9000
G1 E.8 F2100
G1 F1800
G1 X132.5 Y168.826 E.76698
G1 E-.8 F2100
G1 X133.216 Y168.826 F9000
G1 E.8 F2100
G1 F1800
G1 X122.482 Y179.56 E.76698
G1 E-.8 F2100
G1 X123.198 Y179.56 F9000
G1 E.8 F2100
G1 F1800
G1 X133.932 Y168.826 E.76698
G1 E-.8 F2100
G1 X134.648 Y168.826 F9000
G1 E.8 F2100
G1 F1800
G1 X123.914 Y179.56 E.76698
G1 E-.8 F2100
G1 X124.63 Y179.56 F9000
G1 E.8 F2100
G1 F1800
G1 X135.364 Y168.826 E.76698
G1 E-.8 F2100
G1 X136.08 Y168.826 F9000
G1 E.8 F2100
G1 F1800
G1 X125.346 Y179.56 E.76698
G1 E-.8 F2100
G1 X126.062 Y179.56 F9000
M73 P13 R12
G1 E.8 F2100
G1 F1800
G1 X136.797 Y168.826 E.76698
G1 E-.8 F2100
G1 X137.513 Y168.826 F9000
G1 E.8 F2100
G1 F1800
G1 X126.778 Y179.56 E.76698
G1 E-.8 F2100
G1 X127.494 Y179.56 F9000
G1 E.8 F2100
G1 F1800
G1 X138.229 Y168.826 E.76698
G1 E-.8 F2100
G1 X138.945 Y168.826 F9000
G1 E.8 F2100
G1 F1800
G1 X128.211 Y179.56 E.76698
G1 E-.8 F2100
G1 X128.927 Y179.56 F9000
G1 E.8 F2100
G1 F1800
G1 X139.661 Y168.826 E.76698
G1 E-.8 F2100
G1 X140.377 Y168.826 F9000
G1 E.8 F2100
G1 F1800
G1 X129.643 Y179.56 E.76698
G1 E-.8 F2100
G1 X130.359 Y179.56 F9000
G1 E.8 F2100
G1 F1800
G1 X141.093 Y168.826 E.76698
G1 E-.8 F2100
G1 X141.809 Y168.826 F9000
G1 E.8 F2100
G1 F1800
G1 X131.075 Y179.56 E.76698
G1 E-.8 F2100
G1 X131.791 Y179.56 F9000
G1 E.8 F2100
G1 F1800
G1 X142.525 Y168.826 E.76698
G1 E-.8 F2100
G1 X143.241 Y168.826 F9000
G1 E.8 F2100
G1 F1800
G1 X132.507 Y179.56 E.76698
G1 E-.8 F2100
G1 X133.223 Y179.56 F9000
G1 E.8 F2100
G1 F1800
G1 X143.957 Y168.826 E.76698
G1 E-.8 F2100
G1 X144.673 Y168.826 F9000
G1 E.8 F2100
G1 F1800
G1 X133.939 Y179.56 E.76698
G1 E-.8 F2100
G1 X134.655 Y179.56 F9000
G1 E.8 F2100
G1 F1800
G1 X145.39 Y168.826 E.76698
G1 E-.8 F2100
M73 P14 R12
G1 X146.106 Y168.826 F9000
G1 E.8 F2100
G1 F1800
G1 X135.371 Y179.56 E.76698
G1 E-.8 F2100
G1 X136.087 Y179.56 F9000
G1 E.8 F2100
G1 F1800
G1 X146.822 Y168.826 E.76698
G1 E-.8 F2100
G1 X147.538 Y168.826 F9000
G1 E.8 F2100
G1 F1800
G1 X136.804 Y179.56 E.76698
G1 E-.8 F2100
G1 X137.52 Y179.56 F9000
G1 E.8 F2100
G1 F1800
G1 X148.254 Y168.826 E.76698
G1 E-.8 F2100
G1 X148.97 Y168.826 F9000
G1 E.8 F2100
G1 F1800
G1 X138.236 Y179.56 E.76698
G1 E-.8 F2100
G1 X138.952 Y179.56 F9000
G1 E.8 F2100
G1 F1800
G1 X149.686 Y168.826 E.76698
G1 E-.8 F2100
G1 X150.402 Y168.826 F9000
G1 E.8 F2100
G1 F1800
G1 X139.668 Y179.56 E.76698
G1 E-.8 F2100
G1 X140.384 Y179.56 F9000
G1 E.8 F2100
G1 F1800
G1 X151.118 Y168.826 E.76698
G1 E-.8 F2100
G1 X151.834 Y168.826 F9000
G1 E.8 F2100
G1 F1800
G1 X141.1 Y179.56 E.76698
G1 E-.8 F2100
G1 X141.816 Y179.56 F9000
G1 E.8 F2100
G1 F1800
G1 X152.55 Y168.826 E.76698
G1 E-.8 F2100
G1 X153.267 Y168.826 F9000
G1 E.8 F2100
G1 F1800
G1 X142.532 Y179.56 E.76698
G1 E-.8 F2100
G1 X143.248 Y179.56 F9000
G1 E.8 F2100
G1 F1800
G1 X153.983 Y168.826 E.76698
G1 E-.8 F2100
G1 X154.699 Y168.826 F9000
G1 E.8 F2100
G1 F1800
G1 X143.964 Y179.56 E.76698
M73 P15 R12
G1 E-.8 F2100
G1 X144.681 Y179.56 F9000
G1 E.8 F2100
G1 F1800
G1 X155.415 Y168.826 E.76698
G1 E-.8 F2100
G1 X156.131 Y168.826 F9000
G1 E.8 F2100
G1 F1800
G1 X145.397 Y179.56 E.76698
G1 E-.8 F2100
G1 X146.113 Y179.56 F9000
G1 E.8 F2100
G1 F1800
G1 X156.847 Y168.826 E.76698
G1 E-.8 F2100
G1 X157.563 Y168.826 F9000
G1 E.8 F2100
G1 F1800
G1 X146.829 Y179.56 E.76698
G1 E-.8 F2100
G1 X147.545 Y179.56 F9000
G1 E.8 F2100
G1 F1800
G1 X158.279 Y168.826 E.76698
G1 E-.8 F2100
G1 X158.995 Y168.826 F9000
G1 E.8 F2100
G1 F1800
G1 X148.261 Y179.56 E.76698
G1 E-.8 F2100
G1 X148.977 Y179.56 F9000
G1 E.8 F2100
G1 F1800
G1 X159.711 Y168.826 E.76698
G1 E-.8 F2100
G1 X160.427 Y168.826 F9000
G1 E.8 F2100
G1 F1800
G1 X149.693 Y179.56 E.76698
G1 E-.8 F2100
G1 X150.409 Y179.56 F9000
G1 E.8 F2100
G1 F1800
G1 X161.143 Y168.826 E.76698
G1 E-.8 F2100
G1 X161.86 Y168.826 F9000
G1 E.8 F2100
G1 F1800
G1 X151.125 Y179.56 E.76698
G1 E-.8 F2100
G1 X151.841 Y179.56 F9000
G1 E.8 F2100
G1 F1800
G1 X162.576 Y168.826 E.76698
G1 E-.8 F2100
G1 X163.292 Y168.826 F9000
G1 E.8 F2100
G1 F1800
G1 X152.557 Y179.56 E.76698
G1 E-.8 F2100
G1 X153.274 Y179.56 F9000
G1 E.8 F2100
G1 F1800
G1 X164.008 Y168.826 E.76698
M73 P16 R11
G1 E-.8 F2100
G1 X164.724 Y168.826 F9000
G1 E.8 F2100
G1 F1800
G1 X153.99 Y179.56 E.76698
G1 E-.8 F2100
G1 X154.706 Y179.56 F9000
G1 E.8 F2100
G1 F1800
G1 X165.44 Y168.826 E.76698
G1 E-.8 F2100
G1 X166.156 Y168.826 F9000
G1 E.8 F2100
G1 F1800
G1 X155.422 Y179.56 E.76698
G1 E-.8 F2100
G1 X156.138 Y179.56 F9000
G1 E.8 F2100
G1 F1800
G1 X166.872 Y168.826 E.76698
G1 E-.8 F2100
G1 X167.588 Y168.826 F9000
G1 E.8 F2100
G1 F1800
G1 X156.854 Y179.56 E.76698
G1 E-.8 F2100
G1 X157.57 Y179.56 F9000
G1 E.8 F2100
G1 F1800
G1 X168.304 Y168.826 E.76698
G1 E-.8 F2100
G1 X169.02 Y168.826 F9000
G1 E.8 F2100
G1 F1800
G1 X158.286 Y179.56 E.76698
G1 E-.8 F2100
G1 X159.002 Y179.56 F9000
G1 E.8 F2100
G1 F1800
G1 X169.737 Y168.826 E.76698
G1 E-.8 F2100
G1 X170.453 Y168.826 F9000
G1 E.8 F2100
G1 F1800
G1 X159.718 Y179.56 E.76698
G1 E-.8 F2100
G1 X160.434 Y179.56 F9000
G1 E.8 F2100
G1 F1800
G1 X171.169 Y168.826 E.76698
G1 E-.8 F2100
G1 X171.885 Y168.826 F9000
G1 E.8 F2100
G1 F1800
G1 X161.15 Y179.56 E.76698
G1 E-.8 F2100
G1 X161.867 Y179.56 F9000
G1 E.8 F2100
G1 F1800
G1 X172.601 Y168.826 E.76698
G1 E-.8 F2100
G1 X173.317 Y168.826 F9000
G1 E.8 F2100
G1 F1800
G1 X162.583 Y179.56 E.76698
M73 P17 R11
G1 E-.8 F2100
G1 X163.299 Y179.56 F9000
G1 E.8 F2100
G1 F1800
G1 X174.033 Y168.826 E.76698
G1 E-.8 F2100
G1 X174.749 Y168.826 F9000
G1 E.8 F2100
G1 F1800
G1 X164.015 Y179.56 E.76698
G1 E-.8 F2100
G1 X164.731 Y179.56 F9000
G1 E.8 F2100
G1 F1800
G1 X175.465 Y168.826 E.76698
G1 E-.8 F2100
G1 X176.181 Y168.826 F9000
G1 E.8 F2100
G1 F1800
G1 X165.447 Y179.56 E.76698
G1 E-.8 F2100
G1 X166.163 Y179.56 F9000
G1 E.8 F2100
G1 F1800
G1 X176.897 Y168.826 E.76698
G1 E-.8 F2100
G1 X177.613 Y168.826 F9000
G1 E.8 F2100
G1 F1800
G1 X166.879 Y179.56 E.76698
G1 E-.8 F2100
G1 X167.595 Y179.56 F9000
G1 E.8 F2100
G1 F1800
G1 X178.33 Y168.826 E.76698
G1 E-.8 F2100
G1 X179.046 Y168.826 F9000
G1 E.8 F2100
G1 F1800
G1 X168.311 Y179.56 E.76698
G1 E-.8 F2100
G1 X169.027 Y179.56 F9000
G1 E.8 F2100
G1 F1800
G1 X179.762 Y168.826 E.76698
G1 E-.8 F2100
G1 X180.478 Y168.826 F9000
G1 E.8 F2100
G1 F1800
G1 X169.744 Y179.56 E.76698
G1 E-.8 F2100
G1 X170.46 Y179.56 F9000
G1 E.8 F2100
G1 F1800
G1 X181.194 Y168.826 E.76698
G1 E-.8 F2100
G1 X181.91 Y168.826 F9000
G1 E.8 F2100
G1 F1800
G1 X171.176 Y179.56 E.76698
G1 E-.8 F2100
G1 X171.892 Y179.56 F9000
G1 E.8 F2100
G1 F1800
G1 X182.626 Y168.826 E.76698
M73 P18 R11
G1 E-.8 F2100
G1 X183.342 Y168.826 F9000
G1 E.8 F2100
G1 F1800
G1 X172.608 Y179.56 E.76698
G1 E-.8 F2100
G1 X173.324 Y179.56 F9000
G1 E.8 F2100
G1 F1800
G1 X184.058 Y168.826 E.76698
G1 E-.8 F2100
G1 X184.774 Y168.826 F9000
G1 E.8 F2100
G1 F1800
G1 X174.04 Y179.56 E.76698
G1 E-.8 F2100
G1 X174.756 Y179.56 F9000
G1 E.8 F2100
G1 F1800
G1 X185.49 Y168.826 E.76698
G1 E-.8 F2100
G1 X186.207 Y168.826 F9000
