; HEADER_BLOCK_START
; generated by OrcaSlicer 1.8.1 on 2023-12-18 at 14:28:35
; total layer number: 2
; HEADER_BLOCK_END

; THUMBNAIL_BLOCK_START

;
; THUMBNAIL_BLOCK_END

; external perimeters extrusion width = 0.40mm
; perimeters extrusion width = 0.45mm
; infill extrusion width = 0.45mm
; solid infill extrusion width = 0.50mm
; top infill extrusion width = 0.40mm
; first layer extrusion width = 0.50mm

; EXECUTABLE_BLOCK_START
EXCLUDE_OBJECT_DEFINE NAME=Body7_id_0_copy_0 CENTER=149.984,149.994 POLYGON=[[21.0815,249.559],[250.859,5.78226],[278.887,32.2008],[275.288,40.9615],[271.545,49.6621],[267.66,58.3001],[263.634,66.8734],[259.468,75.3794],[255.163,83.8161],[250.72,92.1811],[246.141,100.472],[241.427,108.687],[236.579,116.824],[231.598,124.88],[226.486,132.853],[221.243,140.741],[215.873,148.543],[210.375,156.255],[204.751,163.876],[199.003,171.404],[193.133,178.837],[187.141,186.173],[181.03,193.409],[174.802,200.545],[168.457,207.577],[161.998,214.504],[155.426,221.325],[148.743,228.037],[141.952,234.638],[135.053,241.128],[128.048,247.503],[120.94,253.763],[113.73,259.905],[106.421,265.929],[99.0139,271.832],[91.5111,277.612],[83.9145,283.269],[76.2262,288.801],[68.4484,294.206],[21.0815,249.559]]
M73 P0 R23
;TYPE:Custom
; Initial setups

START_PRINT EXTRUDER_TEMP=205 BED_TEMP=70

;G90 ; use absolute coordinates
;M83 ; extruder relative mode
;M220 S100 ; reset speed factor to 100%
;M221 S100 ; reset extrusion rate to 100%

; Set the heating
;M190 S70 ; wait for bed to heat up
;M104 S205 ; start nozzle heating but don't wait

; Home
;G1 Z3 F3000 ; move z up little to prevent scratching of surface
;G28 ; home all axes
;G1 X3 Y3 F5000 ; move to corner of the bed to avoid ooze over centre

; Wait for final heating
;M109 S205 ; wait for the nozzle to heat up
;M190 S70 ; wait for the bed to heat up

; Return to prime position, Prime line routine
G92 E0 ; Reset Extruder
G1 Z3 F3000 ; move z up little to prevent scratching of surface
G1 X10 Y3 Z0.25 F5000.0 ; Move to start position
G1 X100 Y3 Z0.25 F1500.0 E15 ; Draw the first line
G1 X100 Y3.2 Z0.25 F5000.0 ; Move to side a little
G1 X10 Y3.2 Z0.25 F1500.0 E30 ; Draw the second line
G92 E0 ; Reset Extruder
;M221 S95
G90
G21
M83 ; use relative distances for extrusion
; filament start gcode
SET_PRESSURE_ADVANCE ADVANCE=0.105; Override pressure advance value
M106 S0
;LAYER_CHANGE
;Z:0.25
;HEIGHT:0.25
;BEFORE_LAYER_CHANGE
G92 E0
;0.25


G1 E-.8 F2100
;AFTER_LAYER_CHANGE
;0.25
;_SET_FAN_SPEED_CHANGING_LAYER
G1 Z.4 F9000
G1 X133.62 Y125.947
G1 Z.4
G1 Z.25
G1 E.8 F2100
SET_VELOCITY_LIMIT ACCEL=500 ACCEL_TO_DECEL=250
;TYPE:Skirt
;WIDTH:0.5
G1 F3000
G1 X248.754 Y3.798 E7.47586
G1 X250.039 Y3.008 E.06716
G1 X251.546 Y2.972 E.06716
G1 X252.843 Y3.677 E.06574
G1 X280.871 Y30.096 E1.7154
G1 X281.661 Y31.38 E.06716
G1 X281.563 Y33.3 E.08561
G1 X277.945 Y42.105 E.42394
G1 X274.183 Y50.849 E.42394
M73 P1 R23
G1 X270.298 Y59.487 E.42183
G1 X266.232 Y68.146 E.42605
G1 X262.066 Y76.652 E.42183
G1 X257.74 Y85.131 E.42394
G1 X253.275 Y93.538 E.42394
G1 X248.65 Y101.912 E.42605
G1 X243.936 Y110.127 E.42183
G1 X239.064 Y118.304 E.42394
G1 X234.033 Y126.441 E.42605
G1 X228.921 Y134.414 E.42183
G1 X223.653 Y142.342 E.42394
G1 X218.228 Y150.222 E.42605
G1 X212.73 Y157.934 E.42183
G1 X207.078 Y165.594 E.42394
G1 X201.273 Y173.197 E.42605
G1 X195.373 Y180.667 E.42394
G1 X189.382 Y188.003 E.42183
G1 X183.24 Y195.276 E.42394
G1 X176.981 Y202.447 E.42394
G1 X170.573 Y209.55 E.42605
G1 X164.081 Y216.511 E.42394
G1 X157.509 Y223.332 E.42183
G1 X150.76 Y230.111 E.42605
G1 X143.934 Y236.746 E.42394
G1 X137 Y243.267 E.42394
G1 X129.96 Y249.674 E.42394
G1 X122.816 Y255.965 E.42394
G1 X115.57 Y262.138 E.42394
G1 X108.261 Y268.161 E.42183
G1 X100.817 Y274.094 E.42394
G1 X93.277 Y279.904 E.42394
G1 X85.642 Y285.589 E.42394
G1 X77.877 Y291.177 E.42606
G1 X70.099 Y296.581 E.42183
G1 X68.679 Y297.089 E.06716
G1 X67.197 Y296.814 E.06716
G1 X66.464 Y296.311 E.03956
G1 X19.097 Y251.664 E2.89899
G1 X18.308 Y250.38 E.06716
G1 X18.272 Y248.872 E.06716
G1 X18.976 Y247.575 E.06574
G1 X133.593 Y125.976 E7.44223
M73 P1 R22
G1 X133.918 Y126.282 F9000
G1 F3000
G1 X249.079 Y4.104 E7.47764
M73 P2 R22
G1 X250.275 Y3.407 E.06167
G1 X251.658 Y3.47 E.06167
G1 X252.537 Y4.002 E.04576
G1 X280.565 Y30.421 E1.7154
G1 X281.263 Y31.617 E.06167
G1 X281.15 Y33.131 E.06761
G1 X277.535 Y41.928 E.42362
G1 X273.776 Y50.666 E.42362
G1 X269.891 Y59.304 E.42183
G1 X265.831 Y67.949 E.4254
G1 X261.665 Y76.455 E.42183
G1 X257.342 Y84.928 E.42362
G1 X252.881 Y93.329 E.42362
G1 X248.263 Y101.69 E.4254
G1 X243.549 Y109.905 E.42183
G1 X238.68 Y118.076 E.42362
G1 X233.657 Y126.2 E.4254
G1 X228.523 Y134.207 E.42361
G1 X223.281 Y142.095 E.42183
G1 X217.865 Y149.963 E.4254
G1 X212.343 Y157.708 E.42362
G1 X206.695 Y165.361 E.42362
G1 X200.947 Y172.889 E.42183
G1 X195.052 Y180.354 E.42362
G1 X189.01 Y187.751 E.4254
G1 X182.873 Y195.018 E.42362
G1 X176.645 Y202.153 E.42183
G1 X170.273 Y209.216 E.42362
G1 X163.787 Y216.173 E.42361
G1 X157.16 Y223.051 E.4254
G1 X150.449 Y229.791 E.42361
G1 X143.657 Y236.393 E.42183
G1 X136.729 Y242.91 E.42362
G1 X129.695 Y249.312 E.42362
G1 X122.527 Y255.625 E.4254
G1 X115.286 Y261.793 E.42362
G1 X107.946 Y267.842 E.42361
G1 X100.539 Y273.745 E.42183
G1 X93.004 Y279.55 E.42362
G1 X85.376 Y285.231 E.42362
G1 X77.655 Y290.787 E.42362
G1 X69.844 Y296.215 E.42361
G1 X68.53 Y296.651 E.06167
G1 X66.77 Y295.986 E.08378
G1 X19.404 Y251.339 E2.89899
G1 X18.706 Y250.143 E.06167
G1 X18.769 Y248.76 E.06167
G1 X19.301 Y247.881 E.04576
G1 X133.89 Y126.311 E7.44045
; printing object Body7 id:0 copy 0
G1 E-.8 F2100
EXCLUDE_OBJECT_START NAME=Body7_id_0_copy_0
G1 Z.65 F9000
G1 X70.879 Y268.164 Z.65
M73 P3 R22
G1 Z.25
G1 E.8 F2100
;TYPE:Inner wall
;WIDTH:0.499999
G1 F2700
G1 X71.031 Y268.089 E.00754
G1 X78.519 Y262.541 E.41506
G1 X85.91 Y256.871 E.4149
G1 X93.206 Y251.078 E.4149
G1 X100.404 Y245.164 E.4149
G1 X107.517 Y239.119 E.41573
G1 X114.513 Y232.968 E.4149
G1 X121.406 Y226.701 E.4149
G1 X128.193 Y220.32 E.4149
G1 X134.87 Y213.829 E.41472
G1 X141.443 Y207.223 E.41505
G1 X147.632 Y200.791 E.39754
G1 X154.248 Y193.691 E.43222
G1 X160.48 Y186.766 E.41488
G1 X166.595 Y179.739 E.41489
G1 X172.591 Y172.61 E.41488
G1 X178.458 Y165.395 E.41417
G1 X184.224 Y158.057 E.41559
G1 X189.856 Y150.637 E.41488
G1 X195.364 Y143.125 E.41488
G1 X200.746 Y135.521 E.41488
G1 X205.992 Y127.84 E.41426
G1 X211.124 Y120.049 E.41551
G1 X216.118 Y112.186 E.41489
G1 X220.981 Y104.24 E.41489
G1 X225.71 Y96.214 E.41488
G1 X230.304 Y88.11 E.41489
G1 X234.762 Y79.931 E.41488
G1 X239.078 Y71.688 E.41436
G1 X243.267 Y63.354 E.41541
G1 X247.31 Y54.962 E.41488
G1 X251.213 Y46.504 E.41488
G1 X254.977 Y37.973 E.41526
G1 X255.05 Y37.745 E.01069
G1 X255.061 Y37.363 E.01701
G1 X254.954 Y37.024 E.01583
G1 X254.722 Y36.711 E.01736
G1 X238.071 Y21.016 E1.0191
G1 X250.907 Y7.398 E.83349
G1 X277.532 Y32.493 E1.62951
G1 X274.817 Y39.099 E.31808
G1 X274.234 Y40.519 E.06833
G1 X270.499 Y49.202 E.421
G1 X266.621 Y57.823 E.42099
G1 X262.603 Y66.379 E.421
G1 X258.446 Y74.868 E.421
G1 X254.149 Y83.288 E.42099
G1 X249.716 Y91.637 E.421
G1 X245.146 Y99.911 E.42099
G1 X240.441 Y108.11 E.421
G1 X235.602 Y116.231 E.42099
G1 X230.631 Y124.271 E.421
G1 X225.529 Y132.228 E.42099
G1 X220.297 Y140.101 E.421
G1 X214.937 Y147.887 E.421
G1 X209.449 Y155.584 E.421
G1 X203.837 Y163.19 E.421
G1 X198.101 Y170.703 E.42099
G1 X192.242 Y178.122 E.421
G1 X186.262 Y185.443 E.42099
M73 P4 R22
G1 X180.163 Y192.665 E.421
G1 X173.947 Y199.786 E.421
G1 X167.615 Y206.805 E.42099
G1 X161.169 Y213.718 E.421
G1 X154.61 Y220.525 E.421
G1 X147.94 Y227.224 E.42099
G1 X141.162 Y233.813 E.421
G1 X134.276 Y240.289 E.421
G1 X127.286 Y246.652 E.42099
G1 X120.192 Y252.899 E.421
G1 X112.996 Y259.03 E.421
G1 X105.702 Y265.041 E.421
G1 X98.309 Y270.932 E.421
G1 X90.821 Y276.702 E.42099
G1 X83.24 Y282.347 E.421
G1 X75.566 Y287.868 E.421
G1 X68.558 Y292.739 E.38012
G1 X22.697 Y249.511 E2.80681
G1 X35.533 Y235.893 E.83349
G1 X69.601 Y268.005 E2.08506
G1 X69.892 Y268.202 E.01565
G1 X70.292 Y268.306 E.01842
G1 X70.669 Y268.267 E.01689
G1 X70.843 Y268.181 E.00862
G1 X70.678 Y267.77 F9000
G1 F2700
G1 X70.765 Y267.731 E.00428
G1 X78.253 Y262.182 E.41506
G1 X85.639 Y256.517 E.41457
G1 X92.937 Y250.721 E.41507
G1 X100.121 Y244.819 E.41407
G1 X107.214 Y238.791 E.41457
G1 X114.213 Y232.638 E.41507
G1 X121.1 Y226.376 E.41457
G1 X127.882 Y220 E.41457
G1 X134.555 Y213.513 E.41446
G1 X141.122 Y206.913 E.41466
G1 X147.311 Y200.481 E.39753
G1 X153.917 Y193.392 E.43158
G1 X160.143 Y186.473 E.41456
G1 X166.253 Y179.451 E.41456
G1 X172.246 Y172.328 E.41456
G1 X178.112 Y165.113 E.41413
G1 X183.869 Y157.787 E.41499
G1 X189.497 Y150.372 E.41456
G1 X195 Y142.866 E.41456
G1 X200.378 Y135.268 E.41456
G1 X205.628 Y127.581 E.41456
G1 X210.748 Y119.808 E.41455
G1 X215.735 Y111.958 E.4142
G1 X220.597 Y104.011 E.41492
G1 X225.323 Y95.992 E.41456
G1 X229.913 Y87.894 E.41456
G1 X234.368 Y79.721 E.41456
G1 X238.683 Y71.481 E.41425
G1 X242.866 Y63.158 E.41487
G1 X246.908 Y54.768 E.41476
G1 X250.806 Y46.321 E.41435
G1 X254.569 Y37.793 E.41512
G1 X254.625 Y37.562 E.01058
G1 X254.573 Y37.263 E.01351
G1 X254.415 Y37.036 E.01234
G1 X237.44 Y21.035 E1.03898
G1 X250.888 Y6.767 E.87325
M73 P5 R22
G1 X278.061 Y32.379 E1.66306
G1 X275.23 Y39.269 E.33175
G1 X274.646 Y40.692 E.06849
G1 X270.907 Y49.382 E.42133
G1 X267.027 Y58.009 E.42132
G1 X263.006 Y66.572 E.42132
G1 X258.845 Y75.068 E.42132
G1 X254.545 Y83.494 E.42132
G1 X250.108 Y91.85 E.42133
G1 X245.535 Y100.13 E.42131
G1 X240.826 Y108.336 E.42133
G1 X235.984 Y116.462 E.42132
G1 X231.009 Y124.509 E.42133
G1 X225.903 Y132.472 E.42132
G1 X220.667 Y140.351 E.42132
G1 X215.302 Y148.143 E.42133
G1 X209.811 Y155.846 E.42132
G1 X204.194 Y163.458 E.42132
G1 X198.453 Y170.977 E.42132
G1 X192.59 Y178.401 E.42133
G1 X186.606 Y185.728 E.42132
G1 X180.502 Y192.956 E.42132
G1 X174.281 Y200.082 E.42132
G1 X167.944 Y207.106 E.42132
G1 X161.492 Y214.025 E.42133
G1 X154.929 Y220.838 E.42132
G1 X148.254 Y227.542 E.42132
G1 X141.47 Y234.135 E.42133
G1 X134.58 Y240.617 E.42132
G1 X127.584 Y246.984 E.42132
G1 X120.484 Y253.237 E.42133
G1 X113.283 Y259.372 E.42132
G1 X105.983 Y265.388 E.42132
G1 X98.584 Y271.284 E.42133
G1 X91.091 Y277.057 E.42131
G1 X83.503 Y282.707 E.42132
G1 X75.824 Y288.232 E.42133
G1 X68.515 Y293.312 E.39641
G1 X22.066 Y249.53 E2.84282
G1 X35.515 Y235.262 E.87325
G1 X69.907 Y267.68 E2.10494
G1 X69.948 Y267.715 E.00238
G1 X70.226 Y267.847 E.01373
G1 X70.502 Y267.848 E.0123
G1 X70.641 Y267.786 E.00677
G1 X70.497 Y267.374 F9000
SET_VELOCITY_LIMIT ACCEL=700 ACCEL_TO_DECEL=350
;TYPE:Outer wall
G1 F2700
G1 X77.987 Y261.824 E.4152
G1 X85.367 Y256.162 E.41424
G1 X92.651 Y250.379 E.41424
G1 X99.838 Y244.474 E.41423
G1 X106.925 Y238.451 E.41424
G1 X113.91 Y232.31 E.41424
G1 X120.792 Y226.053 E.41423
G1 X127.571 Y219.68 E.4144
G1 X134.24 Y213.197 E.4142
M73 P6 R21
G1 X140.8 Y206.603 E.41426
G1 X147.249 Y199.901 E.41423
G1 X153.585 Y193.093 E.41423
G1 X159.807 Y186.179 E.41423
G1 X165.912 Y179.163 E.41423
G1 X171.9 Y172.045 E.41423
G1 X177.768 Y164.829 E.41423
G1 X183.514 Y157.516 E.41424
G1 X189.138 Y150.107 E.41423
G1 X194.637 Y142.606 E.41423
G1 X200.01 Y135.015 E.41423
G1 X205.256 Y127.334 E.41424
G1 X210.373 Y119.567 E.41423
G1 X215.359 Y111.716 E.41423
G1 X220.214 Y103.783 E.41424
G1 X224.935 Y95.769 E.41423
G1 X229.523 Y87.678 E.41423
G1 X233.974 Y79.512 E.41423
G1 X238.289 Y71.272 E.41424
G1 X242.465 Y62.962 E.41423
G1 X246.502 Y54.583 E.41423
G1 X250.398 Y46.139 E.41413
G1 X254.16 Y37.613 E.41507
G1 X254.179 Y37.521 E.0042
G1 X254.109 Y37.361 E.00778
G1 X236.809 Y21.053 E1.05885
G1 X250.87 Y6.136 E.91301
G1 X278.591 Y32.265 E1.69661
G1 X275.643 Y39.439 E.34543
G1 X275.057 Y40.865 E.06865
G1 X271.316 Y49.561 E.42165
G1 X267.433 Y58.196 E.42164
G1 X263.408 Y66.765 E.42165
G1 X259.244 Y75.268 E.42165
G1 X254.941 Y83.701 E.42164
G1 X250.501 Y92.062 E.42166
G1 X245.924 Y100.349 E.42164
G1 X241.211 Y108.561 E.42165
G1 X236.365 Y116.694 E.42164
G1 X231.386 Y124.746 E.42165
G1 X226.276 Y132.716 E.42164
G1 X221.036 Y140.601 E.42165
G1 X215.668 Y148.399 E.42165
G1 X210.172 Y156.108 E.42165
G1 X204.551 Y163.726 E.42165
G1 X198.806 Y171.251 E.42164
G1 X192.938 Y178.681 E.42165
G1 X186.949 Y186.013 E.42164
G1 X180.841 Y193.246 E.42165
G1 X174.615 Y200.379 E.42165
G1 X168.273 Y207.408 E.42164
G1 X161.816 Y214.332 E.42165
G1 X155.247 Y221.15 E.42165
G1 X148.568 Y227.859 E.42164
G1 X141.779 Y234.458 E.42165
G1 X134.883 Y240.944 E.42165
G1 X127.881 Y247.317 E.42164
G1 X120.776 Y253.574 E.42165
G1 X113.57 Y259.714 E.42165
G1 X106.264 Y265.735 E.42165
G1 X98.86 Y271.635 E.42165
G1 X91.36 Y277.413 E.42164
G1 X83.767 Y283.068 E.42165
G1 X76.082 Y288.597 E.42165
M73 P7 R21
G1 X68.472 Y293.885 E.4127
G1 X21.435 Y249.549 E2.87882
G1 X35.496 Y234.631 E.91301
G1 X70.214 Y267.355 E2.12482
G1 X70.336 Y267.414 E.00604
G1 X70.458 Y267.383 E.00561
G1 E-.8 F2100
G1 Z.65 F9000
G1 X252.97 Y28.867 Z.65
G1 Z.25
G1 E.8 F2100
SET_VELOCITY_LIMIT ACCEL=500 ACCEL_TO_DECEL=250
;TYPE:Inner wall
G1 F2700
G1 X252.147 Y29.052 E.03755
G1 X251.165 Y29.098 E.04378
G1 X250.19 Y28.973 E.04378
G1 X249.252 Y28.68 E.04378
G1 X248.379 Y28.229 E.04378
G1 X247.597 Y27.633 E.04378
G1 X246.93 Y26.911 E.04378
G1 X246.4 Y26.083 E.04378
G1 X246.02 Y25.176 E.04378
G1 X245.805 Y24.217 E.04378
G1 X245.759 Y23.235 E.04378
G1 X245.884 Y22.26 E.04378
G1 X246.177 Y21.322 E.04378
G1 X246.628 Y20.448 E.04378
G1 X247.224 Y19.667 E.04378
G1 X247.946 Y19 E.04378
G1 X248.774 Y18.47 E.04378
G1 X249.681 Y18.09 E.04378
G1 X250.64 Y17.875 E.04378
G1 X251.216 Y17.841 E.02569
G1 X251.816 Y17.84 E.02673
G1 X252.597 Y17.954 E.03514
G1 X253.535 Y18.247 E.04378
G1 X254.408 Y18.698 E.04378
G1 X255.19 Y19.294 E.04378
G1 X255.857 Y20.016 E.04378
G1 X256.387 Y20.844 E.04378
G1 X256.766 Y21.751 E.04378
G1 X256.982 Y22.71 E.04378
G1 X257.028 Y23.692 E.04378
G1 X256.903 Y24.667 E.04378
G1 X256.61 Y25.605 E.04378
G1 X256.159 Y26.478 E.04378
G1 X255.563 Y27.26 E.04378
G1 X254.845 Y27.922 E.0435
G1 X254.013 Y28.457 E.04406
G1 X253.106 Y28.836 E.04378
G1 X253.009 Y28.858 E.00445
G1 X252.87 Y28.437 F9000
G1 F2700
G1 X252.057 Y28.615 E.03709
G1 X251.152 Y28.652 E.04032
G1 X250.255 Y28.531 E.04032
G1 X249.392 Y28.257 E.04032
G1 X248.59 Y27.836 E.04032
G1 X247.873 Y27.283 E.04032
G1 X247.264 Y26.614 E.04032
G1 X246.779 Y25.849 E.04032
G1 X246.435 Y25.011 E.04032
G1 X246.242 Y24.127 E.04032
G1 X246.205 Y23.222 E.04032
G1 X246.326 Y22.325 E.04032
G1 X246.6 Y21.462 E.04033
G1 X247.021 Y20.66 E.04032
G1 X247.574 Y19.943 E.04032
G1 X248.243 Y19.334 E.04032
G1 X249.008 Y18.849 E.04032
G1 X249.846 Y18.505 E.04032
G1 X250.73 Y18.312 E.04032
G1 X251.635 Y18.275 E.04033
G1 X252.532 Y18.396 E.04032
G1 X253.395 Y18.67 E.04032
G1 X254.197 Y19.091 E.04032
G1 X254.914 Y19.644 E.04032
G1 X255.523 Y20.313 E.04032
G1 X256.008 Y21.078 E.04032
G1 X256.352 Y21.916 E.04032
G1 X256.545 Y22.8 E.04032
G1 X256.582 Y23.705 E.04032
G1 X256.461 Y24.602 E.04032
G1 X256.187 Y25.465 E.04032
G1 X255.766 Y26.267 E.04032
G1 X255.213 Y26.984 E.04032
G1 X254.548 Y27.589 E.04004
G1 X253.779 Y28.078 E.0406
G1 X252.941 Y28.422 E.04033
G1 X252.909 Y28.429 E.00145
G1 X252.776 Y28.007 F9000
SET_VELOCITY_LIMIT ACCEL=700 ACCEL_TO_DECEL=350
;TYPE:Outer wall
G1 F2700
G1 X251.966 Y28.178 E.03687
G1 X251.139 Y28.206 E.03687
G1 X250.319 Y28.09 E.03687
G1 X249.532 Y27.833 E.03687
G1 X248.802 Y27.443 E.03687
G1 X248.15 Y26.933 E.03687
G1 X247.597 Y26.317 E.03687
G1 X247.159 Y25.614 E.03687
G1 X246.85 Y24.846 E.03687
G1 X246.679 Y24.036 E.03687
G1 X246.651 Y23.209 E.03687
G1 X246.767 Y22.389 E.03687
G1 X247.024 Y21.602 E.03687
G1 X247.414 Y20.872 E.03687
G1 X247.924 Y20.22 E.03687
G1 X248.54 Y19.667 E.03687
G1 X249.243 Y19.229 E.03687
G1 X250.011 Y18.92 E.03687
G1 X250.821 Y18.749 E.03687
G1 X251.648 Y18.721 E.03687
G1 X252.468 Y18.837 E.03687
G1 X253.255 Y19.094 E.03687
G1 X253.985 Y19.484 E.03687
G1 X254.637 Y19.994 E.03687
G1 X255.19 Y20.61 E.03687
G1 X255.628 Y21.313 E.03687
G1 X255.937 Y22.081 E.03687
G1 X256.108 Y22.891 E.03687
