; HEADER_BLOCK_START
; generated by OrcaSlicer 1.8.1 on 2023-12-18 at 13:46:20
; total layer number: 2
; HEADER_BLOCK_END

; THUMBNAIL_BLOCK_START

;
; THUMBNAIL_BLOCK_END

; external perimeters extrusion width = 0.40mm
; perimeters extrusion width = 0.45mm
; infill extrusion width = 0.45mm
; solid infill extrusion width = 0.50mm
; top infill extrusion width = 0.40mm
; first layer extrusion width = 0.50mm

; EXECUTABLE_BLOCK_START
EXCLUDE_OBJECT_DEFINE NAME=Body7_id_0_copy_0 CENTER=149.99,149.996 POLYGON=[[14.1411,259.451],[16.0187,257.331],[229.156,16.7029],[233.289,12.0369],[233.289,12.0369],[285.838,58.5826],[281.163,66.6722],[276.358,74.6851],[271.424,82.6193],[266.362,90.4727],[261.174,98.2431],[255.86,105.929],[250.424,113.527],[244.865,121.037],[239.185,128.456],[233.386,135.782],[227.47,143.013],[221.437,150.148],[215.29,157.184],[209.029,164.12],[202.658,170.953],[196.177,177.683],[189.587,184.307],[182.892,190.824],[176.092,197.231],[169.189,203.528],[162.185,209.712],[155.082,215.783],[147.882,221.737],[140.587,227.574],[133.198,233.293],[125.718,238.891],[118.148,244.368],[110.49,249.722],[102.747,254.951],[94.9207,260.054],[87.0126,265.029],[79.0251,269.877],[70.9602,274.594],[62.8201,279.181],[54.6069,283.635],[46.3227,287.956],[14.1411,259.451]]
M73 P0 R23
;TYPE:Custom
; Initial setups

START_PRINT EXTRUDER_TEMP=205 BED_TEMP=70

;G90 ; use absolute coordinates
;M83 ; extruder relative mode
;M220 S100 ; reset speed factor to 100%
;M221 S100 ; reset extrusion rate to 100%

; Set the heating
;M190 S70 ; wait for bed to heat up
;M104 S205 ; start nozzle heating but don't wait

; Home
;G1 Z3 F3000 ; move z up little to prevent scratching of surface
;G28 ; home all axes
;G1 X3 Y3 F5000 ; move to corner of the bed to avoid ooze over centre

; Wait for final heating
;M109 S205 ; wait for the nozzle to heat up
;M190 S70 ; wait for the bed to heat up

; Return to prime position, Prime line routine
G92 E0 ; Reset Extruder
G1 Z3 F3000 ; move z up little to prevent scratching of surface
G1 X10 Y3 Z0.25 F5000.0 ; Move to start position
G1 X100 Y3 Z0.25 F1500.0 E15 ; Draw the first line
G1 X100 Y3.2 Z0.25 F5000.0 ; Move to side a little
G1 X10 Y3.2 Z0.25 F1500.0 E30 ; Draw the second line
G92 E0 ; Reset Extruder
;M221 S95
G90
G21
M83 ; use relative distances for extrusion
; filament start gcode
SET_PRESSURE_ADVANCE ADVANCE=0.105; Override pressure advance value
M106 S0
;LAYER_CHANGE
;Z:0.25
;HEIGHT:0.25
;BEFORE_LAYER_CHANGE
G92 E0
;0.25


G1 E-.8 F2100
;AFTER_LAYER_CHANGE
;0.25
;_SET_FAN_SPEED_CHANGING_LAYER
G1 Z.4 F9000
G1 X134.201 Y118.869
G1 Z.4
G1 Z.25
G1 E.8 F2100
SET_VELOCITY_LIMIT ACCEL=500 ACCEL_TO_DECEL=250
;TYPE:Skirt
;WIDTH:0.5
G1 F3000
G1 X230.789 Y9.823 E6.48777
G1 X232.127 Y8.906 E.07224
G1 X233.74 Y8.728 E.07224
G1 X235.503 Y9.537 E.08638
G1 X288.052 Y56.083 E3.12646
G1 X288.969 Y57.421 E.07224
G1 X289.146 Y59.034 E.07224
G1 X288.729 Y60.253 E.05741
G1 X284.054 Y68.343 E.41612
M73 P1 R23
G1 X279.221 Y76.402 E.41852
G1 X274.23 Y84.428 E.42093
G1 X269.139 Y92.327 E.41853
G1 X263.92 Y100.142 E.41853
G1 X258.576 Y107.872 E.41853
G1 X253.108 Y115.514 E.41853
G1 X247.516 Y123.067 E.41853
G1 X241.803 Y130.528 E.41852
G1 X235.971 Y137.896 E.41853
G1 X230.02 Y145.169 E.41853
G1 X223.952 Y152.345 E.41853
G1 X217.768 Y159.421 E.41852
G1 X211.472 Y166.397 E.41853
G1 X205.063 Y173.27 E.41852
G1 X198.544 Y180.038 E.41853
G1 X191.916 Y186.7 E.41852
G1 X185.182 Y193.254 E.41853
G1 X178.342 Y199.698 E.41853
G1 X171.399 Y206.031 E.41853
G1 X164.354 Y212.251 E.41852
G1 X157.21 Y218.356 E.41853
G1 X149.968 Y224.344 E.41853
G1 X142.631 Y230.215 E.41853
G1 X135.199 Y235.966 E.41853
G1 X127.675 Y241.597 E.41852
G1 X120.061 Y247.105 E.41853
G1 X112.404 Y252.458 E.41612
G1 X104.616 Y257.718 E.41853
G1 X96.744 Y262.851 E.41853
G1 X88.791 Y267.856 E.41852
G1 X80.711 Y272.759 E.42093
G1 X72.646 Y277.476 E.41612
G1 X64.459 Y282.09 E.41853
G1 X56.151 Y286.596 E.42093
G1 X47.867 Y290.916 E.41612
G1 X46.29 Y291.295 E.07224
G1 X44.109 Y290.455 E.10407
G1 X11.927 Y261.95 E1.91467
G1 X11.01 Y260.612 E.07224
G1 X10.833 Y259 E.07224
G1 X11.642 Y257.237 E.08638
G1 X134.175 Y118.899 E8.23051
G1 X134.509 Y119.195 F9000
G1 F3000
G1 X231.123 Y10.119 E6.48955
M73 P2 R22
G1 X232.383 Y9.29 E.06716
G1 X233.889 Y9.207 E.06716
G1 X235.207 Y9.872 E.06574
G1 X287.756 Y56.417 E3.12646
G1 X288.585 Y57.677 E.06716
G1 X288.668 Y59.183 E.06716
G1 X288.342 Y60.03 E.04043
G1 X283.644 Y68.16 E.41821
G1 X278.814 Y76.213 E.4182
G1 X273.855 Y84.186 E.41821
G1 X268.768 Y92.079 E.4182
G1 X263.553 Y99.888 E.4182
G1 X258.213 Y107.612 E.41821
G1 X252.749 Y115.248 E.4182
G1 X247.162 Y122.795 E.41821
G1 X241.453 Y130.251 E.4182
G1 X235.625 Y137.614 E.4182
G1 X229.679 Y144.881 E.41821
G1 X223.615 Y152.051 E.41821
G1 X217.437 Y159.122 E.4182
G1 X211.145 Y166.092 E.41821
G1 X204.741 Y172.96 E.4182
G1 X198.227 Y179.723 E.41821
G1 X191.605 Y186.38 E.4182
G1 X184.875 Y192.929 E.4182
G1 X178.041 Y199.369 E.4182
G1 X171.103 Y205.697 E.41821
G1 X164.064 Y211.911 E.4182
G1 X156.926 Y218.012 E.41821
G1 X149.69 Y223.996 E.4182
G1 X142.357 Y229.862 E.4182
G1 X134.931 Y235.609 E.41821
G1 X127.413 Y241.235 E.4182
G1 X119.805 Y246.739 E.41821
G1 X112.109 Y252.119 E.4182
G1 X104.327 Y257.374 E.4182
G1 X96.461 Y262.502 E.41821
G1 X88.553 Y267.478 E.41612
G1 X80.526 Y272.35 E.41821
G1 X72.421 Y277.091 E.4182
G1 X64.199 Y281.724 E.42029
G1 X55.945 Y286.2 E.4182
G1 X47.66 Y290.521 E.41612
G1 X46.188 Y290.845 E.06716
G1 X44.405 Y290.121 E.08571
G1 X12.223 Y261.616 E1.91467
G1 X11.394 Y260.357 E.06716
G1 X11.311 Y258.851 E.06716
G1 X11.976 Y257.533 E.06574
G1 X134.482 Y119.225 E8.22873
G1 X134.816 Y119.521 F9000
G1 F3000
G1 X231.457 Y10.415 E6.49134
M73 P3 R22
G1 X232.631 Y9.681 E.06167
G1 X234.016 Y9.701 E.06167
G1 X234.911 Y10.206 E.04576
G1 X287.46 Y56.751 E3.12646
G1 X288.194 Y57.925 E.06167
G1 X287.956 Y59.807 E.08447
G1 X283.261 Y67.93 E.41788
G1 X278.435 Y75.977 E.41788
G1 X273.48 Y83.945 E.41789
G1 X268.418 Y91.798 E.41612
G1 X263.208 Y99.602 E.41788
G1 X257.873 Y107.32 E.41788
G1 X252.413 Y114.951 E.41788
G1 X246.831 Y122.493 E.41789
G1 X241.128 Y129.943 E.41788
G1 X235.305 Y137.3 E.41788
G1 X229.363 Y144.562 E.41789
G1 X223.305 Y151.727 E.41788
G1 X217.132 Y158.793 E.41788
G1 X210.845 Y165.759 E.41789
G1 X204.447 Y172.622 E.41788
G1 X197.939 Y179.38 E.41789
G1 X191.322 Y186.033 E.41788
G1 X184.598 Y192.577 E.41788
G1 X177.769 Y199.012 E.41788
G1 X170.837 Y205.336 E.41789
G1 X163.804 Y211.546 E.41788
G1 X156.672 Y217.642 E.41788
G1 X149.441 Y223.622 E.41788
G1 X142.115 Y229.485 E.41788
G1 X134.695 Y235.228 E.41789
G1 X127.152 Y240.873 E.41964
G1 X119.549 Y246.373 E.41789
G1 X111.859 Y251.749 E.41788
G1 X104.083 Y257 E.41788
G1 X96.257 Y262.103 E.41612
G1 X88.315 Y267.1 E.41788
G1 X80.294 Y271.968 E.41789
G1 X72.161 Y276.726 E.41964
G1 X63.986 Y281.331 E.41788
G1 X55.773 Y285.785 E.41612
G1 X47.454 Y290.125 E.41789
G1 X46.095 Y290.392 E.06167
G1 X44.701 Y289.787 E.0677
G1 X12.519 Y261.282 E1.91467
G1 X11.785 Y260.108 E.06167
G1 X11.805 Y258.724 E.06167
G1 X12.31 Y257.829 E.04576
G1 X134.79 Y119.551 E8.22695
; printing object Body7 id:0 copy 0
M73 P4 R22
G1 E-.8 F2100
EXCLUDE_OBJECT_START NAME=Body7_id_0_copy_0
G1 Z.65 F9000
G1 X260.415 Y63.513 Z.65
G1 Z.25
G1 E.8 F2100
;TYPE:Inner wall
;WIDTH:0.499999
G1 F2700
G1 X260.491 Y63.354 E.00787
G1 X260.575 Y62.917 E.0198
G1 X260.538 Y62.493 E.019
G1 X260.364 Y62.055 E.02098
G1 X260.051 Y61.672 E.02203
G1 X221.608 Y27.621 E2.28719
G1 X233.424 Y14.28 E.79373
G1 X283.813 Y58.911 E2.99787
G1 X279.793 Y65.866 E.35774
G1 X275.002 Y73.857 E.41497
G1 X270.119 Y81.708 E.41177
G1 X265.033 Y89.601 E.41818
G1 X259.859 Y97.35 E.41498
G1 X254.561 Y105.015 E.41498
G1 X249.139 Y112.592 E.41497
G1 X243.595 Y120.081 E.41497
G1 X237.931 Y127.48 E.41498
G1 X232.148 Y134.785 E.41497
G1 X226.248 Y141.997 E.41499
G1 X220.232 Y149.112 E.41496
G1 X214.101 Y156.129 E.41499
G1 X207.859 Y163.045 E.41497
G1 X201.504 Y169.86 E.41498
G1 X195.041 Y176.572 E.41498
G1 X188.47 Y183.177 E.41497
G1 X181.793 Y189.676 E.41498
G1 X175.011 Y196.066 E.41498
G1 X168.127 Y202.346 E.41497
G1 X161.143 Y208.513 E.41498
G1 X154.06 Y214.566 E.41498
G1 X146.879 Y220.504 E.41498
G1 X139.604 Y226.326 E.41497
G1 X132.236 Y232.029 E.41498
G1 X124.776 Y237.611 E.41497
G1 X117.227 Y243.073 E.41498
G1 X109.59 Y248.412 E.41498
G1 X101.869 Y253.626 E.41497
G1 X94.063 Y258.716 E.41498
G1 X86.177 Y263.678 E.41497
G1 X78.212 Y268.512 E.41498
G1 X70.169 Y273.216 E.41498
G1 X62.051 Y277.79 E.41497
G1 X53.861 Y282.232 E.41498
M73 P5 R22
G1 X46.558 Y286.041 E.36684
G1 X16.384 Y259.315 E1.79518
G1 X27.927 Y246.283 E.77534
G1 X47.241 Y263.39 E1.14907
G1 X48.115 Y264.145 E.05144
G1 X48.422 Y264.305 E.0154
G1 X48.85 Y264.404 E.0196
G1 X49.281 Y264.381 E.01921
G1 X49.741 Y264.214 E.02177
G1 X57.777 Y259.763 E.40913
G1 X65.745 Y255.178 E.40945
G1 X73.637 Y250.462 E.40944
G1 X81.45 Y245.617 E.40945
G1 X89.182 Y240.644 E.40944
G1 X96.831 Y235.544 E.40945
G1 X104.396 Y230.319 E.40944
G1 X111.873 Y224.97 E.40944
G1 X119.281 Y219.483 E.41059
G1 X126.578 Y213.891 E.40944
G1 X133.782 Y208.179 E.40944
G1 X140.89 Y202.349 E.40944
G1 X147.902 Y196.403 E.40945
G1 X154.815 Y190.342 E.40944
G1 X161.627 Y184.169 E.40945
G1 X168.336 Y177.884 E.40944
G1 X174.923 Y171.507 E.4083
G1 X181.44 Y164.987 E.41059
G1 X187.831 Y158.378 E.40944
G1 X194.112 Y151.665 E.40945
G1 X200.282 Y144.85 E.40944
G1 X206.322 Y137.953 E.4083
G1 X211.491 Y131.853 E.35608
G1 X212.281 Y130.919 E.0545
G1 X218.107 Y123.807 E.40945
G1 X223.815 Y116.6 E.40945
G1 X229.404 Y109.301 E.40942
G1 X234.769 Y102.048 E.4018
G1 X240.216 Y94.431 E.41704
G1 X245.437 Y86.864 E.40943
G1 X250.533 Y79.213 E.40943
G1 X255.502 Y71.479 E.40942
G1 X260.343 Y63.664 E.40942
G1 X260.397 Y63.549 E.00566
G1 X260.04 Y63.243 F9000
G1 F2700
G1 X260.123 Y62.974 E.01255
G1 X260.102 Y62.592 E.01701
G1 X259.979 Y62.279 E.01498
G1 X259.755 Y62.006 E.01574
G1 X220.978 Y27.659 E2.30707
G1 X233.386 Y13.65 E.83349
G1 X284.382 Y58.819 E3.03399
G1 X280.178 Y66.093 E.37414
G1 X275.383 Y74.089 E.41529
G1 X270.498 Y81.944 E.41193
G1 X265.406 Y89.846 E.41867
G1 X260.228 Y97.601 E.4153
G1 X254.926 Y105.271 E.4153
G1 X249.5 Y112.855 E.4153
G1 X243.952 Y120.35 E.41529
G1 X238.283 Y127.754 E.41531
M73 P6 R22
G1 X232.496 Y135.065 E.41529
G1 X226.591 Y142.282 E.41531
G1 X220.571 Y149.403 E.41529
G1 X214.435 Y156.425 E.41531
G1 X208.187 Y163.347 E.41529
G1 X201.828 Y170.167 E.4153
G1 X195.36 Y176.884 E.4153
G1 X188.784 Y183.495 E.41529
G1 X182.101 Y189.999 E.4153
G1 X175.315 Y196.394 E.4153
G1 X168.426 Y202.678 E.41529
G1 X161.436 Y208.85 E.4153
G1 X154.347 Y214.908 E.4153
G1 X147.161 Y220.851 E.4153
G1 X139.88 Y226.676 E.4153
G1 X132.506 Y232.384 E.4153
G1 X125.04 Y237.971 E.4153
G1 X117.485 Y243.437 E.4153
G1 X109.843 Y248.78 E.4153
M73 P6 R21
G1 X102.115 Y253.998 E.41529
G1 X94.304 Y259.091 E.4153
G1 X86.412 Y264.057 E.41529
G1 X78.44 Y268.895 E.4153
G1 X70.391 Y273.603 E.4153
G1 X62.267 Y278.181 E.41529
G1 X54.07 Y282.626 E.4153
G1 X46.492 Y286.579 E.38068
G1 X15.754 Y259.353 E1.82875
G1 X27.889 Y245.653 E.8151
G1 X48.244 Y263.682 E1.21103
G1 X48.456 Y263.83 E.01149
G1 X48.812 Y263.95 E.01676
G1 X49.196 Y263.943 E.0171
G1 X49.525 Y263.823 E.01555
G1 X57.561 Y259.373 E.40913
G1 X65.523 Y254.791 E.40912
G1 X73.424 Y250.07 E.40993
G1 X81.215 Y245.238 E.4083
G1 X88.941 Y240.268 E.40911
G1 X96.599 Y235.162 E.40994
G1 X104.157 Y229.941 E.40912
G1 X111.628 Y224.596 E.40912
G1 X119.01 Y219.129 E.40912
G1 X126.301 Y213.541 E.40911
G1 X133.499 Y207.834 E.40912
G1 X140.601 Y202.009 E.40912
G1 X147.608 Y196.067 E.40912
G1 X154.515 Y190.012 E.40911
G1 X161.322 Y183.843 E.40912
G1 X168.026 Y177.563 E.40911
G1 X174.612 Y171.186 E.4083
G1 X181.119 Y164.676 E.40994
G1 X187.505 Y158.073 E.40911
G1 X193.782 Y151.366 E.40912
G1 X199.947 Y144.556 E.40911
G1 X205.987 Y137.659 E.4083
G1 X211.15 Y131.564 E.35576
G1 X211.936 Y130.636 E.05418
G1 X217.757 Y123.53 E.40912
G1 X223.461 Y116.329 E.40912
G1 X228.538 Y109.698 E.37194
G1 X229.045 Y109.035 E.03716
G1 X234.508 Y101.651 E.40911
G1 X239.849 Y94.177 E.4091
G1 X244.784 Y87.025 E.38699
G1 X250.157 Y78.971 E.43122
G1 X255.123 Y71.243 E.4091
M73 P7 R21
G1 X259.963 Y63.429 E.40938
G1 X260.004 Y63.358 E.00366
G1 X260.028 Y63.281 E.00357
G1 X259.614 Y63.099 F9000
G1 F2700
G1 X259.684 Y62.874 E.01048
G1 X259.638 Y62.597 E.01251
G1 X259.459 Y62.34 E.01395
G1 X220.347 Y27.697 E2.32695
G1 X233.348 Y13.02 E.87325
G1 X284.95 Y58.727 E3.07011
G1 X280.563 Y66.319 E.39054
G1 X275.763 Y74.322 E.41561
G1 X270.877 Y82.18 E.41209
G1 X265.779 Y90.091 E.41915
G1 X260.598 Y97.852 E.41562
G1 X255.291 Y105.528 E.41562
G1 X249.861 Y113.118 E.41562
G1 X244.309 Y120.618 E.41562
G1 X238.636 Y128.028 E.41563
G1 X232.844 Y135.345 E.41561
G1 X226.934 Y142.568 E.41563
G1 X220.909 Y149.694 E.41561
G1 X214.769 Y156.722 E.41563
G1 X208.516 Y163.649 E.41561
G1 X202.152 Y170.475 E.41562
G1 X195.679 Y177.196 E.41562
G1 X189.098 Y183.812 E.41561
G1 X182.41 Y190.321 E.41562
G1 X175.618 Y196.721 E.41563
G1 X168.724 Y203.01 E.41561
G1 X161.728 Y209.187 E.41562
G1 X154.634 Y215.25 E.41562
G1 X147.443 Y221.197 E.41562
G1 X140.156 Y227.027 E.41562
G1 X132.776 Y232.739 E.41562
G1 X125.305 Y238.331 E.41562
G1 X117.744 Y243.801 E.41562
G1 X110.096 Y249.148 E.41562
G1 X102.362 Y254.37 E.41561
G1 X94.545 Y259.467 E.41563
G1 X86.647 Y264.437 E.41561
G1 X78.669 Y269.279 E.41562
G1 X70.613 Y273.99 E.41562
G1 X62.483 Y278.571 E.41562
G1 X54.28 Y283.02 E.41562
G1 X46.426 Y287.117 E.39453
G1 X15.124 Y259.391 E1.86231
G1 X27.851 Y245.023 E.85486
G1 X48.54 Y263.348 E1.23091
G1 X48.714 Y263.46 E.00919
G1 X49.01 Y263.516 E.01343
G1 X49.308 Y263.433 E.01379
G1 X57.349 Y258.98 E.40935
G1 X65.3 Y254.404 E.40857
G1 X73.183 Y249.694 E.40899
M73 P8 R21
G1 X80.98 Y244.858 E.40859
G1 X88.708 Y239.887 E.40928
G1 X96.336 Y234.801 E.4083
G1 X103.888 Y229.584 E.40879
G1 X111.362 Y224.237 E.40928
G1 X118.729 Y218.781 E.4083
G1 X126.023 Y213.191 E.40928
G1 X133.207 Y207.495 E.4083
G1 X140.313 Y201.668 E.40928
G1 X147.313 Y195.732 E.40879
G1 X154.215 Y189.681 E.40879
G1 X161.016 Y183.517 E.40879
G1 X167.715 Y177.242 E.40879
G1 X174.302 Y170.866 E.4083
G1 X180.799 Y164.366 E.40928
G1 X187.172 Y157.776 E.40829
G1 X193.451 Y151.066 E.40928
G1 X199.611 Y144.262 E.40879
G1 X205.651 Y137.365 E.4083
G1 X210.809 Y131.276 E.35543
G1 X211.591 Y130.353 E.05385
G1 X217.407 Y123.253 E.40879
G1 X223.106 Y116.057 E.40879
G1 X228.183 Y109.426 E.37194
G1 X228.686 Y108.77 E.03684
G1 X234.145 Y101.391 E.40879
G1 X239.481 Y93.923 E.40878
G1 X244.416 Y86.772 E.38697
G1 X249.782 Y78.729 E.43059
G1 X254.744 Y71.008 E.40878
G1 X259.584 Y63.194 E.40935
G1 X259.602 Y63.137 E.00267
G1 X259.205 Y62.959 F9000
SET_VELOCITY_LIMIT ACCEL=700 ACCEL_TO_DECEL=350
;TYPE:Outer wall
G1 F2700
G1 X259.237 Y62.822 E.00627
G1 X259.163 Y62.674 E.00736
G1 X219.717 Y27.736 E2.34683
G1 X233.31 Y12.39 E.91301
G1 X285.519 Y58.634 E3.10623
G1 X280.947 Y66.545 E.40694
G1 X276.144 Y74.555 E.41593
G1 X271.256 Y82.415 E.41225
G1 X266.153 Y90.336 E.41963
G1 X260.967 Y98.103 E.41594
G1 X255.656 Y105.785 E.41594
G1 X250.222 Y113.38 E.41594
G1 X244.665 Y120.887 E.41594
G1 X238.988 Y128.302 E.41595
G1 X233.192 Y135.625 E.41593
G1 X227.278 Y142.853 E.41595
G1 X221.248 Y149.985 E.41593
G1 X215.103 Y157.018 E.41595
G1 X208.845 Y163.951 E.41593
G1 X202.476 Y170.782 E.41595
G1 X195.998 Y177.508 E.41594
G1 X189.411 Y184.13 E.41594
G1 X182.719 Y190.643 E.41594
G1 X175.922 Y197.048 E.41595
G1 X169.022 Y203.342 E.41594
G1 X162.021 Y209.524 E.41594
G1 X154.921 Y215.591 E.41594
G1 X147.724 Y221.543 E.41594
M73 P9 R21
G1 X140.432 Y227.378 E.41594
G1 X133.047 Y233.094 E.41594
G1 X125.57 Y238.69 E.41594
G1 X118.003 Y244.164 E.41594
G1 X110.349 Y249.516 E.41594
G1 X102.609 Y254.742 E.41594
G1 X94.786 Y259.843 E.41595
G1 X86.881 Y264.817 E.41594
G1 X78.897 Y269.662 E.41594
G1 X70.836 Y274.378 E.41594
G1 X62.699 Y278.962 E.41594
G1 X54.49 Y283.414 E.41594
G1 X46.36 Y287.655 E.40837
G1 X14.494 Y259.43 E1.89587
G1 X27.813 Y244.393 E.89462
G1 X48.129 Y262.388 E1.20871
G1 X48.919 Y263.061 E.04623
