; HEADER_BLOCK_START
; generated by OrcaSlicer 1.8.1 on 2023-12-16 at 15:42:58
; total layer number: 100
; HEADER_BLOCK_END

; THUMBNAIL_BLOCK_START

;
; THUMBNAIL_BLOCK_END

; external perimeters extrusion width = 0.70mm
; perimeters extrusion width = 0.45mm
; infill extrusion width = 0.45mm
; solid infill extrusion width = 0.50mm
; top infill extrusion width = 0.40mm
; first layer extrusion width = 0.50mm

; EXECUTABLE_BLOCK_START
EXCLUDE_OBJECT_DEFINE NAME=SpeedTestStructure.step_id_0_copy_0 CENTER=150,150 POLYGON=[[60.001,120],[60.003,119.668],[60.007,119.514],[60.013,119.324],[60.0231,119.032],[60.045,118.634],[60.061,118.434],[60.0791,118.222],[60.091,118.086],[60.1331,117.684],[60.145,117.588],[60.179,117.324],[60.1911,117.232],[60.213,117.084],[60.227,116.992],[60.2451,116.876],[60.285,116.632],[60.3831,116.102],[60.471,115.684],[60.483,115.63],[60.581,115.214],[60.595,115.158],[60.7031,114.744],[60.7171,114.692],[60.835,114.28],[60.979,113.818],[61.1331,113.36],[61.319,112.856],[61.477,112.456],[61.685,111.962],[61.8851,111.52],[62.071,111.134],[62.291,110.704],[62.521,110.278],[62.761,109.86],[62.789,109.812],[63.011,109.448],[63.041,109.4],[63.271,109.038],[63.3011,108.992],[63.571,108.592],[63.819,108.242],[64.109,107.856],[64.143,107.812],[64.4411,107.432],[64.713,107.102],[65.031,106.736],[65.067,106.696],[65.393,106.338],[65.727,105.99],[66.071,105.648],[66.421,105.316],[66.737,105.03],[66.779,104.992],[67.103,104.712],[67.477,104.406],[67.5211,104.37],[67.8571,104.108],[67.901,104.074],[68.2431,103.818],[68.639,103.54],[68.685,103.508],[69.039,103.27],[69.085,103.24],[69.4931,102.98],[69.861,102.76],[69.9091,102.732],[70.279,102.52],[70.7051,102.29],[70.755,102.264],[71.1351,102.07],[71.571,101.862],[72.013,101.664],[72.063,101.642],[72.457,101.476],[72.907,101.3],[72.959,101.28],[73.361,101.132],[73.819,100.978],[74.281,100.834],[74.335,100.818],[74.7991,100.686],[75.2151,100.58],[75.685,100.47],[76.1591,100.372],[76.6331,100.284],[77.111,100.21],[77.165,100.202],[77.589,100.144],[77.643,100.138],[78.069,100.092],[78.553,100.052],[79.033,100.022],[79.089,100.02],[79.571,100.004],[80.001,100],[230.039,100],[230.345,100.006],[230.691,100.022],[231.035,100.054],[231.071,100.058],[231.377,100.094],[231.717,100.146],[232.057,100.214],[232.095,100.222],[232.393,100.288],[232.765,100.388],[233.057,100.478],[233.095,100.49],[233.385,100.588],[233.743,100.726],[234.025,100.846],[234.061,100.862],[234.339,100.988],[234.647,101.146],[234.681,101.164],[234.949,101.31],[234.983,101.33],[235.247,101.486],[235.537,101.672],[235.821,101.868],[235.855,101.892],[236.099,102.074],[236.399,102.314],[236.631,102.514],[236.885,102.748],[236.913,102.774],[237.131,102.99],[237.159,103.018],[237.397,103.268],[237.599,103.498],[237.817,103.764],[237.843,103.796],[238.053,104.068],[238.229,104.318],[238.421,104.606],[238.443,104.64],[238.603,104.9],[238.773,105.2],[238.935,105.504],[239.083,105.818],[239.099,105.852],[239.221,106.132],[239.237,106.17],[239.351,106.452],[239.467,106.778],[239.571,107.106],[239.583,107.144],[239.677,107.478],[239.749,107.774],[239.827,108.15],[239.881,108.452],[239.927,108.792],[239.963,109.136],[239.987,109.48],[239.989,109.52],[239.999,109.826],[239.999,190.172],[239.987,190.516],[239.985,190.556],[239.963,190.86],[239.959,190.9],[239.923,191.244],[239.881,191.546],[239.819,191.886],[239.811,191.926],[239.749,192.226],[239.741,192.262],[239.655,192.598],[239.571,192.892],[239.467,193.222],[239.351,193.544],[239.337,193.582],[239.207,193.902],[239.083,194.182],[238.935,194.492],[238.773,194.798],[238.603,195.098],[238.583,195.132],[238.421,195.392],[238.229,195.68],[238.053,195.928],[238.029,195.96],[237.843,196.204],[237.599,196.5],[237.397,196.728],[237.343,196.786],[237.131,197.01],[236.885,197.252],[236.661,197.458],[236.631,197.484],[236.369,197.708],[236.129,197.9],[236.099,197.924],[235.855,198.106],[235.571,198.304],[235.537,198.326],[235.279,198.492],[235.247,198.512],[234.983,198.668],[234.949,198.688],[234.681,198.836],[234.647,198.854],[234.375,198.992],[234.061,199.138],[234.025,199.154],[233.705,199.288],[233.421,199.396],[233.095,199.508],[233.057,199.52],[232.727,199.62],[232.431,199.698],[232.393,199.708],[232.057,199.786],[231.755,199.844],[231.415,199.898],[231.377,199.904],[231.071,199.942],[231.035,199.946],[230.691,199.974],[230.385,199.992],[230.345,199.994],[230.001,200],[79.989,200],[79.517,199.994],[79.461,199.992],[78.979,199.972],[78.553,199.946],[78.497,199.942],[78.069,199.906],[77.589,199.854],[77.111,199.79],[77.057,199.782],[76.6331,199.714],[76.5791,199.704],[76.1591,199.626],[75.685,199.526],[75.6311,199.514],[75.2151,199.418],[75.1591,199.404],[74.7451,199.296],[74.281,199.164],[74.229,199.148],[73.819,199.02],[73.361,198.864],[73.309,198.846],[72.907,198.7],[72.457,198.522],[72.407,198.502],[72.013,198.334],[71.963,198.312],[71.571,198.136],[71.1351,197.928],[70.7051,197.708],[70.279,197.478],[70.2311,197.452],[69.861,197.238],[69.813,197.21],[69.401,196.96],[69.039,196.728],[68.9931,196.698],[68.639,196.46],[68.2431,196.18],[67.813,195.858],[67.433,195.558],[67.103,195.286],[66.737,194.97],[66.339,194.606],[66.031,194.312],[65.991,194.272],[65.6491,193.93],[65.3551,193.62],[65.317,193.578],[64.993,193.22],[64.713,192.896],[64.407,192.524],[64.3711,192.48],[64.109,192.142],[64.075,192.098],[63.819,191.754],[63.541,191.36],[63.5091,191.314],[63.271,190.96],[63.011,190.552],[62.9811,190.504],[62.761,190.14],[62.733,190.092],[62.521,189.718],[62.291,189.294],[62.265,189.246],[62.071,188.862],[61.863,188.426],[61.665,187.986],[61.643,187.934],[61.477,187.54],[61.3011,187.09],[61.281,187.038],[61.1331,186.636],[60.979,186.18],[60.835,185.718],[60.819,185.666],[60.687,185.2],[60.581,184.786],[60.471,184.314],[60.373,183.842],[60.363,183.788],[60.285,183.366],[60.269,183.268],[60.215,182.936],[60.173,182.628],[60.145,182.41],[60.1331,182.31],[60.0931,181.928],[60.073,181.708],[60.047,181.378],[60.043,181.314],[60.0231,180.966],[60.007,180.482],[60.005,180.412],[60.001,180.202],[60.001,120]]
M73 P0 R39
;TYPE:Custom
; Initial setups

START_PRINT EXTRUDER_TEMP=205 BED_TEMP=70

;G90 ; use absolute coordinates
;M83 ; extruder relative mode
;M220 S100 ; reset speed factor to 100%
;M221 S100 ; reset extrusion rate to 100%

; Set the heating
;M190 S70 ; wait for bed to heat up
;M104 S205 ; start nozzle heating but don't wait

; Home
;G1 Z3 F3000 ; move z up little to prevent scratching of surface
;G28 ; home all axes
;G1 X3 Y3 F5000 ; move to corner of the bed to avoid ooze over centre

; Wait for final heating
;M109 S205 ; wait for the nozzle to heat up
;M190 S70 ; wait for the bed to heat up

; Return to prime position, Prime line routine
G92 E0 ; Reset Extruder
G1 Z3 F3000 ; move z up little to prevent scratching of surface
G1 X10 Y3 Z0.25 F5000.0 ; Move to start position
G1 X100 Y3 Z0.25 F1500.0 E15 ; Draw the first line
G1 X100 Y3.2 Z0.25 F5000.0 ; Move to side a little
G1 X10 Y3.2 Z0.25 F1500.0 E30 ; Draw the second line
G92 E0 ; Reset Extruder
;M221 S95
G90
G21
M83 ; use relative distances for extrusion
; filament start gcode
M106 S0
;LAYER_CHANGE
;Z:0.32
;HEIGHT:0.32
;BEFORE_LAYER_CHANGE
G92 E0
;0.32


M73 P0 R38
G1 Z.32 F9000
;AFTER_LAYER_CHANGE
;0.32
;_SET_FAN_SPEED_CHANGING_LAYER
G1 E-.8 F2100
G1 X63.783 Y97.658 F9000
G1 E.8 F2100
SET_VELOCITY_LIMIT ACCEL=500 ACCEL_TO_DECEL=250
;TYPE:Skirt
;WIDTH:0.5
G1 F3000
G1 X66.427 Y95.961 E.17666
G1 X67.927 Y95.173 E.09533
G1 X69.605 Y94.425 E.10328
G1 X72.657 Y93.387 E.18131
G1 X74.178 Y93.014 E.08806
G1 X76.011 Y92.683 E.10473
G1 X77.475 Y92.508 E.08295
G1 X79.351 Y92.401 E.10564
G1 X230.206 Y92.396 E8.48355
G1 X231.434 Y92.451 E.06916
G1 X233.24 Y92.693 E.10245
G1 X234.679 Y93.026 E.08306
G1 X236.175 Y93.511 E.08845
G1 X237.68 Y94.156 E.09208
G1 X239.101 Y94.927 E.09088
G1 X240.583 Y95.929 E.10065
G1 X241.823 Y96.954 E.09044
G1 X242.974 Y98.098 E.09129
G1 X244.017 Y99.346 E.09146
G1 X244.9 Y100.619 E.08713
G1 X245.713 Y102.055 E.09278
G1 X246.381 Y103.545 E.09179
G1 X246.867 Y104.96 E.08418
G1 X247.358 Y107.048 E.12061
G1 X247.571 Y108.894 E.10449
G1 X247.606 Y189.826 E4.55133
G1 X247.538 Y191.555 E.09733
G1 X247.211 Y193.702 E.12213
G1 X246.8 Y195.259 E.09055
G1 X246.016 Y197.311 E.12355
G1 X245.033 Y199.162 E.11784
G1 X244.018 Y200.651 E.10136
G1 X242.547 Y202.349 E.12632
G1 X240.712 Y203.97 E.13771
G1 X238.741 Y205.281 E.13309
G1 X236.715 Y206.274 E.12688
G1 X234.598 Y206.993 E.12576
G1 X232.45 Y207.433 E.12329
G1 X230.076 Y207.607 E.13384
G1 X80.001 Y207.607 E8.4397
G1 X78.138 Y207.542 E.10484
G1 X76.539 Y207.388 E.09032
G1 X74.778 Y207.107 E.10028
G1 X73.267 Y206.771 E.08706
G1 X71.338 Y206.211 E.11298
G1 X69.668 Y205.6 E.09998
G1 X67.895 Y204.811 E.10913
G1 X65.027 Y203.191 E.18528
G1 X63.783 Y202.341 E.08469
G1 X62.339 Y201.217 E.10291
G1 X61.139 Y200.157 E.09002
G1 X59.878 Y198.9 E.10016
G1 X58.833 Y197.722 E.08853
G1 X57.746 Y196.335 E.0991
G1 X56.215 Y194.014 E.1564
G1 X55.261 Y192.25 E.11275
G1 X54.498 Y190.565 E.10401
G1 X53.549 Y187.902 E.15897
G1 X52.79 Y184.662 E.18715
G1 X52.427 Y181.345 E.18766
G1 X52.394 Y120 E3.44982
G1 X52.532 Y117.236 E.15564
G1 X53.066 Y113.943 E.18757
G1 X53.507 Y112.238 E.09905
G1 X54.009 Y110.692 E.09144
G1 X55.315 Y107.637 E.18686
G1 X56.898 Y104.886 E.17843
G1 X57.758 Y103.645 E.0849
G1 X58.911 Y102.184 E.1047
G1 X61.176 Y99.808 E.18463
G1 X62.339 Y98.782 E.08722
G1 X63.751 Y97.682 E.10064
G1 X64.016 Y98.022 F9000
G1 F3000
G1 X64.027 Y98.013 E.00083
G1 X66.65 Y96.33 E.17521
G1 X68.104 Y95.566 E.09238
G1 X69.758 Y94.828 E.10185
G1 X72.776 Y93.802 E.17927
G1 X74.261 Y93.437 E.08598
G1 X76.077 Y93.109 E.10381
G1 X77.506 Y92.938 E.08094
G1 X79.365 Y92.832 E.10472
G1 X230.189 Y92.827 E8.48176
M73 P1 R38
G1 X231.389 Y92.88 E.06758
G1 X233.151 Y93.115 E.09997
G1 X234.571 Y93.443 E.08191
G1 X236.014 Y93.911 E.08533
G1 X237.501 Y94.548 E.09095
G1 X238.883 Y95.3 E.0885
G1 X240.333 Y96.28 E.0984
G1 X241.525 Y97.267 E.08705
G1 X242.662 Y98.396 E.0901
G1 X243.68 Y99.615 E.08932
G1 X244.532 Y100.844 E.08411
G1 X245.324 Y102.241 E.09031
G1 X245.983 Y103.712 E.09067
G1 X246.45 Y105.07 E.08075
G1 X246.934 Y107.131 E.11901
G1 X247.142 Y108.931 E.10193
G1 X247.175 Y189.826 E4.54923
G1 X247.108 Y191.523 E.09551
G1 X246.787 Y193.623 E.11946
G1 X246.392 Y195.119 E.08699
G1 X245.626 Y197.127 E.12091
G1 X244.672 Y198.927 E.11456
G1 X243.68 Y200.382 E.09902
G1 X242.248 Y202.038 E.12308
G1 X240.461 Y203.619 E.13424
G1 X238.517 Y204.912 E.13129
G1 X236.539 Y205.88 E.1238
G1 X234.497 Y206.574 E.12131
G1 X232.378 Y207.008 E.1216
G1 X230.076 Y207.175 E.1298
G1 X80.001 Y207.176 E8.4397
G1 X78.159 Y207.111 E.10363
G1 X76.602 Y206.962 E.088
G1 X74.856 Y206.683 E.09942
G1 X73.38 Y206.355 E.08501
G1 X71.481 Y205.804 E.11124
G1 X69.826 Y205.198 E.0991
G1 X68.076 Y204.419 E.10769
G1 X65.25 Y202.821 E.1826
G1 X64.028 Y201.986 E.08325
G1 X62.606 Y200.877 E.10141
G1 X61.437 Y199.845 E.08768
G1 X60.187 Y198.598 E.09929
G1 X59.167 Y197.449 E.08641
G1 X58.089 Y196.074 E.09828
G1 X56.589 Y193.8 E.1532
G1 X55.643 Y192.049 E.11187
G1 X54.891 Y190.389 E.10253
G1 X53.96 Y187.77 E.15629
G1 X53.484 Y185.951 E.10576
G1 X53.191 Y184.445 E.08624
G1 X52.857 Y181.314 E.17709
G1 X52.825 Y120 E3.44808
G1 X52.96 Y117.284 E.15294
G1 X53.485 Y114.043 E.18464
G1 X53.923 Y112.352 E.09824
G1 X54.412 Y110.845 E.08906
G1 X55.697 Y107.837 E.18394
G1 X57.264 Y105.114 E.17669
G1 X58.1 Y103.908 E.0825
G1 X59.244 Y102.457 E.10391
G1 X61.478 Y100.116 E.18196
G1 X62.605 Y99.121 E.08458
G1 X63.984 Y98.046 E.09832
G1 X64.259 Y98.379 F9000
G1 F3000
G1 X64.272 Y98.368 E.00099
G1 X66.873 Y96.699 E.17377
G1 X68.281 Y95.96 E.08943
G1 X69.911 Y95.231 E.10041
G1 X72.895 Y94.216 E.17724
G1 X74.344 Y93.86 E.08391
G1 X76.144 Y93.535 E.10288
G1 X79.38 Y93.263 E.18263
G1 X230.172 Y93.258 E8.47998
G1 X231.344 Y93.309 E.06599
G1 X233.063 Y93.537 E.09748
G1 X234.462 Y93.86 E.08075
G1 X235.853 Y94.311 E.08222
G1 X237.321 Y94.94 E.08982
G1 X238.666 Y95.672 E.08612
G1 X240.082 Y96.631 E.09615
G1 X241.228 Y97.579 E.08366
G1 X242.35 Y98.693 E.0889
G1 X243.342 Y99.884 E.08718
G1 X244.164 Y101.069 E.08109
G1 X244.935 Y102.427 E.08783
G1 X245.586 Y103.88 E.08956
G1 X246.033 Y105.181 E.07732
G1 X246.511 Y107.213 E.11741
G1 X246.712 Y108.969 E.09937
G1 X246.744 Y189.826 E4.54712
G1 X246.677 Y191.491 E.0937
G1 X246.363 Y193.544 E.1168
G1 X245.984 Y194.978 E.08343
G1 X245.236 Y196.944 E.11828
G1 X244.31 Y198.692 E.11128
G1 X243.343 Y200.114 E.09668
G1 X241.95 Y201.726 E.11984
G1 X240.209 Y203.269 E.13078
G1 X238.292 Y204.544 E.12949
G1 X236.363 Y205.486 E.12072
G1 X234.396 Y206.155 E.11686
G1 X232.307 Y206.583 E.11991
G1 X230.076 Y206.744 E.12575
G1 X80.001 Y206.745 E8.4397
G1 X78.181 Y206.68 E.10242
G1 X76.664 Y206.535 E.08568
G1 X74.934 Y206.258 E.09855
G1 X73.493 Y205.939 E.08297
G1 X71.623 Y205.397 E.10949
G1 X69.983 Y204.796 E.09823
G1 X68.257 Y204.028 E.10624
G1 X65.473 Y202.452 E.17992
G1 X64.152 Y201.542 E.09022
G1 X62.758 Y200.443 E.0998
G1 X60.495 Y198.297 E.1754
G1 X58.432 Y195.812 E.18165
G1 X56.963 Y193.585 E.14999
G1 X56.025 Y191.849 E.11098
G1 X55.285 Y190.212 E.10105
G1 X54.339 Y187.532 E.15982
G1 X53.618 Y184.383 E.18168
G1 X53.281 Y181.162 E.18211
G1 X53.256 Y120 E3.43953
G1 X53.389 Y117.332 E.15024
G1 X53.905 Y114.142 E.18172
G1 X54.815 Y110.999 E.18403
G1 X56.079 Y108.038 E.18102
G1 X57.631 Y105.342 E.17495
G1 X59.577 Y102.731 E.18314
G1 X61.779 Y100.425 E.1793
G1 X64.228 Y98.404 E.17853
; printing object SpeedTestStructure.step id:0 copy 0
G1 E-.8 F2100
EXCLUDE_OBJECT_START NAME=SpeedTestStructure.step_id_0_copy_0
G1 X65.78 Y100.544 F9000
G1 E.8 F2100
;TYPE:Brim
G1 F2700
G1 X66.846 Y99.808 E.07285
G1 X68.237 Y98.968 E.09139
G1 X69.372 Y98.371 E.0721
G1 X70.858 Y97.703 E.09161
G1 X72.058 Y97.247 E.0722
G1 X73.061 Y96.922 E.05928
G1 X73.621 Y96.762 E.03277
G1 X74.858 Y96.457 E.07167
G1 X75.883 Y96.256 E.05873
G1 X76.551 Y96.151 E.03799
G1 X77.734 Y96.008 E.06706
G1 X78.775 Y95.933 E.0587
G1 X79.468 Y95.909 E.03895
G1 X230.072 Y95.903 E8.46945
M73 P2 R38
G1 X231.075 Y95.942 E.05644
G1 X231.85 Y96.024 E.04383
G1 X232.524 Y96.129 E.03835
G1 X233.271 Y96.286 E.04294
G1 X233.789 Y96.42 E.03007
G1 X234.87 Y96.769 E.06388
G1 X235.605 Y97.065 E.04454
G1 X236.212 Y97.344 E.0376
G1 X236.903 Y97.708 E.0439
G1 X237.328 Y97.956 E.02771
G1 X237.866 Y98.301 E.0359
G1 X238.535 Y98.779 E.04628
G1 X239.409 Y99.502 E.06372
G1 X240.003 Y100.068 E.04618
G1 X240.768 Y100.901 E.0636
G1 X241.267 Y101.527 E.04504
G1 X241.908 Y102.453 E.06331
G1 X242.168 Y102.88 E.02811
G1 X242.55 Y103.574 E.04455
G1 X242.836 Y104.172 E.03727
G1 X243.145 Y104.904 E.04471
G1 X243.476 Y105.865 E.05715
G1 X243.762 Y106.944 E.06278
G1 X243.912 Y107.714 E.04408
G1 X244.003 Y108.367 E.03711
G1 X244.075 Y109.193 E.04663
G1 X244.094 Y110.316 E.06311
G1 X244.051 Y111.142 E.04653
G1 X243.912 Y112.282 E.06458
G1 X243.761 Y113.059 E.04452
G1 X243.477 Y114.13 E.06231
G1 X243.213 Y114.916 E.04663
G1 X242.78 Y115.95 E.06304
G1 X242.555 Y116.411 E.02885
G1 X242.17 Y117.114 E.0451
G1 X241.569 Y118.054 E.06272
G1 X241.26 Y118.483 E.02974
G1 X240.771 Y119.094 E.04398
G1 X240.002 Y119.933 E.06403
G1 X239.396 Y120.509 E.04702
G1 X238.914 Y120.921 E.03565
G1 X238.262 Y121.421 E.04622
G1 X237.869 Y121.695 E.02695
G1 X236.919 Y122.281 E.06276
G1 X236.478 Y122.52 E.02818
G1 X235.756 Y122.868 E.04508
G1 X234.684 Y123.296 E.06493
G1 X233.919 Y123.54 E.04514
G1 X233.296 Y123.705 E.03626
G1 X232.357 Y123.897 E.05388
G1 X231.538 Y124.013 E.04652
G1 X230.584 Y124.085 E.05382
G1 X229.999 Y124.098 E.03291
G1 X89.774 Y124.103 E7.88573
G1 X89.182 Y124.154 E.03343
G1 X88.58 Y124.271 E.03448
G1 X88.01 Y124.444 E.03351
G1 X87.417 Y124.693 E.03617
G1 X86.898 Y124.978 E.03325
G1 X86.394 Y125.329 E.03458
G1 X85.941 Y125.714 E.03341
G1 X85.53 Y126.146 E.03356
G1 X85.145 Y126.644 E.03535
G1 X84.83 Y127.152 E.03362
G1 X84.565 Y127.698 E.03416
G1 X84.404 Y128.121 E.02544
G1 X84.241 Y128.71 E.03434
G1 X84.142 Y129.29 E.03312
G1 X84.099 Y129.886 E.03358
G1 X84.121 Y130.493 E.03416
G1 X84.202 Y131.103 E.03462
