; HEADER_BLOCK_START
; generated by OrcaSlicer 1.8.1 on 2023-12-16 at 16:52:46
; total layer number: 162
; HEADER_BLOCK_END

; THUMBNAIL_BLOCK_START

;
; THUMBNAIL_BLOCK_END

; external perimeters extrusion width = 0.70mm
; perimeters extrusion width = 0.45mm
; infill extrusion width = 0.45mm
; solid infill extrusion width = 0.50mm
; top infill extrusion width = 0.40mm
; first layer extrusion width = 0.50mm

; EXECUTABLE_BLOCK_START
EXCLUDE_OBJECT_DEFINE NAME=SpeedTestStructure.step_id_0_copy_0 CENTER=150,150 POLYGON=[[60.001,119.999],[60.003,119.669],[60.011,119.325],[60.021,119.059],[60.031,118.859],[60.047,118.633],[60.061,118.437],[60.0791,118.221],[60.091,118.089],[60.1211,117.795],[60.1331,117.687],[60.151,117.545],[60.1911,117.235],[60.219,117.045],[60.237,116.927],[60.285,116.633],[60.3711,116.157],[60.471,115.683],[60.491,115.597],[60.581,115.215],[60.603,115.127],[60.7031,114.745],[60.835,114.281],[60.979,113.819],[61.007,113.735],[61.1631,113.277],[61.299,112.909],[61.331,112.825],[61.477,112.457],[61.665,112.011],[61.701,111.931],[61.863,111.573],[61.901,111.491],[62.071,111.137],[62.291,110.705],[62.521,110.281],[62.5651,110.203],[62.761,109.861],[63.011,109.447],[63.271,109.039],[63.541,108.639],[63.591,108.565],[63.821,108.245],[63.873,108.173],[64.109,107.855],[64.407,107.475],[64.715,107.103],[65.029,106.737],[65.353,106.379],[65.415,106.313],[65.687,106.029],[66.029,105.687],[66.379,105.353],[66.737,105.029],[67.103,104.715],[67.171,104.657],[67.475,104.407],[67.8551,104.109],[67.9271,104.055],[68.317,103.767],[68.713,103.489],[69.039,103.271],[69.115,103.221],[69.447,103.011],[69.861,102.761],[70.281,102.521],[70.7051,102.291],[71.137,102.071],[71.573,101.863],[72.011,101.665],[72.095,101.629],[72.457,101.477],[72.9091,101.299],[72.9931,101.267],[73.447,101.105],[73.819,100.979],[73.907,100.951],[74.281,100.835],[74.7451,100.703],[74.833,100.679],[75.2151,100.581],[75.683,100.471],[76.157,100.371],[76.6331,100.285],[76.723,100.271],[77.199,100.197],[77.679,100.135],[78.069,100.093],[78.1591,100.085],[78.5511,100.053],[78.641,100.047],[79.033,100.023],[79.125,100.019],[79.517,100.007],[79.6071,100.005],[79.999,100.001],[230.001,100.001],[230.345,100.007],[230.409,100.009],[230.691,100.023],[231.035,100.053],[231.377,100.095],[231.441,100.105],[231.719,100.149],[231.781,100.161],[232.119,100.227],[232.393,100.291],[232.455,100.307],[232.727,100.379],[232.789,100.397],[233.057,100.477],[233.383,100.591],[233.443,100.613],[233.707,100.711],[234.025,100.845],[234.339,100.989],[234.647,101.145],[234.951,101.311],[235.247,101.487],[235.537,101.673],[235.591,101.709],[235.821,101.869],[235.873,101.907],[236.099,102.075],[236.369,102.289],[236.419,102.331],[236.631,102.515],[236.933,102.793],[237.177,103.037],[237.413,103.287],[237.599,103.499],[237.817,103.765],[237.859,103.817],[238.029,104.039],[238.067,104.091],[238.229,104.319],[238.267,104.373],[238.421,104.607],[238.455,104.661],[238.601,104.901],[238.773,105.201],[238.933,105.507],[239.083,105.817],[239.221,106.133],[239.245,106.193],[239.373,106.513],[239.467,106.779],[239.487,106.841],[239.573,107.109],[239.683,107.501],[239.749,107.775],[239.763,107.837],[239.821,108.113],[239.881,108.453],[239.927,108.795],[239.963,109.139],[239.987,109.483],[239.999,109.827],[239.999,190.173],[239.997,190.237],[239.987,190.517],[239.983,190.583],[239.963,190.863],[239.957,190.927],[239.927,191.205],[239.919,191.269],[239.881,191.547],[239.821,191.887],[239.749,192.225],[239.665,192.559],[239.649,192.621],[239.573,192.893],[239.467,193.221],[239.349,193.545],[239.197,193.925],[239.083,194.183],[239.057,194.239],[238.933,194.495],[238.773,194.801],[238.601,195.099],[238.567,195.155],[238.421,195.393],[238.267,195.627],[238.229,195.681],[238.067,195.909],[238.029,195.961],[237.859,196.185],[237.777,196.285],[237.599,196.501],[237.413,196.711],[237.369,196.759],[237.131,197.009],[236.933,197.207],[236.677,197.443],[236.631,197.485],[236.419,197.667],[236.369,197.709],[236.099,197.925],[235.873,198.093],[235.821,198.131],[235.591,198.289],[235.537,198.325],[235.301,198.479],[235.247,198.513],[235.007,198.657],[234.951,198.689],[234.705,198.825],[234.647,198.855],[234.339,199.009],[234.085,199.127],[234.025,199.153],[233.765,199.263],[233.707,199.287],[233.383,199.411],[233.119,199.501],[233.057,199.521],[232.789,199.603],[232.727,199.621],[232.393,199.711],[232.119,199.773],[232.057,199.787],[231.719,199.851],[231.441,199.895],[231.377,199.905],[231.035,199.947],[230.755,199.971],[230.691,199.975],[230.345,199.995],[230.065,199.999],[79.951,199.999],[79.517,199.995],[79.033,199.975],[78.943,199.971],[78.5511,199.949],[77.979,199.897],[77.589,199.855],[77.499,199.843],[77.111,199.791],[77.0211,199.777],[76.6331,199.715],[76.157,199.627],[76.071,199.609],[75.597,199.509],[75.2151,199.419],[75.127,199.397],[74.7451,199.299],[74.281,199.165],[74.195,199.139],[73.819,199.021],[73.735,198.993],[73.363,198.867],[72.9091,198.699],[72.825,198.667],[72.457,198.523],[72.375,198.489],[72.011,198.337],[71.573,198.137],[71.491,198.099],[71.137,197.929],[71.057,197.889],[70.7051,197.709],[70.627,197.667],[70.281,197.479],[70.2031,197.435],[69.861,197.239],[69.447,196.989],[69.039,196.729],[68.639,196.459],[68.5651,196.407],[68.2451,196.181],[67.8551,195.891],[67.785,195.837],[67.475,195.593],[67.103,195.287],[66.737,194.971],[66.671,194.911],[66.379,194.645],[66.313,194.583],[66.029,194.311],[65.965,194.249],[65.625,193.907],[65.353,193.619],[65.029,193.263],[64.715,192.897],[64.657,192.827],[64.407,192.523],[64.351,192.453],[64.109,192.143],[64.055,192.071],[63.767,191.683],[63.489,191.287],[63.271,190.961],[63.221,190.885],[63.011,190.553],[62.965,190.477],[62.761,190.139],[62.7171,190.063],[62.521,189.721],[62.291,189.295],[62.071,188.865],[61.863,188.429],[61.665,187.987],[61.629,187.905],[61.477,187.541],[61.299,187.091],[61.267,187.009],[61.1351,186.639],[61.1051,186.553],[60.979,186.179],[60.951,186.095],[60.835,185.719],[60.7031,185.253],[60.679,185.167],[60.581,184.787],[60.471,184.315],[60.3711,183.841],[60.285,183.369],[60.237,183.075],[60.215,182.937],[60.1631,182.559],[60.1331,182.311],[60.0931,181.931],[60.073,181.709],[60.047,181.381],[60.043,181.315],[60.0231,180.967],[60.019,180.891],[60.007,180.485],[60.005,180.413],[60.001,180.201],[60.001,119.999]]
M73 P0 R37
;TYPE:Custom
; Initial setups

START_PRINT EXTRUDER_TEMP=205 BED_TEMP=70

;G90 ; use absolute coordinates
;M83 ; extruder relative mode
;M220 S100 ; reset speed factor to 100%
;M221 S100 ; reset extrusion rate to 100%

; Set the heating
;M190 S70 ; wait for bed to heat up
;M104 S205 ; start nozzle heating but don't wait

; Home
;G1 Z3 F3000 ; move z up little to prevent scratching of surface
;G28 ; home all axes
;G1 X3 Y3 F5000 ; move to corner of the bed to avoid ooze over centre

; Wait for final heating
;M109 S205 ; wait for the nozzle to heat up
;M190 S70 ; wait for the bed to heat up

; Return to prime position, Prime line routine
G92 E0 ; Reset Extruder
G1 Z3 F3000 ; move z up little to prevent scratching of surface
G1 X10 Y3 Z0.25 F5000.0 ; Move to start position
G1 X100 Y3 Z0.25 F1500.0 E15 ; Draw the first line
G1 X100 Y3.2 Z0.25 F5000.0 ; Move to side a little
G1 X10 Y3.2 Z0.25 F1500.0 E30 ; Draw the second line
G92 E0 ; Reset Extruder
;M221 S95
G90
G21
M83 ; use relative distances for extrusion
; filament start gcode
M106 S0
;LAYER_CHANGE
;Z:0.32
;HEIGHT:0.32
;BEFORE_LAYER_CHANGE
G92 E0
;0.32


G1 Z.32 F9000
;AFTER_LAYER_CHANGE
;0.32
;_SET_FAN_SPEED_CHANGING_LAYER
G1 E-.8 F2100
G1 X64.211 Y97.386 F9000
G1 E.8 F2100
SET_VELOCITY_LIMIT ACCEL=500 ACCEL_TO_DECEL=250
;TYPE:Skirt
;WIDTH:0.5
G1 F3000
G1 X65.991 Y96.212 E.1199
G1 X68.947 Y94.702 E.18669
G1 X70.351 Y94.135 E.08513
G1 X72.616 Y93.4 E.13392
G1 X74.55 Y92.936 E.11183
G1 X75.897 Y92.701 E.07691
G1 X77.474 Y92.509 E.08932
G1 X79.35 Y92.402 E.10571
G1 X230.1 Y92.395 E8.47759
G1 X231.673 Y92.473 E.0886
G1 X233.225 Y92.692 E.08812
G1 X234.921 Y93.095 E.09804
G1 X236.528 Y93.65 E.09561
G1 X237.822 Y94.226 E.07964
G1 X239.277 Y95.038 E.09369
G1 X241.052 Y96.294 E.1223
G1 X242.142 Y97.252 E.0816
G1 X242.995 Y98.124 E.06861
G1 X244.249 Y99.66 E.11153
G1 X245.429 Y101.523 E.12402
G1 X245.976 Y102.601 E.06799
G1 X246.518 Y103.911 E.07973
G1 X247.058 Y105.65 E.10236
G1 X247.294 Y106.703 E.06071
G1 X247.571 Y108.897 E.12434
G1 X247.606 Y189.827 E4.55123
G1 X247.537 Y191.56 E.09755
G1 X247.205 Y193.733 E.12363
G1 X246.788 Y195.304 E.09141
G1 X246.018 Y197.307 E.12062
G1 X245.11 Y199.032 E.10967
G1 X243.788 Y200.945 E.13076
G1 X242.259 Y202.636 E.1282
G1 X240.72 Y203.965 E.11437
G1 X238.75 Y205.277 E.13308
G1 X236.561 Y206.337 E.13677
G1 X234.436 Y207.039 E.12587
G1 X232.227 Y207.464 E.12651
G1 X230.052 Y207.606 E.12257
G1 X79.999 Y207.606 E8.43841
G1 X78.163 Y207.546 E.10328
G1 X76.539 Y207.389 E.09176
G1 X74.781 Y207.109 E.1001
G1 X72.9 Y206.679 E.10853
G1 X71.48 Y206.259 E.08327
G1 X69.723 Y205.622 E.10512
G1 X68.321 Y205.013 E.08595
G1 X65.426 Y203.446 E.18511
G1 X63.77 Y202.332 E.11223
G1 X62.301 Y201.187 E.10476
G1 X59.904 Y198.927 E.18528
G1 X58.818 Y197.703 E.09205
G1 X57.718 Y196.296 E.10043
G1 X55.962 Y193.573 E.18218
G1 X55.262 Y192.254 E.08398
G1 X54.497 Y190.565 E.1043
G1 X53.505 Y187.754 E.16762
G1 X52.787 Y184.649 E.17922
G1 X52.536 Y182.797 E.10513
G1 X52.421 Y181.231 E.08827
G1 X52.394 Y119.999 E3.44347
G1 X52.522 Y117.338 E.1498
G1 X53.039 Y114.067 E.18624
G1 X53.498 Y112.274 E.1041
G1 X53.983 Y110.771 E.08884
G1 X54.64 Y109.092 E.10135
G1 X55.296 Y107.678 E.08769
G1 X56.831 Y104.99 E.17404
G1 X57.972 Y103.36 E.11191
G1 X58.822 Y102.293 E.07674
G1 X61.072 Y99.903 E.18458
G1 X62.601 Y98.566 E.11425
G1 X63.681 Y97.735 E.07663
G1 X64.178 Y97.408 E.03342
G1 X64.414 Y97.767 F9000
G1 F3000
G1 X66.206 Y96.586 E.12066
G1 X69.116 Y95.099 E.18378
G1 X70.494 Y94.542 E.0836
G1 X72.74 Y93.813 E.13281
G1 X74.644 Y93.357 E.11006
G1 X75.97 Y93.127 E.07569
G1 X77.505 Y92.939 E.08698
G1 X79.365 Y92.833 E.10478
G1 X230.087 Y92.826 E8.47603
M73 P1 R37
G1 X231.639 Y92.903 E.08738
G1 X233.136 Y93.115 E.08502
G1 X234.795 Y93.507 E.09586
G1 X236.355 Y94.045 E.0928
G1 X237.621 Y94.608 E.07792
G1 X239.038 Y95.397 E.0912
G1 X240.789 Y96.636 E.12068
G1 X241.85 Y97.569 E.0794
G1 X242.667 Y98.405 E.06575
G1 X243.894 Y99.905 E.10901
G1 X245.058 Y101.743 E.12235
G1 X245.582 Y102.776 E.06515
G1 X246.11 Y104.051 E.0776
G1 X246.638 Y105.747 E.09987
G1 X246.868 Y106.77 E.05896
G1 X247.142 Y108.934 E.12268
G1 X247.175 Y189.827 E4.54912
G1 X247.107 Y191.528 E.09574
G1 X246.735 Y193.858 E.13269
G1 X246.056 Y196.091 E.13123
G1 X245.337 Y197.729 E.10063
G1 X244.149 Y199.732 E.13096
G1 X242.659 Y201.604 E.13454
G1 X241.503 Y202.753 E.09167
G1 X240.467 Y203.615 E.07578
G1 X238.523 Y204.91 E.13136
G1 X236.389 Y205.941 E.13329
G1 X234.315 Y206.624 E.1228
G1 X232.184 Y207.035 E.12204
G1 X230.052 Y207.175 E.12019
G1 X79.999 Y207.175 E8.43841
G1 X78.184 Y207.115 E.10213
G1 X76.602 Y206.963 E.08938
G1 X74.859 Y206.685 E.09925
G1 X73.002 Y206.26 E.10712
G1 X71.618 Y205.851 E.08114
G1 X69.876 Y205.219 E.10423
G1 X68.512 Y204.627 E.08361
G1 X67.256 Y204.002 E.07891
G1 X65.559 Y203.02 E.11024
G1 X64.019 Y201.98 E.10448
G1 X62.571 Y200.851 E.10327
G1 X60.209 Y198.622 E.18264
G1 X59.154 Y197.432 E.08942
G1 X58.063 Y196.038 E.09956
G1 X56.331 Y193.35 E.17982
G1 X55.566 Y191.894 E.09249
G1 X54.891 Y190.388 E.09282
G1 X53.922 Y187.642 E.16379
G1 X53.213 Y184.583 E.17657
G1 X52.964 Y182.744 E.10434
G1 X52.853 Y181.221 E.08589
G1 X52.825 Y119.999 E3.44291
G1 X52.952 Y117.371 E.14797
G1 X53.462 Y114.149 E.18342
G1 X53.915 Y112.382 E.1026
G1 X54.388 Y110.918 E.08653
G1 X55.039 Y109.255 E.10043
G1 X55.68 Y107.874 E.08559
G1 X57.198 Y105.217 E.1721
G1 X59.159 Y102.562 E.18559
G1 X61.377 Y100.208 E.18191
G1 X62.879 Y98.896 E.11219
G1 X63.944 Y98.078 E.07549
G1 X64.381 Y97.789 E.02947
G1 X64.618 Y98.148 F9000
G1 F3000
G1 X66.421 Y96.96 E.12142
G1 X68.149 Y96.025 E.11053
G1 X69.832 Y95.264 E.10385
G1 X72.865 Y94.226 E.18027
G1 X76.042 Y93.552 E.18268
G1 X77.536 Y93.37 E.08464
G1 X79.38 Y93.264 E.10386
G1 X230.074 Y93.257 E8.47448
G1 X231.604 Y93.333 E.08616
G1 X233.047 Y93.537 E.08193
G1 X234.668 Y93.92 E.09368
G1 X236.182 Y94.44 E.09
G1 X237.42 Y94.989 E.0762
G1 X238.799 Y95.756 E.08871
G1 X240.527 Y96.979 E.11906
G1 X241.557 Y97.886 E.07721
G1 X242.339 Y98.685 E.06288
G1 X243.539 Y100.15 E.10649
G1 X244.687 Y101.963 E.12067
G1 X245.188 Y102.951 E.06231
G1 X245.702 Y104.191 E.07547
G1 X246.218 Y105.844 E.09739
G1 X246.441 Y106.837 E.05721
G1 X246.712 Y108.972 E.12102
G1 X246.744 Y189.827 E4.54701
G1 X246.677 Y191.496 E.09393
G1 X246.318 Y193.747 E.12822
G1 X245.649 Y195.949 E.12937
G1 X244.958 Y197.523 E.09671
G1 X243.786 Y199.5 E.1292
G1 X242.333 Y201.322 E.13109
G1 X241.21 Y202.437 E.08902
G1 X240.215 Y203.265 E.07276
G1 X238.296 Y204.543 E.12963
G1 X236.217 Y205.545 E.12981
G1 X234.195 Y206.21 E.11974
G1 X232.142 Y206.606 E.11756
G1 X230.052 Y206.743 E.1178
G1 X79.999 Y206.744 E8.43841
G1 X78.204 Y206.685 E.10098
G1 X76.664 Y206.536 E.08701
G1 X74.936 Y206.26 E.0984
G1 X73.104 Y205.841 E.10571
G1 X71.757 Y205.442 E.079
G1 X68.703 Y204.24 E.18454
G1 X67.466 Y203.625 E.07773
G1 X65.795 Y202.659 E.10849
G1 X64.268 Y201.628 E.10364
G1 X62.841 Y200.515 E.10178
G1 X60.514 Y198.317 E.18001
G1 X59.49 Y197.162 E.08679
G1 X58.409 Y195.78 E.09869
G1 X56.7 Y193.127 E.17747
G1 X55.96 Y191.718 E.08953
G1 X55.284 Y190.212 E.09282
G1 X54.338 Y187.529 E.15996
G1 X53.639 Y184.517 E.17391
M73 P1 R36
G1 X53.392 Y182.692 E.10354
G1 X53.284 Y181.211 E.08351
G1 X53.256 Y119.999 E3.44234
G1 X53.382 Y117.403 E.14613
G1 X53.886 Y114.232 E.18059
G1 X54.333 Y112.491 E.1011
G1 X54.794 Y111.066 E.08421
G1 X56.064 Y108.071 E.18293
G1 X57.565 Y105.444 E.17017
G1 X59.495 Y102.832 E.18263
G1 X61.682 Y100.513 E.17925
G1 X64.206 Y98.42 E.18438
G1 X64.584 Y98.17 E.02551
; printing object SpeedTestStructure.step id:0 copy 0
G1 E-.8 F2100
EXCLUDE_OBJECT_START NAME=SpeedTestStructure.step_id_0_copy_0
G1 X66.082 Y100.337 F9000
G1 E.8 F2100
;TYPE:Brim
G1 F2700
G1 X66.839 Y99.814 E.05176
G1 X67.742 Y99.254 E.05973
G1 X68.245 Y98.965 E.03262
G1 X69.375 Y98.371 E.07181
G1 X70.322 Y97.932 E.05868
G1 X70.863 Y97.702 E.03308
G1 X71.519 Y97.444 E.03962
G1 X72.49 Y97.103 E.05787
G1 X73.623 Y96.762 E.06657
G1 X74.277 Y96.592 E.03799
G1 X75.308 Y96.362 E.05941
G1 X76.482 Y96.162 E.06699
G1 X77.733 Y96.009 E.07086
G1 X78.777 Y95.933 E.05883
G1 X79.467 Y95.91 E.03887
G1 X229.998 Y95.903 E8.4653
M73 P2 R36
G1 X230.878 Y95.93 E.04954
G1 X231.386 Y95.97 E.02864
G1 X232.508 Y96.128 E.06374
G1 X233.294 Y96.294 E.04515
G1 X233.896 Y96.452 E.035
G1 X234.413 Y96.61 E.03039
G1 X235.125 Y96.867 E.04258
G1 X236.194 Y97.336 E.06565
G1 X236.913 Y97.714 E.04569
G1 X237.338 Y97.963 E.02766
G1 X238.264 Y98.579 E.06255
G1 X238.912 Y99.076 E.04597
G1 X239.76 Y99.829 E.06375
G1 X240.334 Y100.413 E.04603
G1 X241.061 Y101.261 E.06283
G1 X241.364 Y101.658 E.02807
G1 X241.828 Y102.331 E.04598
G1 X242.406 Y103.306 E.06375
G1 X242.771 Y104.031 E.04562
G1 X243.2 Y105.054 E.06239
G1 X243.474 Y105.854 E.04756
G1 X243.64 Y106.446 E.03462
G1 X243.828 Y107.254 E.04662
G1 X244.003 Y108.372 E.06365
G1 X244.075 Y109.196 E.04653
G1 X244.094 Y109.68 E.02723
G1 X244.075 Y110.806 E.06329
G1 X244.038 Y111.294 E.02752
G1 X243.943 Y112.089 E.04503
G1 X243.722 Y113.229 E.06532
G1 X243.525 Y113.977 E.04353
G1 X243.367 Y114.478 E.02952
G1 X243.156 Y115.061 E.03486
G1 X242.84 Y115.818 E.04613
G1 X242.326 Y116.841 E.06438
G1 X241.917 Y117.53 E.04508
G1 X241.578 Y118.04 E.0344
G1 X241.259 Y118.484 E.03074
G1 X240.771 Y119.095 E.04396
G1 X240.001 Y119.933 E.06403
G1 X239.661 Y120.265 E.02676
G1 X239.049 Y120.81 E.04607
G1 X238.129 Y121.517 E.06525
G1 X237.478 Y121.95 E.04396
G1 X236.912 Y122.287 E.03703
G1 X236.478 Y122.521 E.02771
G1 X235.755 Y122.87 E.04517
G1 X235.149 Y123.122 E.03691
G1 X234.393 Y123.395 E.04521
G1 X233.317 Y123.701 E.0629
G1 X232.484 Y123.876 E.04786
G1 X231.561 Y124.011 E.05248
G1 X230.878 Y124.07 E.03853
G1 X229.998 Y124.097 E.04953
