; HEADER_BLOCK_START
; generated by OrcaSlicer 1.8.1 on 2023-12-17 at 16:52:10
; total layer number: 425
; HEADER_BLOCK_END

; THUMBNAIL_BLOCK_START

;
; THUMBNAIL_BLOCK_END

; external perimeters extrusion width = 0.40mm
; perimeters extrusion width = 0.45mm
; infill extrusion width = 0.45mm
; solid infill extrusion width = 0.50mm
; top infill extrusion width = 0.40mm
; first layer extrusion width = 0.50mm

; EXECUTABLE_BLOCK_START
EXCLUDE_OBJECT_DEFINE NAME=VFA.stl_id_0_copy_0 CENTER=150,150 POLYGON=[[93.5599,124.429],[93.5654,124.366],[93.582,124.304],[93.6091,124.246],[93.6458,124.193],[93.6911,124.148],[93.7436,124.111],[143.338,93.3761],[148.073,93.3761],[206.354,153.507],[206.391,153.56],[206.418,153.618],[206.435,153.68],[206.44,153.744],[206.435,153.807],[206.418,153.869],[189.092,196.433],[189.06,196.488],[189.019,196.538],[188.97,196.579],[188.914,196.611],[188.854,196.633],[188.791,196.644],[116.455,206.618],[116.391,206.624],[116.327,206.618],[116.265,206.602],[116.207,206.575],[116.155,206.538],[116.109,206.493],[116.073,206.44],[116.046,206.382],[93.582,124.555],[93.5654,124.493],[93.5599,124.429]]
M73 P0 R58
;TYPE:Custom
; Initial setups

START_PRINT EXTRUDER_TEMP=205 BED_TEMP=70

;G90 ; use absolute coordinates
;M83 ; extruder relative mode
;M220 S100 ; reset speed factor to 100%
;M221 S100 ; reset extrusion rate to 100%

; Set the heating
;M190 S70 ; wait for bed to heat up
;M104 S205 ; start nozzle heating but don't wait

; Home
;G1 Z3 F3000 ; move z up little to prevent scratching of surface
;G28 ; home all axes
;G1 X3 Y3 F5000 ; move to corner of the bed to avoid ooze over centre

; Wait for final heating
;M109 S205 ; wait for the nozzle to heat up
;M190 S70 ; wait for the bed to heat up

; Return to prime position, Prime line routine
G92 E0 ; Reset Extruder
G1 Z3 F3000 ; move z up little to prevent scratching of surface
G1 X10 Y3 Z0.25 F5000.0 ; Move to start position
G1 X100 Y3 Z0.25 F1500.0 E15 ; Draw the first line
M73 P0 R57
G1 X100 Y3.2 Z0.25 F5000.0 ; Move to side a little
G1 X10 Y3.2 Z0.25 F1500.0 E30 ; Draw the second line
G92 E0 ; Reset Extruder
;M221 S95
G90
G21
M83 ; use relative distances for extrusion
; filament start gcode
SET_PRESSURE_ADVANCE ADVANCE=0.1; Override pressure advance value
M106 S0
;LAYER_CHANGE
;Z:0.25
;HEIGHT:0.25
;BEFORE_LAYER_CHANGE
G92 E0
;0.25


G1 Z.25 F9000
;AFTER_LAYER_CHANGE
;0.25
;_SET_FAN_SPEED_CHANGING_LAYER
G1 E-.8 F2100
G1 X90.683 Y119.174 F9000
G1 E.8 F2100
SET_VELOCITY_LIMIT ACCEL=500 ACCEL_TO_DECEL=250
;TYPE:Skirt
;WIDTH:0.5
G1 F3000
G1 X140.047 Y88.34 E2.59217
G1 X141.236 Y87.745 E.05918
G1 X142.397 Y87.442 E.05345
G1 X143.338 Y87.359 E.04206
G1 X148.395 Y87.375 E.22523
G1 X149.542 Y87.548 E.05166
G1 X150.634 Y87.939 E.05166
G1 X151.631 Y88.532 E.05166
G1 X152.344 Y89.139 E.04169
G1 X210.344 Y149.139 E3.71663
G1 X211.195 Y150.232 E.06168
G1 X211.863 Y151.766 E.07453
G1 X212.09 Y153.376 E.07243
G1 X212.074 Y154.433 E.04709
G1 X211.901 Y155.58 E.05166
G1 X211.646 Y156.38 E.03736
G1 X194.604 Y198.256 E2.01357
G1 X194.252 Y198.974 E.0356
G1 X193.516 Y200.002 E.05633
G1 X192.515 Y201.009 E.06324
G1 X191.581 Y201.697 E.05166
G1 X190.532 Y202.193 E.05166
G1 X189.502 Y202.467 E.04749
G1 X117.381 Y212.417 E3.24245
G1 X116.355 Y212.44 E.04573
G1 X115.209 Y212.26 E.05166
G1 X113.701 Y211.651 E.07243
G1 X112.793 Y211.109 E.04709
G1 X111.886 Y210.385 E.05166
G1 X110.86 Y209.064 E.07453
G1 X110.275 Y207.681 E.06686
G1 X87.946 Y126.356 E3.75601
G1 X87.736 Y124.91 E.06509
G1 X87.924 Y123.247 E.07453
G1 X88.368 Y122.063 E.05633
G1 X89.075 Y120.831 E.06324
G1 X89.799 Y119.925 E.05166
G1 X90.653 Y119.2 E.04988
G1 X90.922 Y119.552 F9000
G1 F3000
G1 X140.284 Y88.719 E2.59206
G1 X141.374 Y88.17 E.05434
G1 X142.445 Y87.886 E.04938
G1 X143.338 Y87.805 E.0399
G1 X148.352 Y87.819 E.22332
G1 X149.414 Y87.976 E.04783
G1 X150.427 Y88.334 E.04783
G1 X151.351 Y88.88 E.04783
G1 X152.023 Y89.449 E.03919
G1 X210.023 Y149.449 E3.71663
G1 X210.805 Y150.449 E.05651
G1 X211.439 Y151.904 E.07069
G1 X211.643 Y153.376 E.06621
G1 X211.63 Y154.39 E.04517
G1 X211.473 Y155.453 E.04783
G1 X211.232 Y156.211 E.03544
G1 X194.191 Y198.088 E2.01357
G1 X193.854 Y198.771 E.03392
G1 X193.168 Y199.723 E.05226
G1 X192.231 Y200.665 E.05916
G1 X191.369 Y201.305 E.04783
G1 X190.4 Y201.767 E.04783
G1 X189.441 Y202.025 E.04422
G1 X117.32 Y211.975 E3.24245
G1 X116.362 Y211.994 E.0427
G1 X115.301 Y211.823 E.04783
G1 X113.924 Y211.265 E.06621
G1 X113.052 Y210.746 E.04517
G1 X112.211 Y210.079 E.04783
G1 X111.237 Y208.825 E.07069
G1 X110.705 Y207.563 E.061
G1 X88.376 Y126.238 E3.75601
G1 X88.182 Y124.917 E.05946
G1 X88.36 Y123.34 E.07069
G1 X88.777 Y122.243 E.05226
G1 X89.438 Y121.091 E.05916
G1 X90.105 Y120.249 E.04783
G1 X90.891 Y119.578 E.04605
G1 X91.16 Y119.929 F9000
G1 F3000
G1 X140.52 Y89.097 E2.59195
G1 X141.512 Y88.594 E.04951
G1 X142.494 Y88.329 E.04531
G1 X143.072 Y88.266 E.02591
G1 X148.309 Y88.263 E.23323
G1 X149.287 Y88.404 E.044
G1 X150.219 Y88.73 E.044
G1 X151.072 Y89.228 E.044
G1 X151.702 Y89.759 E.0367
G1 X209.702 Y149.759 E3.71663
G1 X210.414 Y150.665 E.05134
G1 X211.014 Y152.042 E.06686
G1 X211.197 Y153.376 E.05999
G1 X211.186 Y154.347 E.04325
G1 X211.045 Y155.325 E.044
G1 X210.819 Y156.043 E.03352
G1 X193.777 Y197.92 E2.01357
G1 X193.457 Y198.568 E.03223
G1 X192.82 Y199.443 E.04819
G1 X191.948 Y200.32 E.05508
G1 X191.157 Y200.912 E.044
G1 X190.267 Y201.341 E.044
G1 X189.38 Y201.583 E.04095
G1 X117.259 Y211.533 E3.24245
G1 X116.369 Y211.547 E.03966
G1 X115.394 Y211.387 E.044
G1 X114.147 Y210.878 E.05999
G1 X113.312 Y210.383 E.04325
G1 X112.535 Y209.772 E.044
G1 X111.614 Y208.587 E.06686
G1 X111.135 Y207.445 E.05514
G1 X88.806 Y126.12 E3.75601
G1 X88.628 Y124.924 E.05384
G1 X88.797 Y123.433 E.06686
G1 X89.185 Y122.423 E.04819
G1 X89.801 Y121.35 E.05508
G1 X90.412 Y120.574 E.044
G1 X91.13 Y119.955 E.04222
; printing object VFA.stl id:0 copy 0
G1 E-.8 F2100
EXCLUDE_OBJECT_START NAME=VFA.stl_id_0_copy_0
G1 X92.605 Y122.173 F9000
G1 E.8 F2100
;TYPE:Brim
G1 F2700
G1 X93.006 Y121.92 E.02109
G1 X93.447 Y121.749 E.02109
G1 X93.913 Y121.665 E.02109
G1 X94.387 Y121.673 E.02109
G1 X94.849 Y121.771 E.02103
G1 X95.349 Y121.991 E.02434
G1 X112.44 Y131.858 E.87891
G1 X112.584 Y131.886 E.00656
G1 X112.744 Y131.777 E.00863
G1 X115.308 Y127.337 E.22834
G1 X115.589 Y126.942 E.02158
G1 X115.934 Y126.617 E.02109
G1 X116.334 Y126.364 E.02109
G1 X116.775 Y126.192 E.02109
G1 X117.242 Y126.109 E.02109
G1 X117.715 Y126.116 E.02109
G1 X118.177 Y126.215 E.02103
G1 X118.677 Y126.435 E.02434
G1 X131.125 Y133.621 E.64014
G1 X131.519 Y133.903 E.02158
G1 X131.844 Y134.247 E.02109
G1 X132.098 Y134.647 E.02109
G1 X132.269 Y135.089 E.02109
G1 X132.353 Y135.555 E.02109
G1 X132.345 Y136.029 E.02109
G1 X132.247 Y136.491 E.02103
G1 X132.027 Y136.991 E.02434
G1 X129.464 Y141.43 E.22828
G1 X129.436 Y141.574 E.00656
G1 X129.546 Y141.735 E.00863
G1 X141.729 Y148.769 E.62658
G1 X141.889 Y148.845 E.00787
G1 X142.106 Y148.883 E.00984
G1 X142.292 Y148.848 E.00841
G1 X142.503 Y148.734 E.01068
G1 X142.681 Y148.602 E.00987
G1 X142.786 Y148.481 E.00714
G1 X142.856 Y148.317 E.00795
G1 X142.883 Y148.078 E.01068
G1 X142.883 Y96.691 E2.28865
M73 P1 R57
G1 X142.834 Y96.551 E.00656
G1 X142.723 Y96.477 E.00595
G1 X142.412 Y96.384 E.01445
G1 X141.993 Y96.164 E.02109
G1 X141.624 Y95.867 E.02109
G1 X141.318 Y95.505 E.02109
G1 X141.088 Y95.091 E.02109
G1 X140.942 Y94.642 E.02103
G1 X140.883 Y94.099 E.02434
G1 X140.883 Y93.387 E.03171
G1 X140.929 Y92.905 E.02158
G1 X141.065 Y92.451 E.02109
G1 X141.285 Y92.031 E.02109
G1 X141.582 Y91.662 E.02109
G1 X141.943 Y91.357 E.02109
G1 X142.357 Y91.127 E.02109
G1 X142.807 Y90.981 E.02103
G1 X143.35 Y90.921 E.02434
G1 X148.062 Y90.921 E.20986
G1 X148.544 Y90.968 E.02158
G1 X148.998 Y91.103 E.02109
G1 X149.417 Y91.323 E.02109
G1 X149.787 Y91.62 E.02109
G1 X150.092 Y91.982 E.02109
G1 X150.322 Y92.396 E.02109
G1 X150.468 Y92.845 E.02103
G1 X150.528 Y93.388 E.02434
G1 X150.528 Y94.1 E.03171
G1 X150.481 Y94.583 E.02158
G1 X150.345 Y95.036 E.02109
G1 X150.125 Y95.456 E.02109
G1 X149.829 Y95.825 E.02109
G1 X149.467 Y96.13 E.02109
G1 X149.053 Y96.361 E.02109
G1 X148.682 Y96.481 E.01738
G1 X148.565 Y96.571 E.00656
G1 X148.528 Y96.694 E.00572
G1 X148.528 Y118 E.9489
G1 X148.576 Y118.139 E.00656
G1 X148.751 Y118.223 E.00863
G1 X154.706 Y118.223 E.26521
G1 X155.188 Y118.27 E.02158
G1 X155.642 Y118.405 E.02109
G1 X156.061 Y118.625 E.02109
G1 X156.43 Y118.922 E.02109
G1 X156.736 Y119.284 E.02109
G1 X156.966 Y119.697 E.02109
G1 X157.112 Y120.147 E.02103
G1 X157.171 Y120.69 E.02434
G1 X157.171 Y134.567 E.61804
G1 X157.124 Y135.049 E.02158
G1 X156.989 Y135.503 E.02109
G1 X156.769 Y135.922 E.02109
G1 X156.472 Y136.292 E.02109
G1 X156.11 Y136.597 E.02109
G1 X155.697 Y136.827 E.02109
G1 X155.247 Y136.973 E.02103
G1 X154.704 Y137.032 E.02434
G1 X148.751 Y137.032 E.26515
G1 X148.612 Y137.081 E.00656
G1 X148.528 Y137.256 E.00863
G1 X148.528 Y144.895 E.34024
G1 X148.578 Y145.705 E.03615
G1 X148.702 Y146.385 E.03075
G1 X148.914 Y147.07 E.03195
G1 X149.207 Y147.725 E.03195
G1 X149.577 Y148.339 E.03194
G1 X150.036 Y148.925 E.03314
G1 X150.544 Y149.431 E.03194
G1 X151.11 Y149.872 E.03195
G1 X151.7 Y150.229 E.03075
G1 X152.354 Y150.525 E.03194
G1 X153.038 Y150.74 E.03195
G1 X153.743 Y150.871 E.03194
G1 X154.54 Y150.921 E.03556
G1 X206.062 Y150.921 E2.29462
G1 X206.544 Y150.968 E.02158
G1 X206.998 Y151.103 E.02109
G1 X207.417 Y151.323 E.02109
G1 X207.787 Y151.62 E.02109
G1 X208.092 Y151.982 E.02109
G1 X208.322 Y152.396 E.02109
G1 X208.468 Y152.845 E.02103
G1 X208.528 Y153.388 E.02434
G1 X208.528 Y154.1 E.03171
G1 X208.481 Y154.583 E.02158
G1 X208.345 Y155.036 E.02109
G1 X208.125 Y155.456 E.02109
G1 X207.829 Y155.825 E.02109
G1 X207.467 Y156.13 E.02109
G1 X207.053 Y156.361 E.02109
G1 X206.604 Y156.507 E.02103
G1 X206.06 Y156.566 E.02434
G1 X184.428 Y156.566 E.96342
G1 X184.289 Y156.615 E.00656
G1 X184.205 Y156.789 E.00863
G1 X184.205 Y164.182 E.32926
G1 X184.159 Y164.664 E.02158
G1 X184.023 Y165.118 E.02109
G1 X183.803 Y165.538 E.02109
G1 X183.506 Y165.907 E.02109
G1 X183.144 Y166.212 E.02109
G1 X182.731 Y166.443 E.02109
G1 X182.281 Y166.589 E.02103
G1 X181.738 Y166.648 E.02434
G1 X170.562 Y166.648 E.49774
G1 X170.08 Y166.601 E.02158
G1 X169.626 Y166.466 E.02109
G1 X169.207 Y166.246 E.02109
G1 X168.838 Y165.949 E.02109
G1 X168.532 Y165.587 E.02109
G1 X168.302 Y165.173 E.02109
G1 X168.156 Y164.724 E.02103
G1 X168.097 Y164.181 E.02434
G1 X168.097 Y156.789 E.3292
G1 X168.048 Y156.65 E.00656
G1 X167.873 Y156.566 E.00863
G1 X154.467 Y156.566 E.59706
G1 X154.284 Y156.581 E.00821
G1 X154.13 Y156.627 E.00715
G1 X153.979 Y156.732 E.00818
G1 X153.877 Y156.873 E.00777
G1 X153.826 Y157.041 E.0078
G1 X153.833 Y157.221 E.00804
G1 X153.899 Y157.389 E.00802
G1 X154.049 Y157.576 E.0107
G1 X190.747 Y194.274 E2.31142
G1 X191.055 Y194.648 E.02158
G1 X191.28 Y195.065 E.02109
G1 X191.421 Y195.517 E.02109
G1 X191.472 Y195.988 E.02109
G1 X191.432 Y196.46 E.02109
G1 X191.303 Y196.915 E.02109
G1 X191.088 Y197.336 E.02103
G1 X190.746 Y197.762 E.02434
G1 X190.243 Y198.266 E.03171
G1 X189.869 Y198.574 E.02158
G1 X189.452 Y198.799 E.02109
G1 X189 Y198.94 E.02109
G1 X188.529 Y198.991 E.02109
G1 X188.057 Y198.951 E.02109
G1 X187.601 Y198.821 E.02109
G1 X187.181 Y198.607 E.02103
G1 X186.755 Y198.265 E.02434
G1 X174.71 Y186.22 E.75864
G1 X174.577 Y186.156 E.00656
G1 X174.394 Y186.22 E.00863
G1 X167.924 Y192.69 E.4075
G1 X167.55 Y192.998 E.02158
G1 X167.134 Y193.223 E.02109
G1 X166.681 Y193.364 E.02109
G1 X166.211 Y193.415 E.02109
G1 X165.739 Y193.375 E.02109
G1 X165.283 Y193.245 E.02109
G1 X164.862 Y193.031 E.02103
G1 X164.436 Y192.689 E.02434
G1 X151.864 Y180.116 E.79187
G1 X151.556 Y179.742 E.02158
G1 X151.331 Y179.326 E.02109
G1 X151.19 Y178.873 E.02109
G1 X151.139 Y178.403 E.02109
G1 X151.178 Y177.931 E.02109
G1 X151.308 Y177.475 E.02109
G1 X151.523 Y177.054 E.02103
G1 X151.865 Y176.628 E.02434
G1 X158.334 Y170.16 E.40743
G1 X158.398 Y170.027 E.00656
G1 X158.334 Y169.844 E.00863
G1 X149.819 Y161.33 E.53629
G1 X149.411 Y160.983 E.02384
G1 X149.042 Y160.757 E.01928
G1 X148.675 Y160.6 E.01776
G1 X148.223 Y160.484 E.02079
G1 X147.792 Y160.445 E.01928
G1 X147.361 Y160.471 E.01922
G1 X146.965 Y160.554 E.01803
G1 X146.564 Y160.703 E.01906
G1 X146.158 Y160.931 E.02073
G1 X145.84 Y161.181 E.01803
G1 X145.546 Y161.492 E.01906
G1 X145.232 Y161.947 E.02459
G1 X118.841 Y207.658 E2.35079
G1 X118.559 Y208.052 E.02158
G1 X118.215 Y208.378 E.02109
G1 X117.815 Y208.631 E.02109
G1 X117.373 Y208.803 E.02109
G1 X116.907 Y208.886 E.02109
G1 X116.433 Y208.878 E.02109
G1 X115.971 Y208.78 E.02103
G1 X115.471 Y208.56 E.02434
G1 X114.855 Y208.204 E.03171
G1 X114.46 Y207.922 E.02158
G1 X114.135 Y207.578 E.02109
G1 X113.882 Y207.178 E.02109
G1 X113.71 Y206.737 E.02109
G1 X113.627 Y206.27 E.02109
G1 X113.634 Y205.797 E.02109
G1 X113.732 Y205.335 E.02103
G1 X113.953 Y204.835 E.02434
G1 X124.234 Y187.027 E.91578
G1 X124.261 Y186.883 E.00656
G1 X124.152 Y186.722 E.00863
G1 X118.638 Y183.539 E.28357
G1 X118.244 Y183.257 E.02158
G1 X117.918 Y182.913 E.02109
G1 X117.665 Y182.513 E.02109
G1 X117.494 Y182.071 E.02109
G1 X117.41 Y181.605 E.02109
G1 X117.418 Y181.132 E.02109
G1 X117.516 Y180.67 E.02103
G1 X117.736 Y180.169 E.02434
G1 X124.694 Y168.118 E.61978
G1 X124.976 Y167.724 E.02158
G1 X125.32 Y167.398 E.02109
G1 X125.72 Y167.145 E.02109
G1 X126.162 Y166.974 E.02109
G1 X126.628 Y166.89 E.02109
G1 X127.102 Y166.898 E.02109
G1 X127.563 Y166.996 E.02103
G1 X128.064 Y167.216 E.02434
G1 X133.259 Y170.215 E.26717
G1 X133.403 Y170.243 E.00656
G1 X133.534 Y170.174 E.00656
G1 X133.579 Y170.101 E.00384
G1 X133.688 Y169.81 E.01384
G1 X134.125 Y168.317 E.06929
G1 X134.454 Y166.767 E.07054
G1 X134.663 Y165.203 E.07028
G1 X134.753 Y163.627 E.07029
G1 X134.722 Y162.049 E.0703
G1 X134.572 Y160.484 E.07005
G1 X134.302 Y158.923 E.07055
G1 X133.915 Y157.393 E.07028
G1 X133.413 Y155.897 E.07029
G1 X132.792 Y154.428 E.07105
G1 X132.067 Y153.025 E.07029
G1 X131.238 Y151.682 E.07029
G1 X130.31 Y150.406 E.07029
G1 X129.287 Y149.204 E.07029
G1 X128.175 Y148.083 E.07029
G1 X126.982 Y147.05 E.07029
G1 X125.714 Y146.111 E.07029
G1 X124.342 Y145.248 E.07219
G1 X92.526 Y126.879 E1.63621
G1 X92.131 Y126.597 E.02158
G1 X91.806 Y126.253 E.02109
G1 X91.553 Y125.853 E.02109
G1 X91.381 Y125.412 E.02109
G1 X91.298 Y124.945 E.02109
G1 X91.305 Y124.472 E.02109
G1 X91.403 Y124.01 E.02103
G1 X91.624 Y123.51 E.02434
G1 X91.98 Y122.893 E.03171
G1 X92.261 Y122.499 E.02158
G1 X92.576 Y122.201 E.01931
G1 X92.883 Y122.529 F9000
G1 F2700
G1 X92.892 Y122.521 E.00055
G1 X93.197 Y122.328 E.01608
G1 X93.556 Y122.185 E.01723
G1 X93.937 Y122.114 E.01723
G1 X94.324 Y122.118 E.01723
G1 X94.724 Y122.204 E.01822
G1 X95.153 Y122.394 E.02092
G1 X112.207 Y132.239 E.877
G1 X112.487 Y132.322 E.01303
G1 X112.686 Y132.318 E.00886
G1 X112.846 Y132.248 E.00776
G1 X112.983 Y132.154 E.00741
G1 X113.139 Y131.987 E.01016
G1 X115.68 Y127.584 E.22641
G1 X115.92 Y127.248 E.0184
G1 X116.199 Y126.98 E.01723
G1 X116.525 Y126.771 E.01723
G1 X116.885 Y126.629 E.01723
G1 X117.291 Y126.556 E.01837
G1 X117.652 Y126.562 E.01608
G1 X118.026 Y126.639 E.01701
G1 X118.468 Y126.831 E.02149
G1 X130.877 Y133.994 E.63813
G1 X131.214 Y134.234 E.0184
G1 X131.497 Y134.533 E.01837
G1 X131.702 Y134.862 E.01723
G1 X131.84 Y135.223 E.01723
G1 X131.905 Y135.604 E.01723
G1 X131.9 Y135.965 E.01608
G1 X131.823 Y136.339 E.01701
G1 X131.624 Y136.795 E.02213
G1 X129.083 Y141.197 E.22637
G1 X129.001 Y141.478 E.01303
G1 X129.005 Y141.676 E.00886
G1 X129.075 Y141.836 E.00776
G1 X129.168 Y141.973 E.00741
G1 X129.335 Y142.129 E.01016
G1 X141.537 Y149.171 E.62746
G1 X141.826 Y149.287 E.01385
G1 X142.018 Y149.321 E.00867
G1 X142.201 Y149.32 E.00818
G1 X142.365 Y149.289 E.00741
G1 X142.514 Y149.236 E.00704
G1 X142.706 Y149.131 E.00974
G1 X143.026 Y148.885 E.018
G1 X143.2 Y148.647 E.0131
G1 X143.301 Y148.357 E.01371
G1 X143.329 Y148.072 E.01275
G1 X143.329 Y96.702 E2.28786
G1 X143.26 Y96.417 E.01303
G1 X143.156 Y96.246 E.00891
G1 X142.978 Y96.111 E.00997
G1 X142.841 Y96.046 E.00675
